; Generated by Pen Plotter App
; 2025-05-23 20:29:25
G28 ; Home all axes
G90 ; Absolute positioning
G21 ; Units in millimeters
M5 ; Pen up

G1 X38.200 Y131.400 F12000 ; Move to start
M3 ; Pen down
G1 X38.400 Y131.400 F12000
G1 X39.600 Y131.400 F12000
G1 X41.800 Y131.400 F12000
G1 X43.400 Y131.400 F12000
G1 X44.600 Y131.000 F12000
G1 X45.400 Y130.600 F12000
G1 X46.600 Y130.000 F12000
G1 X47.200 Y129.800 F12000
G1 X48.400 Y129.400 F12000
G1 X49.600 Y128.800 F12000
G1 X50.200 Y128.600 F12000
G1 X51.200 Y128.000 F12000
G1 X51.800 Y127.800 F12000
G1 X52.800 Y127.400 F12000
G1 X53.400 Y127.000 F12000
G1 X53.600 Y126.800 F12000
G1 X54.000 Y126.600 F12000
G1 X54.400 Y126.400 F12000
G1 X54.800 Y126.200 F12000
G1 X55.000 Y126.200 F12000
G1 X55.000 Y126.000 F12000
G1 X55.200 Y125.800 F12000
G1 X55.400 Y125.800 F12000
M5 ; Pen up

G1 X29.600 Y114.000 F12000 ; Move to start
M3 ; Pen down
G1 X29.800 Y114.000 F12000
G1 X30.200 Y114.000 F12000
G1 X31.200 Y113.800 F12000
G1 X33.000 Y113.800 F12000
G1 X35.000 Y113.600 F12000
G1 X36.600 Y113.400 F12000
G1 X37.600 Y113.400 F12000
G1 X39.000 Y113.400 F12000
G1 X40.400 Y113.400 F12000
G1 X41.600 Y113.400 F12000
G1 X42.800 Y113.400 F12000
G1 X44.200 Y113.200 F12000
G1 X45.600 Y113.000 F12000
G1 X46.800 Y112.800 F12000
G1 X48.600 Y112.600 F12000
G1 X49.800 Y112.600 F12000
G1 X51.200 Y112.600 F12000
G1 X52.000 Y112.600 F12000
G1 X52.800 Y112.400 F12000
G1 X53.600 Y112.200 F12000
G1 X53.800 Y112.200 F12000
G1 X54.200 Y112.000 F12000
G1 X54.600 Y111.800 F12000
G1 X55.000 Y111.600 F12000
G1 X55.200 Y111.600 F12000
G1 X55.400 Y111.400 F12000
G1 X55.600 Y111.200 F12000
G1 X55.800 Y111.200 F12000
G1 X56.000 Y111.200 F12000
G1 X56.000 Y111.000 F12000
G1 X56.200 Y111.000 F12000
G1 X56.400 Y110.800 F12000
G1 X56.800 Y110.600 F12000
G1 X57.000 Y110.400 F12000
G1 X57.200 Y110.400 F12000
G1 X57.400 Y110.200 F12000
G1 X57.600 Y110.200 F12000
G1 X57.600 Y110.000 F12000
G1 X57.600 Y109.400 F12000
G1 X57.600 Y108.600 F12000
G1 X57.600 Y108.200 F12000
G1 X57.600 Y107.600 F12000
G1 X57.600 Y107.400 F12000
G1 X57.600 Y106.800 F12000
G1 X57.600 Y106.200 F12000
G1 X57.600 Y106.000 F12000
G1 X57.600 Y105.400 F12000
G1 X57.600 Y105.200 F12000
G1 X57.600 Y104.800 F12000
G1 X57.600 Y104.400 F12000
G1 X57.600 Y104.200 F12000
G1 X57.600 Y103.600 F12000
G1 X57.600 Y103.400 F12000
G1 X57.400 Y103.000 F12000
G1 X57.400 Y102.400 F12000
G1 X57.400 Y102.200 F12000
G1 X57.400 Y101.800 F12000
G1 X57.400 Y101.400 F12000
G1 X57.400 Y101.000 F12000
G1 X57.400 Y100.800 F12000
G1 X57.400 Y100.200 F12000
G1 X57.400 Y99.800 F12000
G1 X57.400 Y99.400 F12000
G1 X57.400 Y98.800 F12000
G1 X57.400 Y98.400 F12000
G1 X57.000 Y97.400 F12000
G1 X56.400 Y96.800 F12000
G1 X55.800 Y96.000 F12000
G1 X54.800 Y95.200 F12000
G1 X54.400 Y95.000 F12000
G1 X53.600 Y94.200 F12000
G1 X53.000 Y93.800 F12000
G1 X52.600 Y93.600 F12000
G1 X52.000 Y93.000 F12000
G1 X51.600 Y92.800 F12000
G1 X51.000 Y92.200 F12000
G1 X50.800 Y92.000 F12000
G1 X50.000 Y91.400 F12000
G1 X49.600 Y91.200 F12000
G1 X49.400 Y90.800 F12000
G1 X48.600 Y90.400 F12000
G1 X48.200 Y90.000 F12000
G1 X47.800 Y89.800 F12000
G1 X47.400 Y89.600 F12000
G1 X47.000 Y89.000 F12000
G1 X46.400 Y88.800 F12000
G1 X46.200 Y88.600 F12000
G1 X45.600 Y88.200 F12000
G1 X45.400 Y88.000 F12000
G1 X45.000 Y87.800 F12000
G1 X44.800 Y87.600 F12000
G1 X44.600 Y87.400 F12000
G1 X44.400 Y87.200 F12000
M5 ; Pen up

G1 X48.200 Y81.000 F12000 ; Move to start
M3 ; Pen down
G1 X48.000 Y80.800 F12000
G1 X47.600 Y80.000 F12000
G1 X46.600 Y78.800 F12000
G1 X46.200 Y78.200 F12000
G1 X45.600 Y77.600 F12000
G1 X44.800 Y76.800 F12000
G1 X44.400 Y76.400 F12000
G1 X43.600 Y75.600 F12000
G1 X43.400 Y75.600 F12000
G1 X42.400 Y74.600 F12000
G1 X41.600 Y73.800 F12000
G1 X41.000 Y73.400 F12000
G1 X40.000 Y72.600 F12000
G1 X39.400 Y72.200 F12000
G1 X38.400 Y71.600 F12000
G1 X37.800 Y71.000 F12000
G1 X36.600 Y70.200 F12000
G1 X35.600 Y69.400 F12000
G1 X35.000 Y69.200 F12000
G1 X34.000 Y68.400 F12000
G1 X33.400 Y68.000 F12000
G1 X32.600 Y67.600 F12000
G1 X32.200 Y67.200 F12000
G1 X31.600 Y66.800 F12000
G1 X30.800 Y66.200 F12000
G1 X30.400 Y66.000 F12000
G1 X30.000 Y65.600 F12000
G1 X29.400 Y65.400 F12000
G1 X29.000 Y64.800 F12000
G1 X28.600 Y64.600 F12000
G1 X28.000 Y64.000 F12000
G1 X27.200 Y63.600 F12000
G1 X27.000 Y63.200 F12000
G1 X26.000 Y62.800 F12000
G1 X25.600 Y62.400 F12000
G1 X25.200 Y62.000 F12000
G1 X24.800 Y61.600 F12000
G1 X24.200 Y61.400 F12000
G1 X23.800 Y61.000 F12000
G1 X23.600 Y60.800 F12000
G1 X23.200 Y60.400 F12000
G1 X23.000 Y60.200 F12000
G1 X22.800 Y59.800 F12000
G1 X22.600 Y59.600 F12000
G1 X22.600 Y59.400 F12000
G1 X22.400 Y59.200 F12000
G1 X22.400 Y59.000 F12000
G1 X22.400 Y58.800 F12000
G1 X22.200 Y58.800 F12000
G1 X22.400 Y58.800 F12000
G1 X22.800 Y59.000 F12000
G1 X23.200 Y59.200 F12000
G1 X23.600 Y59.400 F12000
G1 X24.000 Y59.600 F12000
G1 X24.200 Y59.600 F12000
G1 X24.400 Y59.800 F12000
G1 X24.600 Y60.000 F12000
G1 X25.200 Y60.000 F12000
G1 X25.800 Y60.400 F12000
G1 X26.200 Y60.400 F12000
G1 X26.600 Y60.600 F12000
G1 X27.000 Y60.800 F12000
G1 X27.800 Y61.000 F12000
G1 X28.000 Y61.200 F12000
G1 X28.600 Y61.400 F12000
G1 X29.200 Y61.400 F12000
G1 X29.400 Y61.600 F12000
G1 X30.000 Y61.600 F12000
G1 X30.200 Y61.800 F12000
G1 X30.600 Y61.800 F12000
G1 X30.800 Y61.800 F12000
G1 X30.800 Y62.000 F12000
G1 X31.000 Y62.000 F12000
G1 X31.200 Y62.200 F12000
G1 X31.800 Y62.200 F12000
G1 X33.000 Y62.400 F12000
G1 X33.800 Y62.400 F12000
G1 X34.400 Y62.400 F12000
G1 X35.000 Y62.400 F12000
G1 X35.400 Y62.400 F12000
G1 X36.000 Y62.400 F12000
G1 X36.400 Y62.400 F12000
G1 X36.800 Y62.200 F12000
G1 X37.200 Y62.000 F12000
G1 X37.400 Y62.000 F12000
G1 X38.200 Y61.600 F12000
G1 X38.800 Y61.400 F12000
G1 X39.400 Y61.200 F12000
G1 X40.200 Y61.000 F12000
G1 X40.800 Y60.600 F12000
G1 X41.800 Y60.400 F12000
G1 X42.400 Y60.000 F12000
G1 X43.200 Y59.800 F12000
G1 X44.200 Y59.200 F12000
G1 X44.600 Y59.000 F12000
G1 X45.600 Y58.600 F12000
G1 X46.000 Y58.400 F12000
G1 X46.400 Y58.000 F12000
G1 X46.600 Y58.000 F12000
G1 X46.800 Y57.800 F12000
G1 X46.800 Y57.200 F12000
G1 X46.800 Y57.000 F12000
G1 X46.800 Y56.600 F12000
G1 X46.800 Y56.400 F12000
G1 X46.800 Y56.200 F12000
G1 X46.800 Y56.000 F12000
G1 X47.400 Y55.600 F12000
G1 X48.000 Y55.400 F12000
G1 X49.400 Y54.400 F12000
G1 X50.800 Y53.600 F12000
G1 X51.600 Y53.400 F12000
G1 X52.800 Y53.200 F12000
G1 X54.000 Y53.200 F12000
G1 X54.400 Y53.200 F12000
G1 X55.200 Y53.200 F12000
G1 X55.400 Y53.200 F12000
G1 X55.800 Y53.400 F12000
G1 X55.800 Y53.600 F12000
G1 X56.000 Y53.600 F12000
G1 X56.400 Y53.600 F12000
G1 X56.400 Y53.800 F12000
G1 X56.600 Y54.000 F12000
G1 X56.800 Y54.200 F12000
G1 X57.000 Y54.400 F12000
G1 X57.000 Y54.600 F12000
G1 X57.000 Y54.800 F12000
G1 X57.200 Y55.200 F12000
G1 X57.200 Y55.400 F12000
G1 X57.200 Y55.800 F12000
G1 X57.200 Y56.000 F12000
G1 X57.200 Y56.200 F12000
G1 X57.200 Y56.400 F12000
G1 X57.200 Y56.800 F12000
G1 X57.200 Y57.000 F12000
G1 X57.200 Y57.400 F12000
G1 X57.200 Y57.600 F12000
G1 X57.200 Y57.800 F12000
G1 X57.200 Y58.200 F12000
G1 X57.200 Y58.600 F12000
G1 X57.200 Y58.800 F12000
G1 X57.200 Y59.000 F12000
G1 X57.200 Y59.400 F12000
G1 X57.200 Y59.600 F12000
M5 ; Pen up

G1 X34.200 Y46.000 F12000 ; Move to start
M3 ; Pen down
G1 X34.800 Y45.800 F12000
G1 X35.600 Y45.400 F12000
G1 X36.800 Y44.800 F12000
G1 X37.800 Y44.600 F12000
G1 X38.800 Y44.200 F12000
G1 X39.600 Y44.000 F12000
G1 X40.400 Y43.800 F12000
G1 X41.000 Y43.800 F12000
G1 X42.000 Y43.400 F12000
G1 X43.400 Y43.200 F12000
G1 X44.000 Y43.200 F12000
G1 X45.200 Y42.800 F12000
G1 X46.000 Y42.600 F12000
G1 X46.600 Y42.400 F12000
G1 X47.200 Y42.200 F12000
G1 X47.800 Y42.000 F12000
G1 X48.600 Y42.000 F12000
G1 X49.200 Y41.800 F12000
G1 X49.600 Y41.600 F12000
G1 X50.200 Y41.600 F12000
G1 X50.600 Y41.400 F12000
G1 X51.200 Y41.400 F12000
G1 X51.400 Y41.200 F12000
G1 X51.800 Y41.200 F12000
G1 X52.200 Y41.000 F12000
G1 X52.400 Y41.000 F12000
G1 X52.800 Y40.800 F12000
G1 X52.800 Y40.600 F12000
G1 X53.000 Y40.600 F12000
G1 X53.400 Y40.600 F12000
G1 X53.400 Y40.400 F12000
G1 X53.800 Y40.200 F12000
G1 X54.000 Y40.200 F12000
G1 X54.400 Y40.000 F12000
G1 X54.600 Y39.800 F12000
G1 X54.600 Y39.600 F12000
G1 X55.000 Y39.600 F12000
G1 X55.200 Y39.400 F12000
G1 X55.600 Y39.200 F12000
G1 X56.200 Y38.800 F12000
G1 X56.600 Y38.800 F12000
G1 X57.200 Y38.400 F12000
G1 X57.400 Y38.200 F12000
G1 X58.200 Y37.800 F12000
G1 X58.600 Y37.600 F12000
G1 X59.200 Y37.400 F12000
G1 X59.400 Y37.200 F12000
G1 X60.000 Y37.000 F12000
G1 X60.200 Y36.800 F12000
G1 X60.400 Y36.800 F12000
G1 X60.400 Y36.600 F12000
M5 ; Pen up

G1 X34.400 Y27.800 F12000 ; Move to start
M3 ; Pen down
G1 X34.400 Y27.400 F12000
G1 X34.400 Y26.800 F12000
G1 X34.600 Y26.400 F12000
G1 X34.600 Y26.200 F12000
G1 X34.800 Y25.800 F12000
G1 X35.000 Y25.800 F12000
G1 X35.000 Y25.600 F12000
G1 X35.200 Y25.400 F12000
G1 X35.200 Y25.200 F12000
G1 X35.600 Y24.800 F12000
G1 X35.800 Y24.600 F12000
G1 X36.200 Y24.200 F12000
G1 X36.600 Y23.800 F12000
G1 X36.800 Y23.600 F12000
G1 X37.000 Y23.600 F12000
G1 X37.400 Y23.000 F12000
G1 X37.600 Y22.800 F12000
G1 X37.800 Y22.400 F12000
G1 X38.200 Y22.200 F12000
G1 X38.200 Y22.000 F12000
G1 X38.600 Y21.800 F12000
G1 X38.600 Y21.600 F12000
G1 X39.000 Y21.200 F12000
G1 X39.400 Y20.400 F12000
G1 X39.800 Y20.000 F12000
G1 X40.000 Y19.600 F12000
G1 X40.200 Y19.200 F12000
G1 X40.400 Y18.800 F12000
G1 X40.600 Y18.600 F12000
G1 X40.800 Y18.000 F12000
G1 X41.200 Y17.800 F12000
G1 X41.400 Y17.600 F12000
G1 X41.600 Y17.200 F12000
G1 X41.800 Y17.000 F12000
G1 X42.200 Y16.400 F12000
G1 X42.400 Y16.200 F12000
G1 X42.800 Y16.000 F12000
G1 X43.200 Y15.800 F12000
G1 X43.400 Y15.400 F12000
G1 X43.600 Y15.400 F12000
G1 X43.800 Y15.200 F12000
G1 X44.000 Y15.000 F12000
G1 X44.600 Y14.800 F12000
G1 X44.600 Y14.600 F12000
G1 X45.000 Y14.400 F12000
G1 X45.400 Y14.000 F12000
G1 X45.600 Y13.800 F12000
G1 X46.000 Y13.600 F12000
G1 X46.200 Y13.600 F12000
G1 X46.600 Y13.200 F12000
G1 X47.000 Y13.000 F12000
G1 X47.200 Y13.000 F12000
G1 X47.400 Y12.800 F12000
G1 X47.600 Y12.800 F12000
G1 X47.800 Y12.600 F12000
G1 X48.800 Y12.200 F12000
G1 X49.200 Y12.000 F12000
G1 X50.400 Y11.400 F12000
G1 X51.200 Y10.800 F12000
G1 X51.600 Y10.600 F12000
G1 X52.400 Y10.200 F12000
G1 X52.600 Y10.000 F12000
G1 X53.000 Y9.800 F12000
G1 X53.400 Y9.600 F12000
G1 X53.600 Y9.400 F12000
G1 X53.800 Y9.400 F12000
G1 X54.200 Y9.000 F12000
G1 X54.800 Y9.000 F12000
G1 X55.600 Y8.800 F12000
G1 X56.400 Y8.800 F12000
G1 X57.800 Y8.800 F12000
G1 X59.400 Y8.800 F12000
G1 X60.200 Y8.600 F12000
G1 X61.600 Y8.600 F12000
G1 X62.400 Y8.400 F12000
G1 X63.600 Y8.400 F12000
G1 X64.600 Y8.400 F12000
G1 X65.000 Y8.400 F12000
G1 X65.400 Y8.400 F12000
G1 X65.800 Y8.600 F12000
G1 X66.000 Y8.600 F12000
G1 X66.200 Y8.600 F12000
G1 X66.200 Y8.800 F12000
M5 ; Pen up

G1 X0 Y0 F12000 ; Return to origin
M5 ; Pen up
M02 ; End of program
; End of program