; Generated by Pen Plotter App
; 2025-05-23 18:54:57
G28 ; Home all axes
G90 ; Absolute positioning
G21 ; Units in millimeters
F6000 ; Set feed rate
M5 ; Pen up

G1 X7.000 Y136.750 F6000 ; Move to start
M3 ; Pen down
G1 X8.000 Y136.750 F6000
G1 X9.500 Y136.750 F6000
G1 X10.500 Y136.750 F6000
G1 X11.500 Y136.750 F6000
G1 X12.250 Y136.750 F6000
G1 X13.000 Y136.750 F6000
G1 X13.250 Y136.750 F6000
G1 X13.750 Y136.750 F6000
G1 X14.000 Y136.750 F6000
G1 X14.500 Y136.750 F6000
G1 X14.750 Y136.750 F6000
G1 X15.250 Y136.750 F6000
G1 X15.500 Y136.750 F6000
G1 X15.750 Y136.750 F6000
G1 X16.000 Y136.750 F6000
M5 ; Pen up

G1 X0 Y0 F6000 ; Return to origin
M5 ; Pen up
M02 ; End of program
; End of program