; Generated by Pen Plotter App
; 2025-05-23 09:43:13
G28 ; Home all axes
G90 ; Absolute positioning
G21 ; Units in millimeters
G1 Z2.0 F3000 ; Pen up

G1 X95.667 Y112.000 F3000 ; Move to start
G1 Z0.0 F3000 ; Pen down
G1 X96.000 Y112.000 F1000
G1 X97.000 Y113.000 F1000
G1 X97.667 Y113.000 F1000
G1 X98.000 Y113.500 F1000
G1 X98.333 Y114.000 F1000
G1 X99.000 Y114.500 F1000
G1 X99.000 Y115.000 F1000
G1 X99.333 Y115.500 F1000
G1 X99.667 Y116.000 F1000
G1 X100.333 Y116.500 F1000
G1 X100.667 Y117.000 F1000
G1 X101.000 Y117.000 F1000
G1 X101.667 Y118.000 F1000
G1 X102.000 Y118.000 F1000
G1 X102.333 Y118.500 F1000
G1 X103.000 Y118.500 F1000
G1 X103.333 Y118.500 F1000
G1 X104.000 Y118.500 F1000
G1 X104.667 Y118.500 F1000
G1 X105.000 Y118.500 F1000
G1 X105.667 Y118.500 F1000
G1 X106.000 Y118.500 F1000
G1 X107.333 Y118.500 F1000
G1 X108.000 Y118.000 F1000
G1 X109.000 Y117.000 F1000
G1 X110.000 Y116.500 F1000
G1 X110.667 Y115.500 F1000
G1 X112.000 Y115.000 F1000
G1 X112.333 Y114.000 F1000
G1 X113.667 Y113.500 F1000
G1 X115.000 Y112.000 F1000
G1 X115.667 Y111.500 F1000
G1 X117.000 Y110.500 F1000
G1 X118.000 Y110.000 F1000
G1 X119.333 Y108.500 F1000
G1 X120.000 Y108.000 F1000
G1 X121.667 Y107.000 F1000
G1 X124.333 Y104.500 F1000
G1 X125.333 Y103.500 F1000
G1 X127.000 Y102.000 F1000
G1 X128.000 Y101.000 F1000
G1 X129.000 Y100.000 F1000
G1 X130.667 Y98.500 F1000
G1 X131.333 Y98.000 F1000
G1 X132.333 Y96.500 F1000
G1 X132.667 Y96.000 F1000
G1 X133.333 Y95.500 F1000
G1 X134.333 Y94.500 F1000
G1 X134.333 Y94.000 F1000
G1 X134.667 Y94.000 F1000
G1 X135.000 Y93.000 F1000
G1 X135.333 Y92.500 F1000
G1 X135.667 Y92.000 F1000
G1 X135.667 Y91.500 F1000
G1 X135.667 Y90.500 F1000
G1 X136.000 Y90.000 F1000
G1 X136.333 Y89.000 F1000
G1 X136.333 Y88.000 F1000
G1 X136.333 Y87.000 F1000
G1 X136.333 Y86.500 F1000
G1 X136.333 Y86.000 F1000
G1 X136.333 Y85.500 F1000
G1 X136.333 Y85.000 F1000
G1 X136.333 Y84.000 F1000
G1 X136.333 Y83.500 F1000
G1 X136.333 Y82.500 F1000
G1 X136.333 Y81.500 F1000
G1 X136.333 Y80.500 F1000
G1 X136.333 Y80.000 F1000
G1 X136.333 Y77.500 F1000
G1 X136.000 Y75.000 F1000
G1 X135.333 Y74.000 F1000
G1 X134.333 Y72.500 F1000
G1 X133.667 Y71.000 F1000
G1 X132.000 Y69.500 F1000
G1 X130.000 Y67.500 F1000
G1 X129.000 Y66.000 F1000
G1 X127.000 Y64.000 F1000
G1 X125.000 Y62.000 F1000
G1 X123.667 Y61.500 F1000
G1 X122.333 Y60.500 F1000
G1 X121.667 Y60.000 F1000
G1 X121.333 Y59.500 F1000
G1 X121.000 Y59.000 F1000
G1 X120.667 Y58.500 F1000
G1 X120.333 Y58.500 F1000
G1 X120.333 Y58.000 F1000
G1 X120.000 Y58.000 F1000
G1 X119.333 Y58.000 F1000
G1 X119.000 Y58.000 F1000
G1 X118.667 Y58.000 F1000
G1 X118.333 Y58.000 F1000
G1 X117.667 Y58.000 F1000
G1 X116.667 Y58.000 F1000
G1 X116.000 Y58.500 F1000
G1 X114.667 Y59.500 F1000
G1 X114.000 Y59.500 F1000
G1 X113.000 Y60.500 F1000
G1 X111.667 Y61.500 F1000
G1 X111.000 Y61.500 F1000
G1 X110.333 Y62.500 F1000
G1 X109.667 Y62.500 F1000
G1 X108.667 Y64.000 F1000
G1 X108.333 Y64.000 F1000
G1 X107.333 Y65.000 F1000
G1 X106.667 Y66.000 F1000
G1 X106.000 Y66.000 F1000
G1 X105.667 Y66.500 F1000
G1 X105.333 Y66.500 F1000
G1 X105.000 Y67.500 F1000
G1 X104.667 Y68.500 F1000
G1 X104.667 Y69.000 F1000
G1 X104.667 Y69.500 F1000
G1 X104.333 Y69.500 F1000
G1 X104.333 Y70.000 F1000
G1 X103.667 Y70.500 F1000
G1 X103.667 Y71.000 F1000
G1 X103.333 Y72.000 F1000
G1 X103.000 Y72.500 F1000
G1 X102.667 Y73.000 F1000
G1 X102.000 Y74.000 F1000
G1 X102.000 Y74.500 F1000
G1 X100.667 Y78.000 F1000
G1 X99.667 Y79.500 F1000
G1 X99.333 Y80.500 F1000
G1 X98.333 Y82.500 F1000
G1 X98.333 Y83.500 F1000
G1 X97.333 Y85.000 F1000
G1 X96.667 Y87.000 F1000
G1 X96.000 Y88.000 F1000
G1 X95.333 Y89.500 F1000
G1 X94.333 Y91.000 F1000
G1 X93.667 Y92.500 F1000
G1 X93.000 Y93.500 F1000
G1 X92.667 Y94.500 F1000
G1 X92.000 Y95.500 F1000
G1 X91.667 Y96.500 F1000
G1 X91.333 Y97.000 F1000
G1 X91.000 Y97.500 F1000
G1 X91.000 Y96.500 F1000
G1 X91.000 Y95.500 F1000
G1 X91.000 Y95.000 F1000
G1 X91.000 Y94.500 F1000
G1 X90.667 Y94.500 F1000
G1 X90.333 Y93.500 F1000
G1 X90.000 Y93.000 F1000
G1 X89.667 Y92.000 F1000
G1 X89.333 Y92.000 F1000
G1 X89.000 Y91.500 F1000
G1 X88.667 Y91.500 F1000
G1 X88.000 Y90.500 F1000
G1 X87.333 Y90.500 F1000
G1 X87.000 Y90.000 F1000
G1 X85.667 Y89.500 F1000
G1 X85.000 Y89.000 F1000
G1 X84.000 Y89.000 F1000
G1 X83.333 Y89.000 F1000
G1 X82.000 Y88.500 F1000
G1 X81.000 Y88.000 F1000
G1 X80.000 Y88.000 F1000
G1 X78.667 Y88.000 F1000
G1 X77.667 Y88.000 F1000
G1 X76.000 Y88.000 F1000
G1 X75.333 Y88.000 F1000
G1 X73.667 Y88.000 F1000
G1 X71.667 Y88.000 F1000
G1 X70.667 Y88.000 F1000
G1 X69.333 Y88.000 F1000
G1 X68.333 Y88.000 F1000
G1 X67.667 Y88.000 F1000
G1 X67.000 Y88.000 F1000
G1 X66.333 Y88.000 F1000
G1 X66.000 Y88.000 F1000
G1 X65.667 Y88.000 F1000
G1 X65.333 Y88.000 F1000
G1 X65.000 Y89.000 F1000
G1 X64.667 Y89.000 F1000
G1 X64.000 Y89.500 F1000
G1 X63.667 Y90.000 F1000
G1 X63.000 Y90.500 F1000
G1 X62.667 Y91.500 F1000
G1 X62.333 Y92.500 F1000
G1 X61.667 Y94.000 F1000
G1 X61.333 Y94.500 F1000
G1 X60.667 Y96.500 F1000
G1 X60.333 Y97.500 F1000
G1 X60.000 Y98.500 F1000
G1 X59.667 Y99.500 F1000
G1 X59.667 Y100.500 F1000
G1 X59.000 Y103.000 F1000
G1 X58.667 Y104.000 F1000
G1 X58.333 Y105.000 F1000
G1 X58.000 Y106.000 F1000
G1 X57.667 Y107.500 F1000
G1 X57.333 Y109.000 F1000
G1 X57.333 Y110.000 F1000
G1 X57.000 Y112.000 F1000
G1 X57.000 Y112.500 F1000
G1 X57.000 Y113.500 F1000
G1 X57.000 Y114.500 F1000
G1 X57.000 Y116.000 F1000
G1 X57.000 Y116.500 F1000
G1 X57.000 Y117.000 F1000
G1 X57.000 Y117.500 F1000
G1 X57.000 Y118.000 F1000
G1 X57.000 Y118.500 F1000
G1 X57.333 Y119.000 F1000
G1 X58.000 Y119.000 F1000
G1 X59.000 Y120.000 F1000
G1 X60.333 Y120.500 F1000
G1 X61.333 Y121.000 F1000
G1 X63.000 Y121.500 F1000
G1 X64.000 Y121.500 F1000
G1 X65.667 Y121.500 F1000
G1 X67.667 Y122.000 F1000
G1 X68.667 Y122.000 F1000
G1 X70.000 Y122.500 F1000
G1 X70.667 Y122.500 F1000
G1 X71.667 Y123.000 F1000
G1 X72.333 Y123.500 F1000
G1 X72.667 Y123.500 F1000
G1 X73.000 Y123.500 F1000
G1 X73.333 Y124.000 F1000
G1 X74.000 Y124.500 F1000
G1 X74.667 Y124.500 F1000
G1 X74.667 Y125.000 F1000
G1 X75.000 Y125.000 F1000
G1 X75.333 Y125.500 F1000
G1 X75.667 Y125.500 F1000
G1 X76.333 Y126.000 F1000
G1 X76.667 Y126.000 F1000
G1 X77.000 Y126.000 F1000
G1 X78.000 Y126.500 F1000
G1 X78.667 Y126.500 F1000
G1 X79.333 Y126.500 F1000
G1 X80.000 Y126.500 F1000
G1 X81.333 Y126.500 F1000
G1 X82.000 Y126.500 F1000
G1 X82.333 Y126.500 F1000
G1 X83.000 Y126.500 F1000
G1 X83.333 Y126.500 F1000
G1 X83.667 Y126.500 F1000
G1 X84.000 Y126.500 F1000
G1 X84.333 Y126.500 F1000
G1 X84.667 Y126.500 F1000
G1 X85.000 Y126.500 F1000
G1 X85.667 Y126.500 F1000
G1 X86.000 Y126.500 F1000
G1 X87.000 Y126.500 F1000
G1 X88.333 Y126.500 F1000
G1 X90.000 Y126.500 F1000
G1 X91.333 Y126.500 F1000
G1 X93.667 Y126.500 F1000
G1 X95.333 Y126.500 F1000
G1 X96.667 Y126.500 F1000
G1 X98.333 Y126.500 F1000
G1 X98.667 Y126.500 F1000
G1 X99.333 Y126.500 F1000
G1 X99.667 Y126.500 F1000
G1 X100.333 Y126.500 F1000
G1 X100.667 Y127.000 F1000
G1 X101.000 Y127.000 F1000
G1 X101.000 Y127.500 F1000
G1 X101.333 Y127.500 F1000
G1 X101.333 Y128.000 F1000
G1 X101.333 Y128.500 F1000
G1 X101.333 Y129.000 F1000
G1 X101.333 Y129.500 F1000
G1 X101.333 Y130.000 F1000
G1 X101.333 Y130.500 F1000
G1 X101.333 Y131.000 F1000
G1 X101.333 Y131.500 F1000
G1 X101.333 Y132.000 F1000
G1 X101.333 Y132.500 F1000
G1 X102.000 Y133.500 F1000
G1 X102.667 Y134.500 F1000
G1 X104.000 Y135.500 F1000
G1 X104.667 Y136.500 F1000
G1 X105.000 Y137.000 F1000
G1 X105.333 Y137.000 F1000
G1 X106.000 Y138.000 F1000
G1 X106.333 Y138.500 F1000
G1 X106.667 Y138.500 F1000
G1 X107.000 Y139.000 F1000
G1 X107.333 Y139.500 F1000
G1 X108.000 Y140.000 F1000
G1 X108.333 Y140.000 F1000
G1 X108.333 Y140.500 F1000
G1 X109.000 Y141.000 F1000
G1 X109.667 Y141.500 F1000
G1 X110.000 Y141.500 F1000
G1 X110.333 Y141.500 F1000
G1 X111.667 Y142.500 F1000
G1 X112.333 Y142.500 F1000
G1 X113.667 Y143.000 F1000
G1 X115.667 Y143.000 F1000
G1 X117.000 Y143.000 F1000
G1 X119.667 Y143.000 F1000
G1 X122.333 Y142.000 F1000
G1 X123.333 Y142.000 F1000
G1 X125.333 Y141.500 F1000
G1 X126.333 Y141.000 F1000
G1 X127.667 Y141.000 F1000
G1 X128.667 Y140.500 F1000
G1 X129.333 Y140.500 F1000
G1 X130.000 Y140.500 F1000
G1 X130.667 Y140.000 F1000
G1 X131.000 Y140.000 F1000
G1 X131.667 Y140.000 F1000
G1 X132.000 Y140.000 F1000
G1 X132.667 Y139.500 F1000
G1 X133.000 Y139.500 F1000
G1 X133.333 Y139.500 F1000
G1 X134.000 Y139.500 F1000
G1 X134.333 Y139.500 F1000
G1 X134.333 Y138.500 F1000
G1 X134.667 Y137.000 F1000
G1 X134.667 Y136.000 F1000
G1 X134.667 Y135.000 F1000
G1 X134.667 Y133.500 F1000
G1 X134.667 Y133.000 F1000
G1 X134.667 Y132.000 F1000
G1 X134.667 Y131.000 F1000
G1 X134.667 Y129.000 F1000
G1 X134.667 Y127.500 F1000
G1 X134.667 Y126.000 F1000
G1 X134.667 Y124.000 F1000
G1 X134.667 Y122.500 F1000
G1 X134.667 Y120.500 F1000
G1 X134.667 Y119.500 F1000
G1 X134.667 Y117.500 F1000
G1 X134.667 Y116.000 F1000
G1 X134.667 Y115.000 F1000
G1 X134.667 Y113.000 F1000
G1 X134.667 Y112.000 F1000
G1 X134.667 Y110.500 F1000
G1 X134.667 Y109.500 F1000
G1 X134.667 Y108.500 F1000
G1 X134.667 Y107.000 F1000
G1 X134.667 Y106.000 F1000
G1 X134.667 Y105.000 F1000
G1 X134.667 Y104.500 F1000
G1 X134.667 Y103.500 F1000
G1 X134.667 Y103.000 F1000
G1 X134.667 Y101.500 F1000
G1 X134.667 Y101.000 F1000
G1 X134.667 Y100.500 F1000
G1 X134.667 Y100.000 F1000
G1 X134.667 Y99.000 F1000
G1 X134.667 Y98.000 F1000
G1 X134.667 Y97.000 F1000
G1 X134.667 Y96.500 F1000
G1 X134.667 Y96.000 F1000
G1 X134.667 Y95.500 F1000
G1 X134.667 Y94.500 F1000
G1 X134.667 Y94.000 F1000
G1 X134.667 Y93.500 F1000
G1 X134.667 Y93.000 F1000
G1 X134.667 Y92.500 F1000
G1 X134.667 Y92.000 F1000
G1 X134.667 Y91.500 F1000
G1 X134.667 Y91.000 F1000
G1 X134.667 Y90.000 F1000
G1 X134.667 Y89.500 F1000
G1 X134.667 Y88.500 F1000
G1 X134.667 Y88.000 F1000
G1 X134.667 Y87.500 F1000
G1 X134.667 Y86.500 F1000
G1 X134.667 Y85.500 F1000
G1 X135.000 Y85.000 F1000
G1 X135.333 Y84.500 F1000
G1 X135.333 Y83.500 F1000
G1 X135.333 Y83.000 F1000
G1 X135.333 Y82.500 F1000
G1 X135.333 Y81.500 F1000
G1 X135.333 Y81.000 F1000
G1 X135.333 Y80.500 F1000
G1 X135.333 Y80.000 F1000
G1 X135.333 Y78.500 F1000
G1 X135.333 Y78.000 F1000
G1 X135.333 Y77.000 F1000
G1 X135.333 Y76.000 F1000
G1 X135.333 Y75.500 F1000
G1 X135.333 Y74.500 F1000
G1 X135.333 Y74.000 F1000
G1 X135.333 Y73.000 F1000
G1 X135.333 Y72.500 F1000
G1 X135.333 Y71.500 F1000
G1 X135.333 Y71.000 F1000
G1 X135.333 Y70.000 F1000
G1 X135.333 Y69.500 F1000
G1 X135.333 Y69.000 F1000
G1 X135.333 Y68.500 F1000
G1 X135.333 Y68.000 F1000
G1 X135.333 Y67.500 F1000
G1 X135.333 Y67.000 F1000
G1 X135.333 Y66.500 F1000
G1 X135.333 Y66.000 F1000
G1 X134.667 Y65.500 F1000
G1 X134.000 Y65.500 F1000
G1 X132.333 Y65.500 F1000
G1 X130.000 Y65.500 F1000
G1 X128.667 Y65.500 F1000
G1 X126.000 Y65.500 F1000
G1 X125.000 Y65.500 F1000
G1 X123.000 Y65.500 F1000
G1 X121.000 Y65.500 F1000
G1 X120.333 Y65.500 F1000
G1 X118.667 Y65.500 F1000
G1 X117.667 Y65.500 F1000
G1 X116.000 Y65.500 F1000
G1 X113.667 Y65.500 F1000
G1 X112.000 Y65.500 F1000
G1 X109.667 Y65.500 F1000
G1 X106.667 Y65.500 F1000
G1 X103.000 Y65.500 F1000
G1 X99.000 Y65.500 F1000
G1 X96.000 Y65.500 F1000
G1 X92.333 Y65.500 F1000
G1 X89.667 Y65.500 F1000
G1 X88.000 Y65.500 F1000
G1 X86.333 Y65.500 F1000
G1 X84.333 Y65.000 F1000
G1 X83.000 Y64.500 F1000
G1 X82.000 Y64.000 F1000
G1 X81.000 Y64.000 F1000
G1 X80.667 Y64.000 F1000
G1 X80.333 Y64.000 F1000
G1 X79.667 Y63.500 F1000
G1 X79.000 Y63.500 F1000
G1 X78.667 Y63.500 F1000
G1 X78.333 Y63.500 F1000
G1 X78.000 Y63.500 F1000
G1 X77.667 Y63.500 F1000
G1 X77.333 Y63.500 F1000
G1 X77.000 Y63.500 F1000
G1 X76.000 Y63.500 F1000
G1 X75.667 Y63.500 F1000
G1 X75.333 Y63.500 F1000
G1 X74.667 Y64.000 F1000
G1 X74.000 Y65.000 F1000
G1 X73.000 Y66.000 F1000
G1 X72.667 Y67.000 F1000
G1 X71.667 Y68.500 F1000
G1 X71.667 Y69.500 F1000
G1 X71.000 Y71.000 F1000
G1 X70.333 Y71.500 F1000
G1 X70.000 Y72.500 F1000
G1 X69.667 Y72.500 F1000
G1 X69.667 Y73.000 F1000
G1 X69.333 Y73.000 F1000
G1 X69.333 Y73.500 F1000
G1 X69.333 Y74.000 F1000
G1 X69.000 Y74.000 F1000
G1 X69.000 Y74.500 F1000
G1 X68.667 Y74.500 F1000
G1 X68.333 Y74.500 F1000
G1 X68.333 Y75.000 F1000
G1 X68.000 Y75.000 F1000
G1 X68.000 Y75.500 F1000
G1 X67.667 Y75.500 F1000
G1 X67.667 Y76.000 F1000
G1 X67.333 Y76.500 F1000
G1 X67.000 Y77.000 F1000
G1 X66.333 Y78.000 F1000
G1 X66.333 Y78.500 F1000
G1 X66.000 Y79.000 F1000
G1 X65.667 Y80.000 F1000
G1 X65.667 Y80.500 F1000
G1 X65.000 Y81.500 F1000
G1 X64.667 Y82.500 F1000
G1 X64.000 Y83.000 F1000
G1 X63.667 Y84.500 F1000
G1 X63.333 Y85.500 F1000
G1 X62.667 Y87.500 F1000
G1 X62.000 Y89.000 F1000
G1 X61.333 Y90.500 F1000
G1 X61.000 Y92.000 F1000
G1 X60.333 Y92.500 F1000
G1 X60.333 Y93.500 F1000
G1 X60.333 Y94.000 F1000
G1 X60.333 Y94.500 F1000
G1 X60.000 Y95.000 F1000
G1 X60.000 Y95.500 F1000
G1 X60.000 Y96.000 F1000
G1 X60.000 Y96.500 F1000
G1 X60.000 Y97.000 F1000
G1 X59.667 Y97.500 F1000
G1 X59.667 Y98.000 F1000
G1 X59.667 Y98.500 F1000
G1 X59.667 Y99.000 F1000
G1 X59.667 Y99.500 F1000
G1 X59.667 Y100.000 F1000
G1 X59.667 Y100.500 F1000
G1 X59.667 Y101.500 F1000
G1 X59.667 Y102.000 F1000
G1 X59.667 Y104.500 F1000
G1 X59.667 Y105.500 F1000
G1 X59.667 Y107.000 F1000
G1 X59.667 Y108.000 F1000
G1 X60.000 Y109.500 F1000
G1 X60.000 Y111.000 F1000
G1 X60.000 Y111.500 F1000
G1 X60.333 Y112.500 F1000
G1 X60.333 Y113.500 F1000
G1 X60.667 Y115.000 F1000
G1 X60.667 Y116.000 F1000
G1 X60.667 Y117.000 F1000
G1 X60.667 Y118.000 F1000
G1 X60.667 Y119.000 F1000
G1 X60.667 Y119.500 F1000
G1 X60.667 Y120.000 F1000
G1 X60.667 Y121.000 F1000
G1 X60.667 Y122.000 F1000
G1 X61.000 Y122.500 F1000
G1 X61.000 Y123.000 F1000
G1 X61.333 Y124.000 F1000
G1 X61.667 Y125.000 F1000
G1 X61.667 Y125.500 F1000
G1 X61.667 Y126.500 F1000
G1 X61.667 Y127.500 F1000
G1 X61.667 Y128.000 F1000
G1 X61.667 Y128.500 F1000
G1 X61.667 Y129.000 F1000
G1 X61.667 Y130.500 F1000
G1 X61.667 Y131.000 F1000
G1 X62.000 Y132.000 F1000
G1 X62.000 Y132.500 F1000
G1 X62.000 Y133.000 F1000
G1 X62.000 Y133.500 F1000
G1 X62.000 Y134.000 F1000
G1 X62.333 Y135.000 F1000
G1 X62.333 Y135.500 F1000
G1 X62.333 Y136.000 F1000
G1 X62.333 Y136.500 F1000
G1 X62.333 Y137.000 F1000
G1 X62.333 Y137.500 F1000
G1 X62.333 Y138.500 F1000
G1 X62.333 Y139.000 F1000
G1 X62.333 Y139.500 F1000
G1 X62.333 Y140.000 F1000
G1 X62.333 Y141.000 F1000
G1 X62.333 Y141.500 F1000
G1 X62.333 Y142.000 F1000
G1 X62.333 Y143.000 F1000
G1 X62.333 Y143.500 F1000
G1 X62.333 Y144.500 F1000
G1 X62.333 Y145.000 F1000
G1 X62.333 Y145.500 F1000
G1 X62.333 Y146.500 F1000
G1 X62.333 Y147.000 F1000
G1 X62.333 Y147.500 F1000
G1 X62.333 Y148.000 F1000
G1 X62.333 Y148.500 F1000
G1 X62.333 Y149.000 F1000
G1 X62.333 Y149.500 F1000
G1 X62.333 Y150.000 F1000
G1 X62.333 Y150.500 F1000
G1 X62.333 Y151.000 F1000
G1 X62.333 Y151.500 F1000
G1 X62.333 Y152.000 F1000
G1 X62.333 Y152.500 F1000
G1 X62.333 Y153.000 F1000
G1 X63.000 Y153.000 F1000
G1 X63.667 Y153.000 F1000
G1 X64.667 Y152.500 F1000
G1 X65.667 Y152.000 F1000
G1 X67.000 Y150.500 F1000
G1 X68.333 Y149.500 F1000
G1 X69.333 Y149.000 F1000
G1 X70.333 Y148.000 F1000
G1 X71.000 Y148.000 F1000
G1 X72.000 Y146.500 F1000
G1 X73.667 Y145.500 F1000
G1 X74.667 Y145.000 F1000
G1 X76.333 Y143.500 F1000
G1 X77.000 Y142.500 F1000
G1 X78.667 Y141.500 F1000
G1 X79.667 Y141.000 F1000
G1 X81.667 Y140.000 F1000
G1 X83.667 Y139.000 F1000
G1 X84.667 Y139.000 F1000
G1 X86.333 Y138.500 F1000
G1 X87.333 Y138.000 F1000
G1 X89.333 Y137.000 F1000
G1 X90.000 Y136.500 F1000
G1 X91.667 Y136.000 F1000
G1 X93.333 Y135.500 F1000
G1 X93.667 Y135.500 F1000
G1 X94.667 Y135.000 F1000
G1 X95.333 Y135.000 F1000
G1 X96.333 Y134.500 F1000
G1 X97.000 Y134.500 F1000
G1 X98.000 Y134.000 F1000
G1 X99.000 Y134.000 F1000
G1 X99.667 Y134.000 F1000
G1 X100.667 Y134.000 F1000
G1 X101.000 Y134.000 F1000
G1 X102.667 Y134.000 F1000
G1 X103.667 Y134.000 F1000
G1 X104.000 Y134.000 F1000
G1 X105.000 Y134.000 F1000
G1 X105.333 Y134.000 F1000
G1 X105.667 Y134.000 F1000
G1 X106.333 Y134.000 F1000
G1 X106.667 Y134.000 F1000
G1 X107.000 Y134.000 F1000
