
;Inkscape Lasertools G-code
;https://github.com/ChrisWag91/Inkscape-Lasertools-Plugin

G90	;Absolute programming
G21	;Programming in millimeters (mm)
M5
M03 S1 ;Activate laser and set power to 0 (CUSTOM)

; START perimeter strategy
G01 F6000.0
M5
G00 X48.22 Y44.26 F6000.0
M3 F6000.0
G01 X48.11 Y44.4 F6000.0
G01 X47.4 Y45.35 F6000.0
G01 X47.65 Y45.13 F6000.0
G01 X48.17 Y44.46 F6000.0
G01 X48.22 Y44.26 F6000.0
G01 F6000.0
M5
G00 X47.97 Y44.97 F6000.0
M3 F6000.0
G01 X47.59 Y45.5 F6000.0
G01 X47.61 Y45.54 F6000.0
G01 X48.09 Y45.01 F6000.0
G01 X48.45 Y44.53 F6000.0
G01 X47.97 Y44.97 F6000.0
G01 F6000.0
M5
G00 X48.84 Y44.81 F6000.0
M3 F6000.0
G01 X48.93 Y44.84 F6000.0
G01 X48.98 Y44.71 F6000.0
G01 X48.84 Y44.81 F6000.0
G01 F6000.0
M5
G00 X49.03 Y44.25 F6000.0
M3 F6000.0
G01 X49.11 Y44.28 F6000.0
G01 X49.17 Y44.16 F6000.0
G01 X49.03 Y44.25 F6000.0
G01 F6000.0
M5
G00 X46.73 Y44.33 F6000.0
M3 F6000.0
G01 X46.44 Y44.61 F6000.0
G01 X45.44 Y45.59 F6000.0
G01 X45.93 Y45.21 F6000.0
G01 X45.97 Y45.17 F6000.0
G01 X46.75 Y44.44 F6000.0
G01 X46.73 Y44.33 F6000.0
G01 F6000.0
M5
G00 X46.72 Y44.74 F6000.0
M3 F6000.0
G01 X46.67 Y44.78 F6000.0
G01 X45.88 Y45.49 F6000.0
G01 X45.5 Y45.85 F6000.0
G01 X45.84 Y45.61 F6000.0
G01 X46.25 Y45.36 F6000.0
G01 X46.85 Y44.85 F6000.0
G01 X47.27 Y44.36 F6000.0
G01 X46.72 Y44.74 F6000.0
G01 F6000.0
M5
G00 X46.01 Y44.5 F6000.0
M3 F6000.0
G01 X45.85 Y44.65 F6000.0
G01 X44.97 Y45.49 F6000.0
G01 X45.58 Y45.09 F6000.0
G01 X45.6 Y45.06 F6000.0
G01 X46.38 Y44.38 F6000.0
G01 X46.01 Y44.5 F6000.0
G01 F6000.0
M5
G00 X45.13 Y44.36 F6000.0
M3 F6000.0
G01 X44.73 F6000.0
G01 X43.73 Y44.38 F6000.0
G01 X42.34 Y44.4 F6000.0
G01 X42.07 Y44.44 F6000.0
G01 X40.81 Y44.67 F6000.0
G01 X40.58 Y44.66 F6000.0
G01 X40.13 Y44.55 F6000.0
G01 X39.66 Y44.53 F6000.0
G01 X39.25 Y44.54 F6000.0
G01 X37.84 Y44.59 F6000.0
G01 X37.27 Y44.76 F6000.0
G01 X36.88 Y44.9 F6000.0
G01 X36.81 Y45.05 F6000.0
G01 X36.77 Y45.01 F6000.0
G01 X36.41 Y45.07 F6000.0
G01 X36.38 Y45.1 F6000.0
G01 X35.68 Y45.81 F6000.0
G01 X34.95 Y46.55 F6000.0
G01 X34.64 Y46.9 F6000.0
G01 X34.78 Y46.49 F6000.0
G01 X34.93 Y46.35 F6000.0
G01 X35.67 Y45.68 F6000.0
G01 X36.56 Y44.86 F6000.0
G01 X37.14 Y44.5 F6000.0
G01 X36.94 Y44.52 F6000.0
G01 X35.76 Y44.67 F6000.0
G01 X35.2 Y44.86 F6000.0
G01 X34.78 Y45.04 F6000.0
G01 X34.41 Y45.24 F6000.0
G01 X33.15 Y45.92 F6000.0
G01 X33.86 Y45.46 F6000.0
G01 X34.55 Y44.99 F6000.0
G01 X34.6 Y44.9 F6000.0
G01 X34.63 Y44.81 F6000.0
G01 X34.46 Y44.9 F6000.0
G01 X34.39 Y44.94 F6000.0
G01 X33.42 Y45.42 F6000.0
G01 X33.83 Y45.12 F6000.0
G01 X34.33 Y44.79 F6000.0
G01 X34.74 Y44.58 F6000.0
G01 X34.83 Y44.49 F6000.0
G01 X34.27 Y44.58 F6000.0
G01 X33.5 Y44.8 F6000.0
G01 X32.97 Y44.97 F6000.0
G01 X33.42 Y44.69 F6000.0
G01 X33.62 Y44.44 F6000.0
G01 X33.04 Y44.58 F6000.0
G01 X32.63 Y44.69 F6000.0
G01 X32.84 Y44.54 F6000.0
G01 X32.47 Y44.49 F6000.0
G01 X32.38 Y44.5 F6000.0
G01 X31.31 Y44.56 F6000.0
G01 X30.52 Y44.74 F6000.0
G01 X30.19 Y44.91 F6000.0
G01 X30.47 Y44.67 F6000.0
G01 X30.75 Y44.43 F6000.0
G01 X30.47 Y44.53 F6000.0
G01 X30.06 Y44.73 F6000.0
G01 X30.19 Y44.57 F6000.0
G01 X30.28 Y44.37 F6000.0
G01 X29.64 Y44.48 F6000.0
G01 X28.95 Y44.68 F6000.0
G01 X28.47 Y44.71 F6000.0
G01 X28.01 Y44.65 F6000.0
G01 X27.87 Y44.62 F6000.0
G01 X27.6 Y44.57 F6000.0
G01 X27.24 Y44.49 F6000.0
G01 X26.87 Y44.5 F6000.0
G01 X26.53 Y44.52 F6000.0
G01 X25.64 Y44.54 F6000.0
G01 X25.45 Y44.48 F6000.0
G01 X24.66 Y44.39 F6000.0
G01 X24.55 F6000.0
G01 X23.44 Y44.44 F6000.0
G01 X22.77 Y44.53 F6000.0
G01 X22.32 Y44.52 F6000.0
G01 X21.74 Y44.5 F6000.0
G01 X21.06 Y44.56 F6000.0
G01 X20.49 Y44.62 F6000.0
G01 X20.3 Y44.61 F6000.0
G01 X19.7 Y44.97 F6000.0
G01 X19.58 Y45.1 F6000.0
G01 X19.33 Y45.19 F6000.0
G01 X19.2 F6000.0
G01 X19.27 Y45.08 F6000.0
G01 X19.54 Y44.83 F6000.0
G01 X19.73 Y44.57 F6000.0
G01 X19.23 Y44.54 F6000.0
G01 X18.85 F6000.0
G01 X17.46 Y44.53 F6000.0
G01 X17.34 Y44.76 F6000.0
G01 X17.44 Y44.92 F6000.0
G01 X17.31 Y44.91 F6000.0
G01 X17.08 Y45.33 F6000.0
G01 X17.15 Y46.2 F6000.0
G01 X17.17 Y46.17 F6000.0
G01 X17.71 Y45.29 F6000.0
G01 X17.81 Y45.18 F6000.0
G01 X17.82 Y45.5 F6000.0
G01 X17.53 Y46.17 F6000.0
G01 X17.11 Y46.79 F6000.0
G01 X16.84 Y47.23 F6000.0
G01 X17.19 Y47.31 F6000.0
G01 X17.59 Y47.41 F6000.0
G01 X18.32 Y46.84 F6000.0
G01 X18.59 Y46.57 F6000.0
G01 X19.1 Y46.04 F6000.0
G01 X19.34 Y45.82 F6000.0
G01 X19.0 Y46.59 F6000.0
G01 X18.75 Y47.38 F6000.0
G01 X19.39 Y47.5 F6000.0
G01 X20.04 Y46.77 F6000.0
G01 X20.21 Y46.2 F6000.0
G01 X20.38 Y45.89 F6000.0
G01 X20.45 Y46.59 F6000.0
G01 X20.44 Y46.64 F6000.0
G01 X20.27 Y47.67 F6000.0
G01 X20.08 Y48.14 F6000.0
G01 X20.81 Y48.0 F6000.0
G01 X20.94 Y48.6 F6000.0
G01 X20.98 Y49.18 F6000.0
G01 X21.2 Y48.54 F6000.0
G01 X21.32 Y48.01 F6000.0
G01 Y48.66 F6000.0
G01 X21.41 Y49.63 F6000.0
G01 X21.51 Y48.96 F6000.0
G01 X21.5 Y48.9 F6000.0
G01 X21.31 Y47.86 F6000.0
G01 X20.93 Y47.55 F6000.0
G01 X20.76 Y47.36 F6000.0
G01 X20.82 Y47.62 F6000.0
G01 X20.78 Y47.82 F6000.0
G01 X20.77 Y47.03 F6000.0
G01 X20.75 Y46.83 F6000.0
G01 X20.7 Y46.7 F6000.0
G01 X20.96 Y46.99 F6000.0
G01 X20.98 Y47.0 F6000.0
G01 X21.88 Y47.5 F6000.0
G01 X22.49 Y47.2 F6000.0
G01 X22.5 Y47.11 F6000.0
G01 X22.58 Y46.03 F6000.0
G01 X22.78 Y45.99 F6000.0
G01 X22.97 Y46.44 F6000.0
G01 X23.1 Y47.09 F6000.0
G01 X23.34 Y46.87 F6000.0
G01 X23.19 Y46.03 F6000.0
G01 X23.02 Y45.5 F6000.0
G01 X23.51 Y45.83 F6000.0
G01 X23.54 Y45.84 F6000.0
G01 X24.49 Y46.24 F6000.0
G01 X24.58 Y46.42 F6000.0
G01 X23.98 Y46.47 F6000.0
G01 X23.68 Y46.29 F6000.0
G01 X23.63 Y46.9 F6000.0
G01 X23.41 Y47.64 F6000.0
G01 X23.51 Y47.77 F6000.0
G01 X24.18 Y47.34 F6000.0
G01 X24.62 Y46.95 F6000.0
G01 X24.58 Y47.36 F6000.0
G01 X24.03 Y48.17 F6000.0
G01 X23.7 Y48.64 F6000.0
G01 X23.84 Y48.69 F6000.0
G01 X23.92 Y48.79 F6000.0
G01 X23.96 Y48.63 F6000.0
G01 X24.52 Y48.21 F6000.0
G01 X24.43 Y48.4 F6000.0
G01 X24.2 Y48.61 F6000.0
G01 X24.24 Y48.68 F6000.0
G01 X24.56 Y48.66 F6000.0
G01 X24.8 Y48.68 F6000.0
G01 X24.85 F6000.0
G01 X25.01 Y48.5 F6000.0
G01 X25.16 Y48.16 F6000.0
G01 X25.27 Y48.3 F6000.0
G01 X25.32 Y48.31 F6000.0
G01 X25.48 Y47.68 F6000.0
G01 X25.37 Y46.97 F6000.0
G01 X25.33 Y46.86 F6000.0
G01 X24.99 Y45.79 F6000.0
G01 X24.77 Y44.85 F6000.0
G01 X24.96 Y44.69 F6000.0
G01 X25.41 Y44.76 F6000.0
G01 X25.58 Y44.94 F6000.0
G01 X25.56 Y45.14 F6000.0
G01 X25.6 Y45.73 F6000.0
G01 X25.65 Y45.78 F6000.0
G01 X26.44 Y46.52 F6000.0
G01 X26.54 Y46.45 F6000.0
G01 X27.5 Y45.86 F6000.0
G01 X27.73 Y45.72 F6000.0
G01 X27.68 Y45.82 F6000.0
G01 X27.16 Y46.79 F6000.0
G01 X27.45 F6000.0
G01 X28.19 Y46.62 F6000.0
G01 X28.32 Y46.68 F6000.0
G01 X29.33 Y47.21 F6000.0
G01 X29.62 Y47.0 F6000.0
G01 X29.81 Y46.63 F6000.0
G01 X29.88 Y46.9 F6000.0
G01 X29.87 Y47.03 F6000.0
G01 X29.72 Y48.14 F6000.0
G01 X29.6 Y48.26 F6000.0
G01 X28.75 Y49.06 F6000.0
G01 X28.73 Y49.16 F6000.0
G01 X29.0 Y48.95 F6000.0
G01 X30.05 Y48.12 F6000.0
G01 X30.15 Y47.96 F6000.0
G01 X30.19 Y48.17 F6000.0
G01 X30.1 Y48.29 F6000.0
G01 X29.42 Y49.21 F6000.0
G01 X29.32 F6000.0
G01 X28.23 Y49.16 F6000.0
G01 X28.16 Y49.09 F6000.0
G01 X27.36 Y48.34 F6000.0
G01 X27.37 Y48.33 F6000.0
G01 X27.93 Y47.5 F6000.0
G01 X27.92 Y47.67 F6000.0
G01 X27.97 Y48.43 F6000.0
G01 X28.69 Y48.5 F6000.0
G01 Y48.42 F6000.0
G01 X28.72 Y47.35 F6000.0
G01 X28.67 Y47.34 F6000.0
G01 X27.64 Y47.18 F6000.0
G01 X27.62 F6000.0
G01 X26.61 Y47.27 F6000.0
G01 X25.99 Y47.22 F6000.0
G01 X25.79 Y47.88 F6000.0
G01 X25.64 Y48.58 F6000.0
G01 X25.8 Y48.22 F6000.0
G01 X25.95 Y47.97 F6000.0
G01 X25.79 Y48.62 F6000.0
G01 X25.77 Y48.88 F6000.0
G01 X25.66 Y50.13 F6000.0
G01 X25.68 F6000.0
G01 X26.7 Y50.17 F6000.0
G01 X26.81 F6000.0
G01 X26.5 Y50.42 F6000.0
G01 X26.41 Y50.55 F6000.0
G01 X26.52 Y50.3 F6000.0
G01 X27.0 Y49.12 F6000.0
G01 X27.14 Y48.74 F6000.0
G01 X27.4 Y49.59 F6000.0
G01 X27.49 Y49.99 F6000.0
G01 X27.63 Y49.44 F6000.0
G01 X27.83 Y49.12 F6000.0
G01 X28.0 Y50.02 F6000.0
G01 X28.12 Y50.7 F6000.0
G01 X28.65 Y50.64 F6000.0
G01 X29.01 Y49.92 F6000.0
G01 X29.37 Y49.71 F6000.0
G01 X29.77 Y49.69 F6000.0
G01 X29.62 Y49.86 F6000.0
G01 X29.89 Y49.97 F6000.0
G01 X30.19 Y49.8 F6000.0
G01 X29.84 Y50.12 F6000.0
G01 X29.5 Y50.53 F6000.0
G01 X29.77 Y51.01 F6000.0
G01 X29.95 Y51.91 F6000.0
G01 X29.89 Y51.7 F6000.0
G01 X29.6 Y51.07 F6000.0
G01 X29.38 Y50.88 F6000.0
G01 X29.43 Y51.09 F6000.0
G01 X29.39 Y51.24 F6000.0
G01 X28.56 Y51.2 F6000.0
G01 X28.78 Y51.26 F6000.0
G01 X29.22 Y51.37 F6000.0
G01 X28.8 Y51.44 F6000.0
G01 X28.43 Y51.6 F6000.0
G01 X28.23 Y52.06 F6000.0
G01 X27.54 Y52.18 F6000.0
G01 X27.68 Y51.89 F6000.0
G01 X27.55 Y51.73 F6000.0
G01 X27.41 Y51.85 F6000.0
G01 X27.07 Y52.32 F6000.0
G01 X27.12 Y52.09 F6000.0
G01 X27.0 Y51.99 F6000.0
G01 X26.71 Y52.07 F6000.0
G01 X26.34 Y52.18 F6000.0
G01 X26.14 Y52.13 F6000.0
G01 X26.07 Y52.49 F6000.0
G01 X25.91 Y53.16 F6000.0
G01 X25.41 Y53.28 F6000.0
G01 X25.01 Y53.02 F6000.0
G01 X25.03 Y52.74 F6000.0
G01 X24.89 Y53.02 F6000.0
G01 X24.82 Y52.74 F6000.0
G01 X24.91 Y51.97 F6000.0
G01 X24.85 Y51.81 F6000.0
G01 X24.76 Y52.21 F6000.0
G01 X24.69 Y52.88 F6000.0
G01 X24.89 Y53.56 F6000.0
G01 X24.72 Y54.05 F6000.0
G01 X24.65 Y54.6 F6000.0
G01 X24.92 Y54.38 F6000.0
G01 X25.04 Y54.17 F6000.0
G01 X25.18 Y54.03 F6000.0
G01 X25.88 Y53.4 F6000.0
G01 X25.98 Y53.37 F6000.0
G01 X26.15 Y52.82 F6000.0
G01 X26.23 Y52.37 F6000.0
G01 X26.24 Y52.83 F6000.0
G01 X26.39 Y53.11 F6000.0
G01 X26.53 Y53.07 F6000.0
G01 X26.46 Y53.3 F6000.0
G01 X26.55 Y53.22 F6000.0
G01 X26.65 Y53.35 F6000.0
G01 X26.59 Y53.85 F6000.0
G01 X26.63 Y54.38 F6000.0
G01 X26.4 Y55.11 F6000.0
G01 X26.24 Y55.6 F6000.0
G01 X26.34 Y55.49 F6000.0
G01 X26.82 Y55.66 F6000.0
G01 X26.9 Y55.65 F6000.0
G01 X27.98 Y55.55 F6000.0
G01 X28.27 Y55.27 F6000.0
G01 X28.09 Y54.95 F6000.0
G01 X27.82 Y54.64 F6000.0
G01 X27.5 Y54.94 F6000.0
G01 X27.32 Y55.1 F6000.0
G01 X27.55 Y54.78 F6000.0
G01 X27.76 Y54.31 F6000.0
G01 X27.92 Y53.76 F6000.0
G01 X28.13 Y54.05 F6000.0
G01 X28.46 Y54.64 F6000.0
G01 X28.89 Y54.87 F6000.0
G01 X29.19 Y55.09 F6000.0
G01 X29.39 Y54.82 F6000.0
G01 X29.59 Y54.38 F6000.0
G01 X28.91 Y53.99 F6000.0
G01 X28.42 Y53.58 F6000.0
G01 X29.1 Y53.84 F6000.0
G01 X29.79 Y54.54 F6000.0
G01 X29.84 Y54.58 F6000.0
G01 X30.71 Y55.19 F6000.0
G01 X30.81 Y55.03 F6000.0
G01 X31.45 Y54.03 F6000.0
G01 X31.23 Y53.56 F6000.0
G01 X30.88 Y53.04 F6000.0
G01 X30.75 Y52.79 F6000.0
G01 X30.52 Y53.16 F6000.0
G01 X30.11 Y53.53 F6000.0
G01 X30.07 Y53.36 F6000.0
G01 X30.5 Y52.68 F6000.0
G01 X30.98 Y52.17 F6000.0
G01 X31.02 Y52.36 F6000.0
G01 X31.1 Y52.43 F6000.0
G01 X31.27 Y52.79 F6000.0
G01 X31.51 Y52.95 F6000.0
G01 X32.56 Y53.69 F6000.0
G01 X32.68 Y53.62 F6000.0
G01 X33.69 Y53.09 F6000.0
G01 X33.86 Y52.91 F6000.0
G01 X33.81 Y52.97 F6000.0
G01 X33.14 Y53.82 F6000.0
G01 X33.35 Y54.13 F6000.0
G01 X33.89 Y53.78 F6000.0
G01 X33.94 Y52.85 F6000.0
G01 X33.56 Y51.93 F6000.0
G01 X33.3 Y51.41 F6000.0
G01 X33.63 Y50.61 F6000.0
G01 X33.77 Y50.38 F6000.0
G01 X33.84 Y50.19 F6000.0
G01 X33.89 Y50.44 F6000.0
G01 X34.04 Y50.37 F6000.0
G01 Y50.84 F6000.0
G01 X33.98 Y51.43 F6000.0
G01 X34.43 Y51.57 F6000.0
G01 X34.46 Y51.65 F6000.0
G01 X34.65 Y52.23 F6000.0
G01 X34.78 Y52.33 F6000.0
G01 X34.65 Y52.38 F6000.0
G01 X34.59 Y52.64 F6000.0
G01 X34.67 Y52.46 F6000.0
G01 X35.09 Y51.55 F6000.0
G01 X35.59 Y50.46 F6000.0
G01 X35.21 Y49.92 F6000.0
G01 X34.64 Y49.19 F6000.0
G01 X35.15 Y49.54 F6000.0
G01 X35.6 Y50.04 F6000.0
G01 X35.79 Y49.81 F6000.0
G01 X36.09 Y49.28 F6000.0
G01 X36.49 Y49.12 F6000.0
G01 Y49.4 F6000.0
G01 X36.54 Y49.54 F6000.0
G01 X36.64 Y49.76 F6000.0
G01 X36.73 Y50.05 F6000.0
G01 X36.83 Y50.29 F6000.0
G01 X36.94 Y50.44 F6000.0
G01 X37.04 Y50.23 F6000.0
G01 X37.13 Y50.09 F6000.0
G01 X37.74 Y49.1 F6000.0
G01 X37.85 Y48.9 F6000.0
G01 X37.22 Y49.44 F6000.0
G01 X37.07 Y49.5 F6000.0
G01 X37.12 Y49.19 F6000.0
G01 X37.3 Y48.98 F6000.0
G01 X37.84 Y48.62 F6000.0
G01 X37.87 Y48.55 F6000.0
G01 X38.35 Y47.58 F6000.0
G01 X38.52 Y47.26 F6000.0
G01 X39.14 Y46.06 F6000.0
G01 X39.19 Y46.2 F6000.0
G01 X39.18 Y46.38 F6000.0
G01 X39.1 Y47.56 F6000.0
G01 X39.16 Y47.72 F6000.0
G01 X38.82 Y48.52 F6000.0
G01 X39.09 Y48.17 F6000.0
G01 X39.66 Y47.45 F6000.0
G01 X40.0 Y47.08 F6000.0
G01 X39.76 Y47.43 F6000.0
G01 X39.29 Y48.08 F6000.0
G01 X39.19 Y48.3 F6000.0
G01 X38.68 Y49.43 F6000.0
G01 X39.06 Y48.89 F6000.0
G01 X39.26 Y48.67 F6000.0
G01 X39.95 Y47.95 F6000.0
G01 X40.64 Y47.22 F6000.0
G01 X41.33 Y46.5 F6000.0
G01 X42.22 Y45.56 F6000.0
G01 X42.95 Y45.18 F6000.0
G01 X42.2 Y45.71 F6000.0
G01 X42.19 Y45.72 F6000.0
G01 X41.37 Y46.31 F6000.0
G01 X40.81 Y46.7 F6000.0
G01 X40.8 Y46.73 F6000.0
G01 X40.21 Y47.54 F6000.0
G01 X39.61 Y48.38 F6000.0
G01 X39.54 Y48.58 F6000.0
G01 X39.92 Y48.07 F6000.0
G01 X39.93 Y48.06 F6000.0
G01 X40.51 Y47.23 F6000.0
G01 X40.87 Y46.78 F6000.0
G01 X40.75 Y47.02 F6000.0
G01 X40.17 Y48.14 F6000.0
G01 X39.71 Y48.98 F6000.0
G01 X39.77 Y48.99 F6000.0
G01 X39.85 Y48.86 F6000.0
G01 X40.44 Y47.86 F6000.0
G01 X40.45 F6000.0
G01 X41.05 Y47.06 F6000.0
G01 X41.23 Y46.96 F6000.0
G01 X41.65 Y46.66 F6000.0
G01 X41.73 Y46.58 F6000.0
G01 X42.48 Y45.76 F6000.0
G01 X42.62 Y45.64 F6000.0
G01 Y46.03 F6000.0
G01 X42.48 Y46.43 F6000.0
G01 X42.74 Y46.13 F6000.0
G01 X43.37 Y45.54 F6000.0
G01 X43.74 Y45.23 F6000.0
G01 X43.36 Y45.65 F6000.0
G01 X43.33 Y45.7 F6000.0
G01 X42.79 Y46.63 F6000.0
G01 X43.32 Y46.0 F6000.0
G01 X43.41 Y45.94 F6000.0
G01 X44.23 Y45.35 F6000.0
G01 X45.13 Y44.7 F6000.0
G01 X45.92 Y44.32 F6000.0
G01 X45.13 Y44.35 F6000.0
G01 Y44.36 F6000.0
M5
G00 X44.63 Y45.39 F6000.0
M3 F6000.0
G01 X44.43 Y45.69 F6000.0
G01 X44.28 Y45.94 F6000.0
G01 X44.18 Y46.11 F6000.0
G01 X44.22 Y46.06 F6000.0
G01 X44.88 Y45.22 F6000.0
G01 X44.63 Y45.39 F6000.0
G01 F6000.0
M5
G00 X44.2 Y45.42 F6000.0
M3 F6000.0
G01 X43.97 Y45.55 F6000.0
G01 X43.44 Y46.1 F6000.0
G01 X43.0 Y46.76 F6000.0
G01 X43.38 Y46.39 F6000.0
G01 X43.9 Y45.7 F6000.0
G01 X43.94 Y45.67 F6000.0
G01 X44.3 Y45.45 F6000.0
G01 X44.49 Y45.18 F6000.0
G01 X44.2 Y45.42 F6000.0
G01 F6000.0
M5
G00 X43.98 Y45.97 F6000.0
M3 F6000.0
G01 X43.69 Y46.36 F6000.0
G01 X43.76 Y46.33 F6000.0
G01 X44.1 Y45.94 F6000.0
G01 X44.32 Y45.64 F6000.0
G01 X43.98 Y45.97 F6000.0
G01 F6000.0
M5
G00 X43.41 Y44.94 F6000.0
M3 F6000.0
G01 X43.25 Y45.1 F6000.0
G01 X43.22 Y45.06 F6000.0
G01 X43.41 Y44.94 F6000.0
G01 F6000.0
M5
G00 X42.06 Y46.12 F6000.0
M3 F6000.0
G01 X41.99 Y46.17 F6000.0
G01 X41.11 Y46.8 F6000.0
G01 X41.35 Y46.6 F6000.0
G01 X42.38 Y45.78 F6000.0
G01 X42.06 Y46.12 F6000.0
G01 F6000.0
M5
G00 X42.02 Y46.8 F6000.0
M3 F6000.0
G01 X42.0 Y46.94 F6000.0
G01 X42.15 Y46.8 F6000.0
G01 X42.17 Y46.66 F6000.0
G01 X42.02 Y46.8 F6000.0
G01 F6000.0
M5
G00 X41.65 Y47.32 F6000.0
M3 F6000.0
G01 X41.74 Y47.36 F6000.0
G01 X41.84 Y47.26 F6000.0
G01 X41.74 Y47.22 F6000.0
G01 X41.65 Y47.32 F6000.0
G01 F6000.0
M5
G00 X41.39 Y47.1 F6000.0
M3 F6000.0
G01 X41.18 Y47.45 F6000.0
G01 X41.41 Y47.19 F6000.0
G01 X41.65 Y46.84 F6000.0
G01 X41.39 Y47.1 F6000.0
G01 F6000.0
M5
G00 X42.62 Y47.32 F6000.0
M3 F6000.0
G01 X42.6 Y47.46 F6000.0
G01 X42.7 Y47.36 F6000.0
G01 X42.62 Y47.32 F6000.0
G01 F6000.0
M5
G00 X40.91 Y48.62 F6000.0
M3 F6000.0
G01 X41.0 Y48.66 F6000.0
G01 X41.09 Y48.56 F6000.0
G01 X41.0 Y48.52 F6000.0
G01 X40.91 Y48.62 F6000.0
G01 F6000.0
M5
G00 X38.26 Y49.21 F6000.0
M3 F6000.0
G01 X38.12 Y49.68 F6000.0
G01 X38.11 Y49.7 F6000.0
G01 X37.43 Y50.47 F6000.0
G01 X37.1 Y50.65 F6000.0
G01 X37.94 Y50.26 F6000.0
G01 X38.22 Y49.82 F6000.0
G01 X38.35 Y49.27 F6000.0
G01 X38.26 Y49.21 F6000.0
G01 F6000.0
M5
G00 X37.7 Y49.43 F6000.0
M3 F6000.0
G01 X37.25 Y49.96 F6000.0
G01 X37.58 Y49.75 F6000.0
G01 X38.02 Y49.24 F6000.0
G01 X37.7 Y49.43 F6000.0
G01 F6000.0
M5
G00 X37.77 Y49.81 F6000.0
M3 F6000.0
G01 X37.57 Y50.16 F6000.0
G01 X37.8 Y49.91 F6000.0
G01 X38.03 Y49.57 F6000.0
G01 X37.77 Y49.81 F6000.0
G01 F6000.0
M5
G00 X37.29 Y50.23 F6000.0
M3 F6000.0
G01 X37.22 Y50.42 F6000.0
G01 X37.38 Y50.33 F6000.0
G01 X37.46 Y50.14 F6000.0
G01 X37.29 Y50.23 F6000.0
G01 F6000.0
M5
G00 X38.22 Y50.94 F6000.0
M3 F6000.0
G01 X38.27 Y51.0 F6000.0
G01 X38.38 Y50.78 F6000.0
G01 X38.22 Y50.94 F6000.0
G01 F6000.0
M5
G00 X38.6 Y51.1 F6000.0
M3 F6000.0
G01 X38.52 Y51.42 F6000.0
G01 X38.67 Y51.32 F6000.0
G01 X38.75 Y51.0 F6000.0
G01 X38.6 Y51.1 F6000.0
G01 F6000.0
M5
G00 X36.55 Y52.38 F6000.0
M3 F6000.0
G01 X36.5 Y52.44 F6000.0
G01 X35.86 Y53.3 F6000.0
G01 X35.8 Y53.67 F6000.0
G01 X35.95 Y53.3 F6000.0
G01 X36.23 Y53.02 F6000.0
G01 X36.36 Y52.9 F6000.0
G01 X36.62 Y52.61 F6000.0
G01 X36.61 Y52.65 F6000.0
G01 X36.3 Y53.65 F6000.0
G01 X36.11 Y54.35 F6000.0
G01 X36.22 Y54.32 F6000.0
G01 X36.34 Y53.98 F6000.0
G01 X36.78 Y52.69 F6000.0
G01 X36.94 Y52.25 F6000.0
G01 X36.55 Y52.38 F6000.0
G01 F6000.0
M5
G00 X36.4 Y52.19 F6000.0
M3 F6000.0
G01 X36.23 Y52.39 F6000.0
G01 X35.39 Y53.33 F6000.0
G01 X35.2 Y53.86 F6000.0
G01 X35.52 Y53.35 F6000.0
G01 X35.62 Y53.24 F6000.0
G01 X36.38 Y52.37 F6000.0
G01 X36.85 Y51.96 F6000.0
G01 X36.4 Y52.19 F6000.0
G01 F6000.0
M5
G00 X36.01 Y52.14 F6000.0
M3 F6000.0
G01 X36.08 Y52.23 F6000.0
G01 X36.25 Y51.95 F6000.0
G01 X36.01 Y52.14 F6000.0
G01 F6000.0
M5
G00 X35.72 Y52. F6000.0
M3 F6000.0
G01 X35.44 Y52.51 F6000.0
G01 X35.68 Y52.44 F6000.0
G01 X35.92 Y51.93 F6000.0
G01 X35.72 Y52.0 F6000.0
G01 F6000.0
M5
G00 X35.63 Y51.14 F6000.0
M3 F6000.0
G01 X35.35 Y51.88 F6000.0
G01 X35.56 Y51.65 F6000.0
G01 X35.57 Y51.63 F6000.0
G01 X35.86 Y50.65 F6000.0
G01 X35.63 Y51.14 F6000.0
G01 F6000.0
M5
G00 X35.01 Y53. F6000.0
M3 F6000.0
G01 X34.92 Y53.28 F6000.0
G01 X34.51 Y54.52 F6000.0
G01 X34.56 Y54.41 F6000.0
G01 X34.97 Y53.36 F6000.0
G01 X35.12 Y53.11 F6000.0
G01 X35.24 Y52.9 F6000.0
G01 X35.01 Y53.0 F6000.0
G01 F6000.0
M5
G00 X36.7 Y53.52 F6000.0
M3 F6000.0
G01 X36.49 Y54.42 F6000.0
G01 X36.59 Y54.13 F6000.0
G01 X36.99 Y52.9 F6000.0
G01 X36.7 Y53.52 F6000.0
G01 F6000.0
M5
G00 X39.06 Y55.28 F6000.0
M3 F6000.0
G01 X38.77 Y55.52 F6000.0
G01 X39.06 Y55.11 F6000.0
G01 Y55.28 F6000.0
G01 F6000.0
M5
G00 X40.07 Y54.02 F6000.0
M3 F6000.0
G01 X39.88 Y54.23 F6000.0
G01 X39.8 Y54.2 F6000.0
G01 X40.07 Y54.02 F6000.0
G01 F6000.0
M5
G00 X42.67 Y55.41 F6000.0
M3 F6000.0
G01 X42.37 Y55.71 F6000.0
G01 X42.07 Y55.99 F6000.0
G01 X42.34 Y55.68 F6000.0
G01 X42.67 Y55.41 F6000.0
G01 F6000.0
M5
G00 X42.76 Y56.11 F6000.0
M3 F6000.0
G01 X42.48 Y56.62 F6000.0
G01 X42.25 Y56.92 F6000.0
G01 X42.02 Y57.12 F6000.0
G01 X42.23 Y56.8 F6000.0
G01 X43.01 Y55.66 F6000.0
G01 X42.76 Y56.11 F6000.0
G01 F6000.0
M5
G00 X41.87 Y57.47 F6000.0
M3 F6000.0
G01 X41.77 Y57.57 F6000.0
G01 X41.79 Y57.43 F6000.0
G01 X41.87 Y57.47 F6000.0
G01 F6000.0
M5
G00 X43.23 Y59.56 F6000.0
M3 F6000.0
G01 X43.13 Y59.65 F6000.0
G01 X43.09 Y59.56 F6000.0
G01 X43.19 Y59.47 F6000.0
G01 X43.23 Y59.56 F6000.0
G01 F6000.0
M5
G00 X44.21 Y59.44 F6000.0
M3 F6000.0
G01 X44.29 Y59.42 F6000.0
G01 X44.43 Y59.38 F6000.0
G01 X44.02 Y59.87 F6000.0
G01 X43.61 Y60.09 F6000.0
G01 X43.88 Y59.62 F6000.0
G01 X44.21 Y59.44 F6000.0
G01 F6000.0
M5
G00 X44.8 Y59.51 F6000.0
M3 F6000.0
G01 X44.56 Y59.72 F6000.0
G01 X44.72 Y59.37 F6000.0
G01 X44.8 Y59.51 F6000.0
G01 F6000.0
M5
G00 X45.36 Y59.5 F6000.0
M3 F6000.0
G01 X45.22 Y59.69 F6000.0
G01 X45.18 Y59.56 F6000.0
G01 X45.36 Y59.5 F6000.0
G01 F6000.0
M5
G00 X44.99 Y58.13 F6000.0
M3 F6000.0
G01 X44.76 Y58.27 F6000.0
G01 X44.99 Y58.21 F6000.0
G01 X45.31 Y58.06 F6000.0
G01 X44.99 Y58.13 F6000.0
G01 F6000.0
M5
G00 X46.79 Y55.92 F6000.0
M3 F6000.0
G01 X46.23 Y56.49 F6000.0
G01 X46.08 Y56.79 F6000.0
G01 X46.29 Y56.59 F6000.0
G01 X46.53 Y56.44 F6000.0
G01 X46.66 Y56.31 F6000.0
G01 X46.67 Y56.16 F6000.0
G01 X47.02 Y55.76 F6000.0
G01 X46.79 Y55.92 F6000.0
G01 F6000.0
M5
G00 X47.87 Y55.7 F6000.0
M3 F6000.0
G01 X47.73 Y55.85 F6000.0
G01 X47.64 Y55.81 F6000.0
G01 X47.87 Y55.7 F6000.0
G01 F6000.0
M5
G00 X48.19 Y55.52 F6000.0
M3 F6000.0
G01 X47.98 Y55.72 F6000.0
G01 X48.31 Y55.25 F6000.0
G01 X48.19 Y55.52 F6000.0
G01 F6000.0
M5
G00 X49.22 Y55.44 F6000.0
M3 F6000.0
G01 X49.12 Y55.28 F6000.0
G01 X49.33 Y55.19 F6000.0
G01 X49.22 Y55.44 F6000.0
G01 F6000.0
M5
G00 X49.38 Y54.87 F6000.0
M3 F6000.0
G01 X49.25 Y55.01 F6000.0
G01 X49.22 Y54.87 F6000.0
G01 X49.36 Y54.73 F6000.0
G01 X49.38 Y54.87 F6000.0
G01 F6000.0
M5
G00 X48.93 Y54.74 F6000.0
M3 F6000.0
G01 X48.17 Y55.01 F6000.0
G01 X47.89 Y55.14 F6000.0
G01 X47.52 Y55.22 F6000.0
G01 X47.27 Y55.29 F6000.0
G01 Y55.7 F6000.0
G01 X47.28 Y56.12 F6000.0
G01 X47.4 Y56.17 F6000.0
G01 X47.75 Y56.01 F6000.0
G01 X47.93 Y55.97 F6000.0
G01 X47.27 Y56.36 F6000.0
G01 X47.1 Y56.47 F6000.0
G01 X46.1 Y57.15 F6000.0
G01 X45.65 Y57.72 F6000.0
G01 X46.13 Y57.36 F6000.0
G01 X46.3 Y57.23 F6000.0
G01 X47.27 Y56.51 F6000.0
G01 X47.29 Y56.5 F6000.0
G01 X48.12 Y55.91 F6000.0
G01 X48.48 Y55.56 F6000.0
G01 X48.83 Y55.17 F6000.0
G01 X49.05 Y54.96 F6000.0
G01 X49.0 Y55.12 F6000.0
G01 X48.89 Y55.39 F6000.0
G01 X48.84 Y55.43 F6000.0
G01 X48.1 Y56.18 F6000.0
G01 X48.78 Y55.88 F6000.0
G01 X49.22 Y55.81 F6000.0
G01 X49.14 Y55.94 F6000.0
G01 X49.49 Y55.29 F6000.0
G01 X49.62 Y54.79 F6000.0
G01 X48.93 Y54.74 F6000.0
G01 F6000.0
M5
G00 X49.18 Y53.11 F6000.0
M3 F6000.0
G01 X48.87 Y53.62 F6000.0
G01 X48.94 Y53.54 F6000.0
G01 X49.63 Y52.68 F6000.0
G01 X49.18 Y53.11 F6000.0
G01 F6000.0
M5
G00 X50.82 Y53.23 F6000.0
M3 F6000.0
G01 X50.86 Y53.26 F6000.0
G01 X51.02 Y53.1 F6000.0
G01 X50.82 Y53.23 F6000.0
G01 F6000.0
M5
G00 X51.33 Y52.62 F6000.0
M3 F6000.0
G01 X51.07 Y52.89 F6000.0
G01 X51.66 Y52.42 F6000.0
G01 X51.33 Y52.62 F6000.0
G01 F6000.0
M5
G00 X50.72 Y52.07 F6000.0
M3 F6000.0
G01 X50.0 Y52.68 F6000.0
G01 X49.63 Y53.08 F6000.0
G01 X49.98 Y52.83 F6000.0
G01 X49.99 Y52.82 F6000.0
G01 X50.74 Y52.13 F6000.0
G01 X51.11 Y51.77 F6000.0
G01 X50.72 Y52.07 F6000.0
G01 F6000.0
M5
G00 X51.77 Y51.23 F6000.0
M3 F6000.0
G01 X51.72 Y51.18 F6000.0
G01 X51.84 Y51.07 F6000.0
G01 X51.77 Y51.23 F6000.0
G01 F6000.0
M5
G00 X52.32 Y51.06 F6000.0
M3 F6000.0
G01 X52.23 Y51.16 F6000.0
G01 X52.13 Y51.12 F6000.0
G01 X52.23 Y51.02 F6000.0
G01 X52.32 Y51.06 F6000.0
G01 F6000.0
M5
G00 X53.62 Y51.63 F6000.0
M3 F6000.0
G01 X53.39 Y51.62 F6000.0
G01 X53.8 Y51.5 F6000.0
G01 X53.62 Y51.63 F6000.0
G01 F6000.0
M5
G00 X53.8 Y50.9 F6000.0
M3 F6000.0
G01 X53.49 Y51.04 F6000.0
G01 X52.57 Y51.44 F6000.0
G01 X51.34 Y51.97 F6000.0
G01 X51.44 Y51.99 F6000.0
G01 X51.84 Y51.82 F6000.0
G01 X52.76 Y51.43 F6000.0
G01 X54.07 Y50.87 F6000.0
G01 X53.8 Y50.9 F6000.0
G01 F6000.0
M5
G00 X54.22 Y50.74 F6000.0
M3 F6000.0
G01 X54.26 Y50.84 F6000.0
G01 X54.36 Y50.74 F6000.0
G01 X54.32 Y50.65 F6000.0
G01 X54.22 Y50.74 F6000.0
G01 F6000.0
M5
G00 X54.08 Y50.28 F6000.0
M3 F6000.0
G01 X53.99 Y50.42 F6000.0
G01 X53.9 Y50.33 F6000.0
G01 X53.99 Y50.19 F6000.0
G01 X54.08 Y50.28 F6000.0
G01 F6000.0
M5
G00 X54.73 Y51.76 F6000.0
M3 F6000.0
G01 X54.87 Y51.8 F6000.0
G01 X55.01 Y51.71 F6000.0
G01 X54.87 Y51.67 F6000.0
G01 X54.73 Y51.76 F6000.0
G01 F6000.0
M5
G00 X55.02 Y52.53 F6000.0
M3 F6000.0
G01 X54.7 Y52.97 F6000.0
G01 X54.84 Y52.85 F6000.0
G01 X55.31 Y52.41 F6000.0
G01 X55.54 Y52.14 F6000.0
G01 X55.02 Y52.53 F6000.0
G01 F6000.0
M5
G00 X54.45 Y52.58 F6000.0
M3 F6000.0
G01 X53.73 Y53.18 F6000.0
G01 X53.43 Y53.46 F6000.0
G01 X53.69 Y53.11 F6000.0
G01 X53.77 Y52.91 F6000.0
G01 X53.51 Y52.97 F6000.0
G01 X53.48 Y53.06 F6000.0
G01 X53.18 Y53.3 F6000.0
G01 X52.48 Y53.78 F6000.0
G01 X52.3 Y54.17 F6000.0
G01 X52.34 Y54.18 F6000.0
G01 X52.22 Y54.45 F6000.0
G01 X51.86 Y54.96 F6000.0
G01 X52.0 Y54.66 F6000.0
G01 X52.12 Y54.35 F6000.0
G01 X51.88 Y54.67 F6000.0
G01 X52.15 Y54.87 F6000.0
G01 X52.36 Y54.69 F6000.0
G01 X52.19 Y54.95 F6000.0
G01 X52.07 Y55.27 F6000.0
G01 X52.38 Y55.07 F6000.0
G01 X52.61 Y54.8 F6000.0
G01 X53.5 Y53.78 F6000.0
G01 X53.54 Y53.73 F6000.0
G01 X54.21 Y52.92 F6000.0
G01 X54.73 Y52.55 F6000.0
G01 X54.45 Y52.58 F6000.0
G01 F6000.0
M5
G00 X54.09 Y53.27 F6000.0
M3 F6000.0
G01 X53.8 Y53.64 F6000.0
G01 X53.38 Y54.22 F6000.0
G01 X53.06 Y54.73 F6000.0
G01 X53.58 Y54.11 F6000.0
G01 X53.62 Y54.06 F6000.0
G01 X54.26 Y53.23 F6000.0
G01 X54.43 Y52.97 F6000.0
G01 X54.09 Y53.27 F6000.0
G01 F6000.0
M5
G00 X53.12 Y53.7 F6000.0
M3 F6000.0
G01 X53.17 Y53.85 F6000.0
G01 X53.46 Y53.57 F6000.0
G01 X53.27 Y53.85 F6000.0
G01 X53.17 Y53.96 F6000.0
G01 X52.42 Y54.82 F6000.0
G01 X52.64 Y54.46 F6000.0
G01 X52.81 Y54.03 F6000.0
G01 X52.58 Y54.27 F6000.0
G01 X52.35 Y54.59 F6000.0
G01 X52.49 Y54.14 F6000.0
G01 X52.82 Y53.78 F6000.0
G01 X53.02 Y53.64 F6000.0
G01 X53.32 Y53.38 F6000.0
G01 X53.12 Y53.7 F6000.0
G01 F6000.0
M5
G00 X52.69 Y53.27 F6000.0
M3 F6000.0
G01 X52.49 Y53.41 F6000.0
G01 X51.67 Y53.99 F6000.0
G01 X50.66 Y54.71 F6000.0
G01 X50.12 Y55.35 F6000.0
G01 X50.29 Y55.03 F6000.0
G01 X50.73 Y54.36 F6000.0
G01 X50.95 Y53.94 F6000.0
G01 X50.65 Y54.25 F6000.0
G01 X50.22 Y54.51 F6000.0
G01 X50.09 Y54.61 F6000.0
G01 X49.96 Y54.59 F6000.0
G01 X49.82 Y54.66 F6000.0
G01 X49.73 Y54.96 F6000.0
G01 X49.62 Y55.57 F6000.0
G01 X49.84 Y55.31 F6000.0
G01 X50.0 Y55.25 F6000.0
G01 X49.89 Y55.55 F6000.0
G01 X49.84 Y55.72 F6000.0
G01 X50.59 Y55.11 F6000.0
G01 X51.34 Y54.45 F6000.0
G01 X51.82 Y54.0 F6000.0
G01 X52.34 Y53.53 F6000.0
G01 X52.15 Y53.76 F6000.0
G01 X52.11 Y53.82 F6000.0
G01 X51.52 Y54.7 F6000.0
G01 X51.48 Y54.93 F6000.0
G01 X51.42 Y55.11 F6000.0
G01 X51.8 Y54.5 F6000.0
G01 X52.07 Y54.23 F6000.0
G01 X53.05 Y53.24 F6000.0
G01 X53.25 Y53.08 F6000.0
G01 X52.69 Y53.27 F6000.0
G01 F6000.0
M5
G00 X52.49 Y55.17 F6000.0
M3 F6000.0
G01 X52.53 Y55.21 F6000.0
G01 X52.69 Y55.05 F6000.0
G01 X52.49 Y55.17 F6000.0
G01 F6000.0
M5
G00 X51.07 Y54.81 F6000.0
M3 F6000.0
G01 X51.06 Y54.92 F6000.0
G01 X51.18 Y54.94 F6000.0
G01 X51.29 F6000.0
G01 X51.07 Y54.81 F6000.0
G01 F6000.0
M5
G00 X50.3 Y55.88 F6000.0
M3 F6000.0
G01 X50.05 Y56.12 F6000.0
G01 X50.65 Y55.8 F6000.0
G01 X50.63 Y55.77 F6000.0
G01 X50.3 Y55.88 F6000.0
G01 F6000.0
M5
G00 X49.07 Y57.04 F6000.0
M3 F6000.0
G01 X48.49 Y57.33 F6000.0
G01 X48.66 Y57.15 F6000.0
G01 X49.07 Y57.04 F6000.0
G01 F6000.0
M5
G00 X47.22 Y60.72 F6000.0
M3 F6000.0
G01 X47.19 Y61.05 F6000.0
G01 X47.34 Y60.85 F6000.0
G01 X47.22 Y60.72 F6000.0
G01 F6000.0
M5
G00 X45.01 Y61.51 F6000.0
M3 F6000.0
G01 X44.76 Y62.42 F6000.0
G01 X44.61 Y63.08 F6000.0
G01 X44.69 Y62.81 F6000.0
G01 X45.06 Y61.58 F6000.0
G01 X45.01 Y61.51 F6000.0
G01 F6000.0
M5
G00 X43.21 Y61.39 F6000.0
M3 F6000.0
G01 X43.01 Y61.72 F6000.0
G01 X42.71 Y61.77 F6000.0
G01 X42.74 Y61.72 F6000.0
G01 X43.01 Y61.51 F6000.0
G01 X43.26 Y61.23 F6000.0
G01 X43.21 Y61.39 F6000.0
M5
G00 X43.18 Y60.86 F6000.0
M3 F6000.0
G01 X43.01 Y60.95 F6000.0
G01 X43.04 Y60.86 F6000.0
G01 X43.18 F6000.0
G01 F6000.0
M5
G00 X41.68 Y62.67 F6000.0
M3 F6000.0
G01 X41.65 Y62.81 F6000.0
G01 X41.56 Y62.67 F6000.0
G01 X41.59 Y62.53 F6000.0
G01 X41.68 Y62.67 F6000.0
G01 F6000.0
M5
G00 X41.42 Y62.43 F6000.0
M3 F6000.0
G01 X41.3 Y62.53 F6000.0
G01 X40.95 Y62.66 F6000.0
G01 X40.54 Y62.72 F6000.0
G01 X40.88 Y62.5 F6000.0
G01 X41.42 Y62.43 F6000.0
G01 F6000.0
M5
G00 X41.37 Y63.12 F6000.0
M3 F6000.0
G01 X41.21 Y63.28 F6000.0
G01 X41.17 Y63.25 F6000.0
G01 X41.37 Y63.12 F6000.0
G01 F6000.0
M5
G00 X41. Y63.21 F6000.0
M3 F6000.0
G01 X40.84 Y63.37 F6000.0
G01 X40.8 Y63.34 F6000.0
G01 X41.0 Y63.21 F6000.0
G01 F6000.0
M5
G00 X40.55 Y63.48 F6000.0
M3 F6000.0
G01 X40.44 Y63.44 F6000.0
G01 X40.62 Y63.27 F6000.0
G01 X40.55 Y63.48 F6000.0
G01 F6000.0
M5
G00 X40.35 Y64.14 F6000.0
M3 F6000.0
G01 X40.19 Y64.3 F6000.0
G01 X40.15 Y64.27 F6000.0
G01 X40.35 Y64.14 F6000.0
G01 F6000.0
M5
G00 X40.59 Y64.62 F6000.0
M3 F6000.0
G01 X40.64 Y64.72 F6000.0
G01 X40.7 Y64.51 F6000.0
G01 X40.59 Y64.62 F6000.0
G01 F6000.0
M5
G00 X41.42 Y65. F6000.0
M3 F6000.0
G01 X41.28 Y65.37 F6000.0
G01 X41.19 Y65.4 F6000.0
G01 X41.4 Y64.78 F6000.0
G01 X41.42 Y65.0 F6000.0
G01 F6000.0
M5
G00 X41.93 Y65.21 F6000.0
M3 F6000.0
G01 X42.02 Y65.5 F6000.0
G01 X42.11 Y65.31 F6000.0
G01 X42.12 Y65.06 F6000.0
G01 X42.03 Y64.96 F6000.0
G01 X41.93 Y65.21 F6000.0
G01 F6000.0
M5
G00 X41.96 Y65.73 F6000.0
M3 F6000.0
G01 X42.24 Y65.91 F6000.0
G01 X42.38 Y65.72 F6000.0
G01 X41.96 Y65.73 F6000.0
G01 F6000.0
M5
G00 X42.41 Y66.52 F6000.0
M3 F6000.0
G01 X42.4 Y66.68 F6000.0
G01 X42.74 Y66.15 F6000.0
G01 X42.41 Y66.52 F6000.0
G01 F6000.0
M5
G00 X43.97 Y66.71 F6000.0
M3 F6000.0
G01 X44.06 Y66.75 F6000.0
G01 X44.16 Y66.65 F6000.0
G01 X44.06 Y66.61 F6000.0
G01 X43.97 Y66.71 F6000.0
G01 F6000.0
M5
G00 X45.61 Y66.31 F6000.0
M3 F6000.0
G01 X45.57 Y66.4 F6000.0
G01 X45.12 Y67.29 F6000.0
G01 X44.62 Y68.28 F6000.0
G01 X44.33 Y68.22 F6000.0
G01 X44.16 Y68.27 F6000.0
G01 X44.34 Y68.53 F6000.0
G01 X44.53 Y68.73 F6000.0
G01 X44.57 Y68.64 F6000.0
G01 X45.09 Y67.67 F6000.0
G01 X45.2 Y67.46 F6000.0
G01 X45.76 Y66.35 F6000.0
G01 X45.61 Y66.31 F6000.0
G01 F6000.0
M5
G00 X45.85 Y66.77 F6000.0
M3 F6000.0
G01 X45.73 Y67.25 F6000.0
G01 X45.36 Y68.7 F6000.0
G01 X45.16 Y69.6 F6000.0
G01 X45.15 Y69.76 F6000.0
G01 X45.23 Y69.52 F6000.0
G01 X45.6 Y68.33 F6000.0
G01 X45.65 Y68.1 F6000.0
G01 X45.93 Y66.9 F6000.0
G01 X46.06 Y66.37 F6000.0
G01 X45.85 Y66.77 F6000.0
G01 F6000.0
M5
G00 X46.09 Y65.22 F6000.0
M3 F6000.0
G01 X45.75 Y65.55 F6000.0
G01 X46.32 Y64.85 F6000.0
G01 X46.09 Y65.22 F6000.0
G01 F6000.0
M5
G00 X45.45 Y64.94 F6000.0
M3 F6000.0
G01 X45.31 Y65.03 F6000.0
G01 X45.18 Y64.94 F6000.0
G01 X45.31 Y64.85 F6000.0
G01 X45.45 Y64.94 F6000.0
G01 F6000.0
M5
G00 X45.61 Y64.49 F6000.0
M3 F6000.0
G01 X45.55 Y64.44 F6000.0
G01 X45.6 Y64.31 F6000.0
G01 X45.61 Y64.49 F6000.0
G01 F6000.0
M5
G00 X46.75 Y64.42 F6000.0
M3 F6000.0
G01 X46.59 Y64.58 F6000.0
G01 X46.56 Y64.54 F6000.0
G01 X46.75 Y64.42 F6000.0
G01 F6000.0
M5
G00 X47.54 Y64.5 F6000.0
M3 F6000.0
G01 X47.6 Y64.63 F6000.0
G01 X47.73 Y64.22 F6000.0
G01 X47.54 Y64.5 F6000.0
G01 F6000.0
M5
G00 X49.07 Y64.88 F6000.0
M3 F6000.0
G01 X48.93 Y64.97 F6000.0
G01 X48.79 Y64.94 F6000.0
G01 X48.93 Y64.85 F6000.0
G01 X49.07 Y64.88 F6000.0
G01 F6000.0
M5
G00 X51.67 Y64.42 F6000.0
M3 F6000.0
G01 X51.51 Y64.58 F6000.0
G01 X51.47 Y64.54 F6000.0
G01 X51.67 Y64.42 F6000.0
G01 F6000.0
M5
G00 X52.07 Y64.15 F6000.0
M3 F6000.0
G01 X51.97 Y64.25 F6000.0
G01 X51.99 Y64.11 F6000.0
G01 X52.07 Y64.15 F6000.0
G01 F6000.0
M5
G00 X51.87 Y63.52 F6000.0
M3 F6000.0
G01 X51.9 Y63.6 F6000.0
G01 X52.04 Y63.34 F6000.0
G01 X51.87 Y63.52 F6000.0
G01 F6000.0
M5
G00 X52.78 Y65.3 F6000.0
M3 F6000.0
G01 X52.41 Y65.44 F6000.0
G01 X52.46 Y65.36 F6000.0
G01 X52.78 Y65.3 F6000.0
G01 F6000.0
M5
G00 X53.85 Y64.29 F6000.0
M3 F6000.0
G01 X53.89 Y64.38 F6000.0
G01 X54.04 Y64.29 F6000.0
G01 X54.0 Y64.2 F6000.0
G01 X53.85 Y64.29 F6000.0
G01 F6000.0
M5
G00 X55.01 Y63.58 F6000.0
M3 F6000.0
G01 X54.85 Y63.74 F6000.0
G01 X54.81 Y63.71 F6000.0
G01 X55.01 Y63.58 F6000.0
G01 F6000.0
M5
G00 X54.82 Y67.22 F6000.0
M3 F6000.0
G01 X54.45 Y67.25 F6000.0
G01 X54.55 Y67.21 F6000.0
G01 X54.7 Y67.12 F6000.0
G01 X54.84 Y67.03 F6000.0
G01 X54.82 Y67.22 F6000.0
G01 F6000.0
M5
G00 X54.64 Y68.28 F6000.0
M3 F6000.0
G01 X54.54 Y68.37 F6000.0
G01 X54.5 Y68.28 F6000.0
G01 X54.6 Y68.19 F6000.0
G01 X54.64 Y68.28 F6000.0
G01 F6000.0
M5
G00 X55.94 Y67.4 F6000.0
M3 F6000.0
G01 X56.08 Y67.48 F6000.0
G01 X56.22 Y67.4 F6000.0
G01 X56.08 Y67.32 F6000.0
G01 X55.94 Y67.4 F6000.0
G01 F6000.0
M5
G00 X56.31 Y68.37 F6000.0
M3 F6000.0
G01 X56.27 Y68.46 F6000.0
G01 X56.17 Y68.37 F6000.0
G01 X56.21 Y68.28 F6000.0
G01 X56.31 Y68.37 F6000.0
G01 F6000.0
M5
G00 X57.14 Y66.92 F6000.0
M3 F6000.0
G01 X57.31 Y67.08 F6000.0
G01 X57.34 Y67.05 F6000.0
G01 X57.14 Y66.92 F6000.0
G01 F6000.0
M5
G00 X57.02 Y66.66 F6000.0
M3 F6000.0
G01 X57.05 Y66.79 F6000.0
G01 X57.14 Y66.66 F6000.0
G01 X57.11 Y66.52 F6000.0
G01 X57.02 Y66.66 F6000.0
G01 F6000.0
M5
G00 X57.81 Y66.26 F6000.0
M3 F6000.0
G01 X57.63 Y66.3 F6000.0
G01 X57.7 Y66.14 F6000.0
G01 X57.81 Y66.26 F6000.0
G01 F6000.0
M5
G00 X58.01 Y67.01 F6000.0
M3 F6000.0
G01 X57.74 Y67.25 F6000.0
G01 X57.69 Y67.42 F6000.0
G01 X58.06 Y67.17 F6000.0
G01 X58.01 Y67.01 F6000.0
G01 F6000.0
M5
G00 X59.74 Y65.68 F6000.0
M3 F6000.0
G01 X59.65 Y65.77 F6000.0
G01 X59.51 Y65.68 F6000.0
G01 X59.6 Y65.59 F6000.0
G01 X59.74 Y65.68 F6000.0
G01 F6000.0
M5
G00 X60.02 Y65.5 F6000.0
M3 F6000.0
G01 X59.98 Y65.59 F6000.0
G01 X59.88 Y65.5 F6000.0
G01 X59.92 Y65.4 F6000.0
G01 X60.02 Y65.5 F6000.0
G01 F6000.0
M5
G00 X59.91 Y65.11 F6000.0
M3 F6000.0
G01 X59.78 Y65.2 F6000.0
G01 X59.58 Y65.05 F6000.0
G01 X59.7 Y64.95 F6000.0
G01 X59.91 Y65.11 F6000.0
G01 F6000.0
M5
G00 X59.53 Y65.23 F6000.0
M3 F6000.0
G01 X59.28 Y65.27 F6000.0
G01 X59.42 Y65.12 F6000.0
G01 X59.53 Y65.23 F6000.0
G01 F6000.0
M5
G00 X60.3 Y64.94 F6000.0
M3 F6000.0
G01 X60.2 Y65.03 F6000.0
G01 X60.11 Y64.94 F6000.0
G01 X60.2 Y64.85 F6000.0
G01 X60.3 Y64.94 F6000.0
G01 F6000.0
M5
G00 X60.39 Y65.31 F6000.0
M3 F6000.0
G01 X60.3 Y65.4 F6000.0
G01 X60.2 Y65.31 F6000.0
G01 X60.3 Y65.22 F6000.0
G01 X60.39 Y65.31 F6000.0
G01 F6000.0
M5
G00 X61.23 Y65.03 F6000.0
M3 F6000.0
G01 X61.13 Y65.12 F6000.0
G01 X61.09 Y65.03 F6000.0
G01 X61.19 Y64.94 F6000.0
G01 X61.23 Y65.03 F6000.0
G01 F6000.0
M5
G00 X61.32 Y64.47 F6000.0
M3 F6000.0
G01 X61.22 Y64.57 F6000.0
G01 X61.18 Y64.47 F6000.0
G01 X61.28 Y64.38 F6000.0
G01 X61.32 Y64.47 F6000.0
G01 F6000.0
M5
G00 X61.69 Y64.33 F6000.0
M3 F6000.0
G01 X61.6 Y64.43 F6000.0
G01 X61.5 Y64.39 F6000.0
G01 X61.6 Y64.29 F6000.0
G01 X61.69 Y64.33 F6000.0
M5
G00 X61.97 Y64.24 F6000.0
M3 F6000.0
G01 X61.88 Y64.34 F6000.0
G01 X61.78 Y64.3 F6000.0
G01 X61.88 Y64.2 F6000.0
G01 X61.97 Y64.24 F6000.0
G01 F6000.0
M5
G00 X62.5 Y64.16 F6000.0
M3 F6000.0
G01 X62.32 Y64.17 F6000.0
G01 X62.38 Y64.11 F6000.0
G01 X62.5 Y64.16 F6000.0
G01 F6000.0
M5
G00 X63.08 Y64.19 F6000.0
M3 F6000.0
G01 X62.19 Y64.61 F6000.0
G01 X61.79 Y64.7 F6000.0
G01 X61.56 Y64.68 F6000.0
G01 X61.95 Y64.49 F6000.0
G01 X62.55 Y64.28 F6000.0
G01 X62.8 Y64.24 F6000.0
G01 X62.94 Y64.2 F6000.0
G01 X63.08 Y64.19 F6000.0
G01 F6000.0
M5
G00 X63.78 Y64.11 F6000.0
M3 F6000.0
G01 X63.64 Y64.15 F6000.0
G01 X63.35 Y64.21 F6000.0
G01 X63.22 Y64.27 F6000.0
G01 X63.5 Y64.01 F6000.0
G01 X63.78 Y64.11 F6000.0
G01 F6000.0
M5
G00 X63.92 Y64.47 F6000.0
M3 F6000.0
G01 X63.99 F6000.0
G01 X65.06 Y64.38 F6000.0
G01 X65.2 Y64.44 F6000.0
G01 X65.47 Y64.53 F6000.0
G01 X66.23 Y64.42 F6000.0
G01 X66.61 Y64.47 F6000.0
G01 X66.4 Y64.56 F6000.0
G01 X66.11 Y64.61 F6000.0
G01 X64.85 Y64.86 F6000.0
G01 X64.43 Y64.89 F6000.0
G01 X63.87 Y65.11 F6000.0
G01 X63.7 Y65.2 F6000.0
G01 X62.68 Y65.8 F6000.0
G01 X62.17 Y66.17 F6000.0
G01 X62.01 Y66.34 F6000.0
G01 X61.34 Y66.72 F6000.0
G01 X61.29 Y66.75 F6000.0
G01 X60.35 Y67.25 F6000.0
G01 Y67.26 F6000.0
G01 X59.51 Y67.79 F6000.0
G01 X58.66 Y68.33 F6000.0
G01 X58.59 Y68.37 F6000.0
G01 X57.72 Y68.86 F6000.0
G01 X56.77 Y69.39 F6000.0
G01 X56.47 Y69.56 F6000.0
G01 X56.19 Y69.67 F6000.0
G01 X55.54 Y69.91 F6000.0
G01 X55.4 Y70.28 F6000.0
G01 X55.8 Y70.17 F6000.0
G01 Y70.27 F6000.0
G01 X55.37 Y70.41 F6000.0
G01 X55.31 Y70.49 F6000.0
G01 X54.64 Y71.36 F6000.0
G01 X54.3 Y71.68 F6000.0
G01 X54.48 Y71.36 F6000.0
G01 X54.97 Y70.49 F6000.0
G01 X55.64 Y69.3 F6000.0
G01 X55.66 Y69.28 F6000.0
G01 X56.39 Y68.6 F6000.0
G01 X57.14 Y67.9 F6000.0
G01 X56.22 Y67.86 F6000.0
G01 X55.29 Y67.95 F6000.0
G01 X55.71 Y68.31 F6000.0
G01 X55.57 Y68.34 F6000.0
G01 X55.12 Y68.09 F6000.0
G01 X54.6 Y67.79 F6000.0
G01 X54.5 Y67.69 F6000.0
G01 X54.88 Y67.54 F6000.0
G01 X55.18 Y67.42 F6000.0
G01 X55.29 F6000.0
G01 X55.09 Y67.59 F6000.0
G01 X55.02 Y67.73 F6000.0
G01 X55.31 Y67.66 F6000.0
G01 X55.47 Y67.61 F6000.0
G01 X55.58 Y67.72 F6000.0
G01 X55.51 Y67.52 F6000.0
G01 X55.49 Y67.38 F6000.0
G01 X55.68 Y67.33 F6000.0
G01 F6000.0
G01 X56.68 Y67.23 F6000.0
G01 X56.96 Y67.44 F6000.0
G01 X57.24 Y67.69 F6000.0
G01 X57.33 Y67.81 F6000.0
G01 X56.89 Y67.25 F6000.0
G01 X56.72 Y67.08 F6000.0
G01 X56.03 Y67.01 F6000.0
G01 X56.01 F6000.0
G01 X54.99 Y67.05 F6000.0
G01 X55.01 Y66.79 F6000.0
G01 X55.1 Y66.93 F6000.0
G01 X55.3 Y66.86 F6000.0
G01 X55.31 Y66.66 F6000.0
G01 X55.35 Y66.86 F6000.0
G01 X55.58 Y66.97 F6000.0
G01 X55.69 Y66.77 F6000.0
G01 X55.77 Y66.73 F6000.0
G01 X56.08 Y66.66 F6000.0
G01 X56.42 Y66.59 F6000.0
G01 X56.77 Y66.47 F6000.0
G01 X57.05 Y66.37 F6000.0
G01 X57.14 Y66.33 F6000.0
G01 X57.46 Y66.57 F6000.0
G01 X57.95 Y66.84 F6000.0
G01 X57.9 Y66.72 F6000.0
G01 X57.96 Y66.44 F6000.0
G01 X58.17 Y65.99 F6000.0
G01 X58.35 Y65.82 F6000.0
G01 X58.53 Y65.67 F6000.0
G01 X58.63 Y65.59 F6000.0
G01 X58.49 Y65.86 F6000.0
G01 X58.41 Y66.2 F6000.0
G01 X58.48 Y66.43 F6000.0
G01 X58.85 Y66.7 F6000.0
G01 X58.81 Y66.61 F6000.0
G01 X58.79 Y66.41 F6000.0
G01 X58.72 Y66.14 F6000.0
G01 X58.53 Y66.05 F6000.0
G01 X58.62 Y65.96 F6000.0
G01 X58.87 Y65.9 F6000.0
G01 X58.98 Y65.98 F6000.0
G01 X59.2 Y66.33 F6000.0
G01 X59.09 Y65.77 F6000.0
G01 X58.91 Y65.5 F6000.0
G01 X59.03 Y65.52 F6000.0
G01 X59.26 Y65.68 F6000.0
G01 X59.37 Y65.81 F6000.0
G01 X59.7 Y65.96 F6000.0
G01 X59.84 Y65.92 F6000.0
G01 X59.98 Y65.83 F6000.0
G01 X60.11 Y65.84 F6000.0
G01 X60.02 Y66.08 F6000.0
G01 X60.04 Y66.11 F6000.0
G01 X60.19 Y65.88 F6000.0
G01 X60.39 Y65.81 F6000.0
G01 X60.48 Y66.0 F6000.0
G01 X60.51 Y65.76 F6000.0
G01 X60.61 Y65.52 F6000.0
G01 X60.76 Y65.5 F6000.0
G01 X61.57 Y65.16 F6000.0
G01 X61.58 F6000.0
G01 X62.51 Y64.78 F6000.0
G01 X62.99 Y64.56 F6000.0
G01 X62.86 Y64.66 F6000.0
G01 X62.6 Y64.81 F6000.0
G01 X62.67 Y64.87 F6000.0
G01 X63.37 Y64.69 F6000.0
G01 X63.87 Y64.62 F6000.0
G01 X63.45 Y64.56 F6000.0
G01 X63.26 Y64.42 F6000.0
G01 X63.92 Y64.47 F6000.0
G01 F6000.0
M5
G00 X63.76 Y64.82 F6000.0
M3 F6000.0
G01 X64.03 Y64.81 F6000.0
G01 X63.87 Y64.77 F6000.0
G01 X63.76 Y64.82 F6000.0
G01 F6000.0
M5
G00 X63.86 Y65.67 F6000.0
M3 F6000.0
G01 X63.8 Y65.75 F6000.0
G01 X63.5 Y65.82 F6000.0
G01 X63.31 Y65.89 F6000.0
G01 X63.5 Y65.74 F6000.0
G01 X63.86 Y65.67 F6000.0
G01 F6000.0
M5
G00 X64.75 Y65.9 F6000.0
M3 F6000.0
G01 X64.56 Y65.99 F6000.0
G01 X64.43 Y65.95 F6000.0
G01 X64.75 Y65.9 F6000.0
G01 F6000.0
M5
G00 X64.94 Y65.45 F6000.0
M3 F6000.0
G01 X64.43 Y65.5 F6000.0
G01 X65.03 Y65.32 F6000.0
G01 X64.94 Y65.45 F6000.0
G01 F6000.0
M5
G00 X65.35 Y65.59 F6000.0
M3 F6000.0
G01 X65.14 Y65.68 F6000.0
G01 X65.12 Y65.59 F6000.0
G01 X65.35 F6000.0
G01 F6000.0
M5
G00 X65.45 Y66.05 F6000.0
M3 F6000.0
G01 X65.03 Y66.14 F6000.0
G01 X65.17 Y66.05 F6000.0
G01 X65.31 Y65.95 F6000.0
G01 X65.4 Y65.91 F6000.0
G01 X65.45 Y66.05 F6000.0
G01 F6000.0
M5
G00 X65.79 Y65.98 F6000.0
M3 F6000.0
G01 X65.68 Y65.99 F6000.0
G01 X65.85 Y65.82 F6000.0
G01 X65.79 Y65.98 F6000.0
G01 F6000.0
M5
G00 X65.4 Y66.43 F6000.0
M3 F6000.0
G01 X64.91 Y66.45 F6000.0
G01 X65.2 Y66.36 F6000.0
G01 X65.4 Y66.43 F6000.0
G01 F6000.0
M5
G00 X65.23 Y66.86 F6000.0
M3 F6000.0
G01 X65.08 Y67.51 F6000.0
G01 X65.36 Y66.72 F6000.0
G01 X65.23 Y66.86 F6000.0
G01 F6000.0
M5
G00 X64.66 Y67.14 F6000.0
M3 F6000.0
G01 X64.48 Y67.51 F6000.0
G01 X64.31 Y68.26 F6000.0
G01 X64.39 Y68.83 F6000.0
G01 X64.56 Y68.28 F6000.0
G01 X64.66 Y67.95 F6000.0
G01 X64.74 Y67.74 F6000.0
G01 X64.79 Y67.43 F6000.0
G01 X64.76 Y67.1 F6000.0
G01 X64.66 Y67.14 F6000.0
G01 F6000.0
M5
G00 X64.47 Y66.52 F6000.0
M3 F6000.0
G01 X64.38 Y66.61 F6000.0
G01 X64.29 Y66.52 F6000.0
G01 X64.38 Y66.42 F6000.0
G01 X64.47 Y66.52 F6000.0
G01 F6000.0
M5
G00 X64.01 Y66.61 F6000.0
M3 F6000.0
G01 X63.87 Y66.73 F6000.0
G01 X63.73 Y66.55 F6000.0
G01 X63.87 Y66.42 F6000.0
G01 X64.01 Y66.61 F6000.0
G01 F6000.0
M5
G00 X63.5 Y66.55 F6000.0
M3 F6000.0
G01 X62.84 Y66.53 F6000.0
G01 X63.27 Y66.45 F6000.0
G01 X63.5 Y66.55 F6000.0
G01 F6000.0
M5
G00 X62.8 Y66.89 F6000.0
M3 F6000.0
G01 X62.66 Y66.98 F6000.0
G01 X62.52 Y66.89 F6000.0
G01 X62.66 Y66.79 F6000.0
G01 X62.8 Y66.89 F6000.0
G01 F6000.0
M5
G00 X62.85 Y67.26 F6000.0
M3 F6000.0
G01 X62.56 Y67.35 F6000.0
G01 X62.38 Y67.26 F6000.0
G01 X62.67 Y67.17 F6000.0
G01 X62.85 Y67.26 F6000.0
G01 F6000.0
M5
G00 X63.92 Y67.63 F6000.0
M3 F6000.0
G01 X63.77 Y67.72 F6000.0
G01 X63.68 Y67.63 F6000.0
G01 X63.83 Y67.54 F6000.0
G01 X63.92 Y67.63 F6000.0
G01 F6000.0
M5
G00 X63.53 Y68.3 F6000.0
M3 F6000.0
G01 X63.32 Y68.25 F6000.0
G01 X63.44 Y68.0 F6000.0
G01 X63.53 Y68.3 F6000.0
G01 F6000.0
M5
G00 X65.26 Y69.51 F6000.0
M3 F6000.0
G01 X65.42 Y69.78 F6000.0
G01 X65.43 Y69.46 F6000.0
G01 X65.33 Y69.25 F6000.0
G01 X65.26 Y69.51 F6000.0
M5
G00 X66.9 Y68.21 F6000.0
M3 F6000.0
G01 X67.16 Y68.68 F6000.0
G01 X67.27 Y68.46 F6000.0
G01 X67.05 Y68.26 F6000.0
G01 X66.9 Y68.21 F6000.0
G01 F6000.0
M5
G00 X68.05 Y67.93 F6000.0
M3 F6000.0
G01 X67.62 Y68.02 F6000.0
G01 X67.41 Y68.14 F6000.0
G01 X68.25 Y68.06 F6000.0
G01 X68.05 Y67.93 F6000.0
G01 F6000.0
M5
G00 X68.85 Y67.91 F6000.0
M3 F6000.0
G01 X69.14 Y68.15 F6000.0
G01 X68.92 Y67.63 F6000.0
G01 X68.85 Y67.91 F6000.0
G01 F6000.0
M5
G00 X70.09 Y67.26 F6000.0
M3 F6000.0
G01 X70.2 Y67.37 F6000.0
G01 X70.5 Y67.34 F6000.0
G01 X70.09 Y67.26 F6000.0
G01 F6000.0
M5
G00 X69.39 Y66.25 F6000.0
M3 F6000.0
G01 X69.07 F6000.0
G01 X69.08 Y66.12 F6000.0
G01 X69.39 Y66.25 F6000.0
G01 F6000.0
M5
G00 X68.93 Y66.24 F6000.0
M3 F6000.0
G01 X68.83 Y66.33 F6000.0
G01 X68.74 Y66.24 F6000.0
G01 X68.83 Y66.14 F6000.0
G01 X68.93 Y66.24 F6000.0
G01 F6000.0
M5
G00 X68.13 Y65.9 F6000.0
M3 F6000.0
G01 X68.22 Y66.09 F6000.0
G01 X67.84 Y65.96 F6000.0
G01 X68.13 Y65.9 F6000.0
G01 F6000.0
M5
G00 X67.77 Y66.14 F6000.0
M3 F6000.0
G01 X67.61 Y66.22 F6000.0
G01 X66.98 Y66.31 F6000.0
G01 X66.5 Y66.37 F6000.0
G01 X66.15 Y66.47 F6000.0
G01 X65.68 F6000.0
G01 X66.12 Y66.28 F6000.0
G01 X66.93 Y66.14 F6000.0
G01 X67.77 F6000.0
G01 F6000.0
M5
G00 X67.57 Y65.36 F6000.0
M3 F6000.0
G01 X67.26 Y65.43 F6000.0
G01 X67.21 Y65.3 F6000.0
G01 X67.57 Y65.36 F6000.0
G01 F6000.0
M5
G00 X67.47 Y64.86 F6000.0
M3 F6000.0
G01 X67.1 F6000.0
G01 X67.3 Y64.76 F6000.0
G01 X67.47 Y64.86 F6000.0
G01 F6000.0
M5
G00 X67.26 Y64.57 F6000.0
M3 F6000.0
G01 X67.0 Y64.6 F6000.0
G01 X66.96 Y64.47 F6000.0
G01 X67.26 Y64.57 F6000.0
G01 F6000.0
M5
G00 X67.35 Y64.29 F6000.0
M3 F6000.0
G01 X67.09 Y64.37 F6000.0
G01 X66.84 Y64.36 F6000.0
G01 X67.07 Y64.29 F6000.0
G01 X67.33 Y64.21 F6000.0
G01 X67.35 Y64.29 F6000.0
G01 F6000.0
M5
G00 X66.7 Y64.88 F6000.0
M3 F6000.0
G01 X66.37 Y64.94 F6000.0
G01 X66.51 Y64.85 F6000.0
G01 X66.7 Y64.88 F6000.0
G01 F6000.0
M5
G00 X66.74 Y65.18 F6000.0
M3 F6000.0
G01 X66.66 Y65.4 F6000.0
G01 X66.48 Y65.26 F6000.0
G01 X66.74 Y65.18 F6000.0
G01 F6000.0
M5
G00 X66.23 Y65.4 F6000.0
M3 F6000.0
G01 X66.06 Y65.5 F6000.0
G01 X65.73 Y65.55 F6000.0
G01 X65.59 Y65.51 F6000.0
G01 X65.84 Y65.38 F6000.0
G01 X66.17 Y65.32 F6000.0
G01 X66.23 Y65.4 F6000.0
G01 F6000.0
M5
G00 X66.19 Y65.03 F6000.0
M3 F6000.0
G01 X65.88 Y65.12 F6000.0
G01 X65.82 Y65.03 F6000.0
G01 X66.19 F6000.0
G01 F6000.0
M5
G00 X66.89 Y65.72 F6000.0
M3 F6000.0
G01 X66.64 Y65.81 F6000.0
G01 X66.27 Y65.88 F6000.0
G01 X66.1 Y65.77 F6000.0
G01 X66.43 Y65.7 F6000.0
G01 X66.7 Y65.67 F6000.0
G01 X66.79 Y65.59 F6000.0
G01 X66.89 Y65.72 F6000.0
G01 F6000.0
M5
G00 X66.81 Y66.67 F6000.0
M3 F6000.0
G01 X66.58 F6000.0
G01 X66.7 Y66.62 F6000.0
G01 X66.81 Y66.67 F6000.0
G01 F6000.0
M5
G00 X66.42 Y66.88 F6000.0
M3 F6000.0
G01 X66.28 Y67.11 F6000.0
G01 X66.15 Y66.79 F6000.0
G01 X66.42 Y66.88 F6000.0
G01 F6000.0
M5
G00 X67.31 Y66.93 F6000.0
M3 F6000.0
G01 X67.33 Y67.07 F6000.0
G01 X66.89 Y66.88 F6000.0
G01 X67.31 Y66.93 F6000.0
G01 F6000.0
M5
G00 X67.72 Y67.08 F6000.0
M3 F6000.0
G01 X67.63 Y67.17 F6000.0
G01 X67.53 Y67.02 F6000.0
G01 X67.63 Y66.93 F6000.0
G01 X67.72 Y67.08 F6000.0
G01 F6000.0
M5
G00 X68.47 Y65.47 F6000.0
M3 F6000.0
G01 X68.66 Y65.77 F6000.0
G01 X68.52 Y65.63 F6000.0
G01 X68.16 Y65.49 F6000.0
G01 X68.0 Y65.4 F6000.0
G01 X68.47 Y65.47 F6000.0
G01 F6000.0
M5
G00 X68.65 Y65.17 F6000.0
M3 F6000.0
G01 X69.02 Y65.31 F6000.0
G01 X69.34 Y65.4 F6000.0
G01 X68.51 Y65.21 F6000.0
G01 X68.43 Y65.03 F6000.0
G01 X68.65 Y65.17 F6000.0
G01 F6000.0
M5
G00 X68.6 Y64.66 F6000.0
M3 F6000.0
G01 X68.23 Y64.69 F6000.0
G01 X67.64 Y64.6 F6000.0
G01 X68.6 Y64.66 F6000.0
G01 F6000.0
M5
G00 X68.7 Y64.3 F6000.0
M3 F6000.0
G01 X68.57 Y64.42 F6000.0
G01 X68.0 Y64.3 F6000.0
G01 X67.47 Y64.24 F6000.0
G01 X68.02 Y64.2 F6000.0
G01 X68.7 Y64.3 F6000.0
G01 F6000.0
M5
G00 X69.02 Y64.34 F6000.0
M3 F6000.0
G01 X69.14 Y64.41 F6000.0
G01 X69.48 Y64.48 F6000.0
G01 X69.39 Y64.66 F6000.0
G01 X69.3 Y64.58 F6000.0
G01 X69.12 Y64.54 F6000.0
G01 X68.9 Y64.39 F6000.0
G01 X68.93 Y64.2 F6000.0
G01 X69.02 Y64.34 F6000.0
G01 F6000.0
M5
G00 X69.39 Y64.9 F6000.0
M3 F6000.0
G01 X69.16 Y64.94 F6000.0
G01 X68.93 Y64.86 F6000.0
G01 X69.16 Y64.82 F6000.0
G01 X69.39 Y64.9 F6000.0
G01 F6000.0
M5
G00 X69.76 Y64.47 F6000.0
M3 F6000.0
G01 X69.67 Y64.66 F6000.0
G01 X69.58 Y64.47 F6000.0
G01 X69.67 Y64.29 F6000.0
G01 X69.76 Y64.47 F6000.0
G01 F6000.0
M5
G00 X70.04 Y64.58 F6000.0
M3 F6000.0
G01 X69.95 Y64.71 F6000.0
G01 X69.85 Y64.46 F6000.0
G01 X69.95 Y64.34 F6000.0
G01 X70.04 Y64.58 F6000.0
G01 F6000.0
M5
G00 X70.32 Y64.41 F6000.0
M3 F6000.0
G01 X70.15 Y64.38 F6000.0
G01 X70.22 Y64.3 F6000.0
G01 X70.32 Y64.41 F6000.0
G01 F6000.0
M5
G00 X71.06 Y64.47 F6000.0
M3 F6000.0
G01 X70.92 Y64.71 F6000.0
G01 X70.78 Y64.66 F6000.0
G01 X70.65 Y64.59 F6000.0
G01 X70.38 Y64.75 F6000.0
G01 X70.39 Y64.58 F6000.0
G01 X71.06 Y64.47 F6000.0
G01 F6000.0
M5
G00 X71.28 Y64.64 F6000.0
M3 F6000.0
G01 X71.14 Y64.79 F6000.0
G01 X71.16 Y64.55 F6000.0
G01 X71.28 Y64.64 F6000.0
G01 F6000.0
M5
G00 X71.62 Y64.67 F6000.0
M3 F6000.0
G01 X71.75 Y64.66 F6000.0
G01 X71.89 Y64.64 F6000.0
G01 X71.75 Y64.79 F6000.0
G01 X71.39 Y64.65 F6000.0
G01 X71.62 Y64.67 F6000.0
G01 F6000.0
M5
G00 X71.62 Y65.12 F6000.0
M3 F6000.0
G01 X71.52 Y65.22 F6000.0
G01 X71.43 Y65.12 F6000.0
G01 X71.52 Y65.03 F6000.0
G01 X71.62 Y65.12 F6000.0
G01 F6000.0
M5
G00 X71.5 Y65.37 F6000.0
M3 F6000.0
G01 X71.32 F6000.0
G01 X71.38 Y65.32 F6000.0
G01 X71.5 Y65.37 F6000.0
G01 F6000.0
M5
G00 X71.43 Y65.68 F6000.0
M3 F6000.0
G01 X71.2 Y65.75 F6000.0
G01 X71.14 Y65.59 F6000.0
G01 X71.43 Y65.68 F6000.0
G01 F6000.0
M5
G00 X71.74 Y65.82 F6000.0
M3 F6000.0
G01 X71.66 Y65.96 F6000.0
G01 X71.58 Y65.82 F6000.0
G01 X71.66 Y65.68 F6000.0
G01 X71.74 Y65.82 F6000.0
G01 F6000.0
M5
G00 X72.08 Y65.96 F6000.0
M3 F6000.0
G01 X71.98 Y66.05 F6000.0
G01 X71.94 Y65.96 F6000.0
G01 X72.04 Y65.87 F6000.0
G01 X72.08 Y65.96 F6000.0
G01 F6000.0
M5
G00 X72.36 Y65.77 F6000.0
M3 F6000.0
G01 X72.27 Y65.87 F6000.0
G01 X72.13 Y65.77 F6000.0
G01 X72.21 Y65.68 F6000.0
G01 X72.36 Y65.77 F6000.0
G01 F6000.0
M5
G00 X72.58 Y65.82 F6000.0
M3 F6000.0
G01 X72.48 Y65.92 F6000.0
G01 X72.49 Y65.78 F6000.0
G01 X72.58 Y65.82 F6000.0
G01 F6000.0
M5
G00 X72.74 Y66.49 F6000.0
M3 F6000.0
G01 X72.71 Y66.53 F6000.0
G01 X72.54 Y66.36 F6000.0
G01 X72.74 Y66.49 F6000.0
G01 F6000.0
M5
G00 X71.52 Y66.58 F6000.0
M3 F6000.0
G01 X72.48 Y66.8 F6000.0
G01 X72.29 Y66.91 F6000.0
G01 X71.23 Y67.52 F6000.0
G01 X70.86 Y67.76 F6000.0
G01 X70.01 Y68.3 F6000.0
G01 X69.17 Y68.84 F6000.0
G01 X67.95 Y69.62 F6000.0
G01 X67.71 Y69.89 F6000.0
G01 X67.04 Y70.63 F6000.0
G01 X66.36 Y71.37 F6000.0
G01 X65.45 Y72.39 F6000.0
G01 X65.17 Y72.67 F6000.0
G01 X64.18 Y73.66 F6000.0
G01 X63.94 Y73.4 F6000.0
G01 X63.04 Y72.39 F6000.0
G01 X62.92 Y72.26 F6000.0
G01 X62.24 Y71.53 F6000.0
G01 X61.44 Y70.67 F6000.0
G01 X61.2 Y70.54 F6000.0
G01 X60.31 Y70.08 F6000.0
G01 X59.19 Y69.48 F6000.0
G01 X59.18 F6000.0
G01 X58.27 Y69.05 F6000.0
G01 X58.57 Y68.71 F6000.0
G01 X59.09 Y68.46 F6000.0
G01 X59.42 Y68.32 F6000.0
G01 X59.89 Y68.45 F6000.0
G01 X60.38 Y68.44 F6000.0
G01 X60.41 Y68.09 F6000.0
G01 X60.95 Y68.65 F6000.0
G01 X61.28 Y68.61 F6000.0
G01 X61.98 Y68.78 F6000.0
G01 X62.02 Y69.07 F6000.0
G01 X62.05 Y69.28 F6000.0
G01 X62.2 Y69.39 F6000.0
G01 X62.23 Y69.22 F6000.0
G01 X62.37 Y68.81 F6000.0
G01 X62.52 Y67.9 F6000.0
G01 X62.88 Y68.05 F6000.0
G01 X63.23 Y68.69 F6000.0
G01 X63.4 Y69.02 F6000.0
G01 X63.82 Y68.18 F6000.0
G01 X64.05 Y67.76 F6000.0
G01 X64.47 Y67.12 F6000.0
G01 X63.76 Y67.18 F6000.0
G01 X63.45 Y67.02 F6000.0
G01 X63.91 Y66.89 F6000.0
G01 X64.6 Y66.62 F6000.0
G01 X64.69 Y66.64 F6000.0
G01 X65.11 Y66.7 F6000.0
G01 X65.63 Y66.85 F6000.0
G01 X65.62 Y67.78 F6000.0
G01 X65.44 Y68.42 F6000.0
G01 X65.66 Y68.29 F6000.0
G01 X66.08 Y67.96 F6000.0
G01 X66.19 Y68.58 F6000.0
G01 X66.55 Y69.15 F6000.0
G01 X66.61 Y68.88 F6000.0
G01 X66.51 Y68.38 F6000.0
G01 X66.92 Y67.81 F6000.0
G01 X67.08 Y67.83 F6000.0
G01 X67.31 Y67.74 F6000.0
G01 X68.47 Y67.31 F6000.0
G01 X68.98 Y67.14 F6000.0
G01 X69.37 Y67.05 F6000.0
G01 X69.48 Y66.97 F6000.0
G01 X68.79 Y66.91 F6000.0
G01 X68.09 Y66.8 F6000.0
G01 X68.55 Y66.56 F6000.0
G01 X69.27 Y66.55 F6000.0
G01 X69.85 Y66.52 F6000.0
G01 X70.19 Y66.53 F6000.0
G01 X71.52 Y66.58 F6000.0
G01 F6000.0
M5
G00 X70.78 Y65.67 F6000.0
M3 F6000.0
G01 X70.69 Y65.82 F6000.0
G01 X70.6 Y65.73 F6000.0
G01 X70.69 Y65.59 F6000.0
G01 X70.78 Y65.67 F6000.0
G01 F6000.0
M5
G00 X70.22 Y65.69 F6000.0
M3 F6000.0
G01 X69.95 Y65.73 F6000.0
G01 X69.67 Y65.81 F6000.0
G01 X69.43 Y65.86 F6000.0
G01 X69.3 F6000.0
G01 X68.99 Y65.72 F6000.0
G01 X69.11 F6000.0
G01 X70.22 Y65.69 F6000.0
G01 F6000.0
M5
G00 X69.93 Y65.06 F6000.0
M3 F6000.0
G01 X69.98 Y65.25 F6000.0
G01 X69.62 Y65.03 F6000.0
G01 X69.93 Y65.06 F6000.0
G01 F6000.0
M5
G00 X70.69 Y65.13 F6000.0
M3 F6000.0
G01 X70.43 Y65.16 F6000.0
G01 X70.39 Y65.03 F6000.0
G01 X70.69 Y65.13 F6000.0
G01 F6000.0
M5
G00 X70.97 Y65.12 F6000.0
M3 F6000.0
G01 X70.87 Y65.22 F6000.0
G01 X70.78 Y65.12 F6000.0
G01 X70.87 Y65.03 F6000.0
G01 X70.97 Y65.12 F6000.0
G01 F6000.0
M5
G00 X72.82 Y65.12 F6000.0
M3 F6000.0
G01 X72.72 Y65.22 F6000.0
G01 X72.68 Y65.12 F6000.0
G01 X72.78 Y65.03 F6000.0
G01 X72.82 Y65.12 F6000.0
G01 F6000.0
M5
G00 X73.19 Y65.22 F6000.0
M3 F6000.0
G01 X73.1 Y65.31 F6000.0
G01 X73.01 Y65.22 F6000.0
G01 X73.1 Y65.12 F6000.0
G01 X73.19 Y65.22 F6000.0
G01 F6000.0
M5
G00 X73.54 Y65.37 F6000.0
M3 F6000.0
G01 X73.36 F6000.0
G01 X73.42 Y65.32 F6000.0
G01 X73.54 Y65.37 F6000.0
G01 F6000.0
M5
G00 X73.89 Y65.57 F6000.0
M3 F6000.0
G01 X73.72 Y65.51 F6000.0
G01 X73.78 Y65.45 F6000.0
G01 X73.89 Y65.57 F6000.0
G01 F6000.0
M5
G00 X75. Y65.34 F6000.0
M3 F6000.0
G01 X75.32 Y65.44 F6000.0
G01 X75.0 Y65.27 F6000.0
G01 X74.72 Y65.21 F6000.0
G01 X75.0 Y65.34 F6000.0
M5
G00 X74.67 Y66.43 F6000.0
M3 F6000.0
G01 X74.54 Y66.38 F6000.0
G01 X74.77 Y66.3 F6000.0
G01 X74.67 Y66.43 F6000.0
G01 F6000.0
M5
G00 X75.61 Y66.52 F6000.0
M3 F6000.0
G01 X75.67 Y66.61 F6000.0
G01 X75.93 Y66.52 F6000.0
G01 X75.61 F6000.0
G01 F6000.0
M5
G00 X76.12 Y66.52 F6000.0
M3 F6000.0
G01 X76.35 F6000.0
G01 X76.33 Y66.42 F6000.0
G01 X76.12 Y66.52 F6000.0
G01 F6000.0
M5
G00 X76.19 Y66.21 F6000.0
M3 F6000.0
G01 X76.47 F6000.0
G01 X76.3 Y66.16 F6000.0
G01 X76.19 Y66.21 F6000.0
G01 F6000.0
M5
G00 X77.18 Y66.42 F6000.0
M3 F6000.0
G01 X77.28 Y66.56 F6000.0
G01 X77.37 Y66.47 F6000.0
G01 X77.28 Y66.33 F6000.0
G01 X77.18 Y66.42 F6000.0
G01 F6000.0
M5
G00 X77.55 Y66.89 F6000.0
M3 F6000.0
G01 X77.53 Y66.98 F6000.0
G01 X77.69 Y66.89 F6000.0
G01 X77.55 F6000.0
G01 F6000.0
M5
G00 X77.95 Y65.93 F6000.0
M3 F6000.0
G01 X78.44 Y66.12 F6000.0
G01 X78.07 Y66.03 F6000.0
G01 X76.72 Y65.71 F6000.0
G01 X76.84 Y65.73 F6000.0
G01 X77.95 Y65.93 F6000.0
G01 F6000.0
M5
G00 X77.8 Y63.9 F6000.0
M3 F6000.0
G01 X77.84 Y64.06 F6000.0
G01 X77.95 Y63.91 F6000.0
G01 X77.8 Y63.9 F6000.0
G01 F6000.0
M5
G00 X77.65 Y63.44 F6000.0
M3 F6000.0
G01 X77.74 Y63.59 F6000.0
G01 X77.83 Y63.56 F6000.0
G01 X77.74 Y63.41 F6000.0
G01 X77.65 Y63.44 F6000.0
G01 F6000.0
M5
G00 X77.09 Y62.88 F6000.0
M3 F6000.0
G01 X77.24 Y63.09 F6000.0
G01 X77.36 Y63.04 F6000.0
G01 X77.09 Y62.88 F6000.0
G01 F6000.0
M5
G00 X76.48 Y62.63 F6000.0
M3 F6000.0
G01 X76.2 Y62.64 F6000.0
G01 X76.35 Y62.42 F6000.0
G01 X76.48 Y62.63 F6000.0
G01 F6000.0
M5
G00 X76.02 Y62.63 F6000.0
M3 F6000.0
G01 X76.17 Y63.02 F6000.0
G01 X76.14 Y63.26 F6000.0
G01 X76.04 Y63.28 F6000.0
G01 X75.98 Y63.04 F6000.0
G01 X75.83 Y62.65 F6000.0
G01 X76.02 Y62.63 F6000.0
G01 F6000.0
M5
G00 X74.56 Y62.22 F6000.0
M3 F6000.0
G01 X74.05 F6000.0
G01 X74.31 Y62.18 F6000.0
G01 X74.56 Y62.22 F6000.0
G01 F6000.0
M5
G00 X72.74 Y62.46 F6000.0
M3 F6000.0
G01 X72.94 Y62.61 F6000.0
G01 X73.05 Y62.59 F6000.0
G01 X72.84 Y62.43 F6000.0
G01 X72.74 Y62.46 F6000.0
G01 F6000.0
M5
G00 X69.81 Y63.55 F6000.0
M3 F6000.0
G01 X69.91 Y63.64 F6000.0
G01 X69.95 Y63.55 F6000.0
G01 X69.85 Y63.45 F6000.0
G01 X69.81 Y63.55 F6000.0
G01 F6000.0
M5
G00 X69.2 Y62.98 F6000.0
M3 F6000.0
G01 X69.11 Y63.13 F6000.0
G01 X69.02 Y63.04 F6000.0
G01 X69.11 Y62.9 F6000.0
G01 X69.2 Y62.98 F6000.0
G01 F6000.0
M5
G00 X68.09 Y62.76 F6000.0
M3 F6000.0
G01 X67.8 Y62.8 F6000.0
G01 X66.51 Y62.94 F6000.0
G01 X66.42 Y62.95 F6000.0
G01 X65.43 Y63.08 F6000.0
G01 X64.44 Y63.2 F6000.0
G01 X63.44 Y63.33 F6000.0
G01 X62.45 Y63.46 F6000.0
G01 X61.37 Y63.6 F6000.0
G01 X61.23 Y63.63 F6000.0
G01 X60.26 Y63.87 F6000.0
G01 X59.29 Y64.11 F6000.0
G01 X58.32 Y64.36 F6000.0
G01 X57.21 Y64.63 F6000.0
G01 X56.93 Y64.72 F6000.0
G01 X55.97 Y65.03 F6000.0
G01 X55.02 Y65.33 F6000.0
G01 X54.07 Y65.64 F6000.0
G01 X52.83 Y66.04 F6000.0
G01 X52.63 Y66.07 F6000.0
G01 X51.44 Y66.24 F6000.0
G01 X51.0 Y66.4 F6000.0
G01 X50.06 Y66.74 F6000.0
G01 X48.68 Y67.23 F6000.0
G01 X47.7 Y67.3 F6000.0
G01 X47.62 Y66.7 F6000.0
G01 X47.56 Y66.38 F6000.0
G01 X47.5 Y66.66 F6000.0
G01 X47.53 Y66.86 F6000.0
G01 X47.71 Y68.05 F6000.0
G01 X48.07 Y68.12 F6000.0
G01 X49.41 Y68.41 F6000.0
G01 X49.92 Y68.64 F6000.0
G01 X50.23 Y68.84 F6000.0
G01 X49.76 Y68.78 F6000.0
G01 X49.01 Y68.87 F6000.0
G01 X48.83 Y69.03 F6000.0
G01 X48.09 Y69.71 F6000.0
G01 X47.18 Y70.55 F6000.0
G01 X46.85 Y70.78 F6000.0
G01 X46.02 Y71.35 F6000.0
G01 X44.87 Y72.14 F6000.0
G01 X44.8 Y72.19 F6000.0
G01 X42.15 Y73.59 F6000.0
G01 X41.19 Y74.1 F6000.0
G01 X40.98 Y74.3 F6000.0
G01 X40.25 Y74.98 F6000.0
G01 X39.52 Y75.67 F6000.0
G01 X38.58 Y76.55 F6000.0
G01 X38.32 Y76.8 F6000.0
G01 X37.62 Y77.51 F6000.0
G01 X36.66 Y78.48 F6000.0
G01 X36.78 Y78.0 F6000.0
G01 X36.86 Y77.45 F6000.0
G01 X36.96 Y77.37 F6000.0
G01 X37.05 Y77.24 F6000.0
G01 X37.15 Y76.82 F6000.0
G01 X37.25 Y76.42 F6000.0
G01 X36.94 Y76.75 F6000.0
G01 X36.59 Y77.68 F6000.0
G01 X36.46 Y78.09 F6000.0
G01 X36.02 Y79.46 F6000.0
G01 X35.88 Y79.7 F6000.0
G01 X34.87 Y81.42 F6000.0
G01 X34.22 Y82.53 F6000.0
G01 X33.88 Y82.59 F6000.0
G01 X32.57 Y82.85 F6000.0
G01 X32.09 Y82.93 F6000.0
G01 X30.62 Y83.19 F6000.0
G01 X30.57 Y83.23 F6000.0
G01 X29.74 Y83.78 F6000.0
G01 X28.9 Y84.34 F6000.0
G01 X28.02 Y84.93 F6000.0
G01 X27.98 Y84.96 F6000.0
G01 X27.17 Y85.63 F6000.0
G01 X27.11 Y85.56 F6000.0
G01 X26.34 Y84.78 F6000.0
G01 X26.15 Y84.5 F6000.0
G01 X25.6 Y83.67 F6000.0
G01 X24.86 Y82.57 F6000.0
G01 X24.64 Y82.28 F6000.0
G01 X23.81 Y81.2 F6000.0
G01 X23.59 Y80.93 F6000.0
G01 X22.75 Y79.87 F6000.0
G01 X22.41 Y79.57 F6000.0
G01 X21.64 Y78.92 F6000.0
G01 X20.89 Y78.27 F6000.0
G01 X20.12 Y77.63 F6000.0
G01 X19.02 Y76.68 F6000.0
G01 X18.75 Y76.51 F6000.0
G01 X17.07 Y75.42 F6000.0
G01 X15.96 Y74.7 F6000.0
G01 X15.93 Y74.68 F6000.0
G01 X15.07 Y74.16 F6000.0
G01 X14.19 Y73.61 F6000.0
G01 X14.08 Y73.57 F6000.0
G01 X13.17 Y73.15 F6000.0
G01 X12.26 Y72.73 F6000.0
G01 X11.36 Y72.31 F6000.0
G01 X10.34 Y71.85 F6000.0
G01 X10.04 Y71.8 F6000.0
G01 X9.06 Y71.64 F6000.0
G01 X8.07 Y71.47 F6000.0
G01 X7.08 Y71.31 F6000.0
G01 X6.1 Y71.15 F6000.0
G01 X4.82 Y70.94 F6000.0
G01 X4.78 F6000.0
G01 X3.78 Y71.01 F6000.0
G01 X2.75 Y71.09 F6000.0
G01 X2.5 Y71.56 F6000.0
G01 X2.79 Y71.73 F6000.0
G01 X2.96 Y71.69 F6000.0
G01 X3.06 Y71.85 F6000.0
G01 X3.15 Y71.61 F6000.0
G01 X3.24 Y71.43 F6000.0
G01 X3.33 Y71.67 F6000.0
G01 X3.43 Y71.85 F6000.0
G01 X3.47 Y71.7 F6000.0
G01 X3.51 Y71.46 F6000.0
G01 X3.62 Y71.67 F6000.0
G01 X3.68 Y71.78 F6000.0
G01 X3.81 Y71.53 F6000.0
G01 X3.9 Y71.78 F6000.0
G01 X4.0 Y71.67 F6000.0
G01 X4.18 Y71.2 F6000.0
G01 X4.21 Y71.36 F6000.0
G01 X4.3 Y71.85 F6000.0
G01 X4.6 Y71.94 F6000.0
G01 X4.65 Y71.69 F6000.0
G01 X4.54 Y71.74 F6000.0
G01 X4.45 Y71.85 F6000.0
G01 X4.51 Y71.37 F6000.0
G01 X4.75 Y71.47 F6000.0
G01 X4.97 Y71.44 F6000.0
G01 X5.21 Y71.25 F6000.0
G01 X5.11 Y71.47 F6000.0
G01 X4.93 Y71.96 F6000.0
G01 X5.4 Y71.97 F6000.0
G01 X5.68 Y71.54 F6000.0
G01 X5.95 Y71.66 F6000.0
G01 X5.9 Y72.01 F6000.0
G01 X5.87 Y72.36 F6000.0
G01 X6.46 Y72.61 F6000.0
G01 X7.05 Y72.49 F6000.0
G01 X6.6 Y72.34 F6000.0
G01 X6.34 Y72.22 F6000.0
G01 X6.9 Y71.71 F6000.0
G01 X6.97 Y71.6 F6000.0
G01 X6.58 Y71.64 F6000.0
G01 X6.4 Y71.52 F6000.0
G01 X7.04 Y71.49 F6000.0
G01 X7.34 Y71.64 F6000.0
G01 X7.09 Y71.77 F6000.0
G01 X6.69 Y71.9 F6000.0
G01 X6.65 Y72.0 F6000.0
G01 X7.13 Y72.01 F6000.0
G01 X7.41 Y72.11 F6000.0
G01 X7.14 Y72.51 F6000.0
G01 X6.57 Y72.84 F6000.0
G01 X5.87 Y72.65 F6000.0
G01 X5.7 Y71.9 F6000.0
G01 X5.84 Y71.65 F6000.0
G01 X5.72 Y71.64 F6000.0
G01 X5.45 Y72.4 F6000.0
G01 X5.32 Y72.45 F6000.0
G01 X5.05 Y72.37 F6000.0
G01 X4.26 Y72.26 F6000.0
G01 X3.49 Y72.14 F6000.0
G01 X3.45 Y72.17 F6000.0
G01 X4.25 Y72.34 F6000.0
G01 X4.96 Y72.46 F6000.0
G01 X5.08 Y72.55 F6000.0
G01 X5.38 Y72.69 F6000.0
G01 X5.72 Y72.78 F6000.0
G01 X5.9 Y72.8 F6000.0
G01 X6.26 Y73.06 F6000.0
G01 X6.63 Y73.36 F6000.0
G01 X6.96 Y73.18 F6000.0
G01 F6000.0
G01 X7.62 Y72.43 F6000.0
G01 X8.14 Y72.04 F6000.0
G01 X8.07 Y72.4 F6000.0
G01 X8.35 Y73.09 F6000.0
G01 X8.79 Y73.37 F6000.0
G01 X8.77 F6000.0
G01 X7.75 Y73.39 F6000.0
G01 X7.37 Y73.28 F6000.0
G01 X7.88 Y73.53 F6000.0
G01 X8.18 Y73.84 F6000.0
G01 X7.85 Y74.18 F6000.0
G01 X7.8 Y74.31 F6000.0
G01 X7.7 Y74.22 F6000.0
G01 X7.49 Y74.13 F6000.0
G01 X7.51 Y74.26 F6000.0
G01 X8.25 Y74.08 F6000.0
G01 X8.7 Y73.77 F6000.0
G01 X8.36 Y74.19 F6000.0
G01 X7.86 Y74.61 F6000.0
G01 X7.93 Y74.88 F6000.0
G01 X8.09 Y75.17 F6000.0
G01 X8.26 Y74.79 F6000.0
G01 X8.85 Y73.99 F6000.0
G01 X9.27 Y73.2 F6000.0
G01 X9.37 Y72.82 F6000.0
G01 X9.46 Y73.14 F6000.0
G01 X9.62 Y73.5 F6000.0
G01 Y73.56 F6000.0
G01 X9.95 Y74.28 F6000.0
G01 X10.66 Y74.66 F6000.0
G01 X10.71 Y74.49 F6000.0
G01 X10.65 Y74.41 F6000.0
G01 X10.71 Y74.31 F6000.0
G01 X10.48 F6000.0
G01 X10.25 Y74.22 F6000.0
G01 X10.04 Y74.03 F6000.0
G01 X10.29 Y73.88 F6000.0
G01 X10.43 Y74.0 F6000.0
G01 X10.57 Y74.08 F6000.0
G01 X10.85 Y74.02 F6000.0
G01 X11.04 Y74.06 F6000.0
G01 X11.22 Y73.92 F6000.0
G01 X11.04 Y73.89 F6000.0
G01 X11.06 Y73.68 F6000.0
G01 X11.08 Y73.57 F6000.0
G01 X10.78 Y73.67 F6000.0
G01 X9.94 Y73.43 F6000.0
G01 X9.75 Y73.19 F6000.0
G01 X9.6 Y72.82 F6000.0
G01 X9.44 Y72.51 F6000.0
G01 X9.38 Y72.25 F6000.0
G01 X9.72 Y72.11 F6000.0
G01 X9.58 Y72.27 F6000.0
G01 X9.57 Y72.37 F6000.0
G01 X9.74 Y72.67 F6000.0
G01 X9.92 Y72.99 F6000.0
G01 X10.11 Y73.24 F6000.0
G01 X10.43 Y73.38 F6000.0
G01 X10.76 Y73.29 F6000.0
G01 X10.53 Y73.25 F6000.0
G01 X10.38 Y73.06 F6000.0
G01 Y72.77 F6000.0
G01 X10.3 Y72.42 F6000.0
G01 X10.85 Y73.08 F6000.0
G01 X10.93 Y73.19 F6000.0
G01 X11.13 Y72.72 F6000.0
G01 X11.43 Y72.6 F6000.0
G01 X11.47 Y72.62 F6000.0
G01 X12.38 Y73.04 F6000.0
G01 X13.33 Y73.48 F6000.0
G01 X13.87 Y73.84 F6000.0
G01 X14.41 Y74.16 F6000.0
G01 X15.12 Y74.54 F6000.0
G01 X15.14 Y74.55 F6000.0
G01 X16.01 Y75.05 F6000.0
G01 X16.9 Y75.55 F6000.0
G01 X17.25 Y75.86 F6000.0
G01 X16.44 Y75.97 F6000.0
G01 X16.23 Y75.98 F6000.0
G01 X15.02 Y76.08 F6000.0
G01 X14.9 Y76.11 F6000.0
G01 X13.91 Y76.29 F6000.0
G01 X12.93 Y76.48 F6000.0
G01 X11.82 Y76.69 F6000.0
G01 X11.42 Y76.82 F6000.0
G01 X10.47 Y77.12 F6000.0
G01 X9.11 Y77.56 F6000.0
G01 X8.93 Y77.67 F6000.0
G01 X8.69 Y77.8 F6000.0
G01 X7.94 Y78.11 F6000.0
G01 X7.23 Y78.39 F6000.0
G01 X6.97 Y78.53 F6000.0
G01 X5.84 Y79.14 F6000.0
G01 X5.4 Y79.21 F6000.0
G01 X4.89 Y79.34 F6000.0
G01 X4.83 Y79.37 F6000.0
G01 X3.85 Y79.78 F6000.0
G01 X3.1 Y80.06 F6000.0
G01 X2.75 Y80.19 F6000.0
G01 X2.5 Y80.25 F6000.0
G01 Y80.41 F6000.0
G01 Y81.57 F6000.0
G01 X2.51 Y81.61 F6000.0
G01 X2.65 Y82.64 F6000.0
G01 X2.82 Y82.38 F6000.0
G01 X2.63 Y82.85 F6000.0
G01 X2.62 Y83.22 F6000.0
G01 Y83.29 F6000.0
G01 F6000.0
G01 X2.59 Y84.29 F6000.0
G01 X2.55 Y85.29 F6000.0
G01 X2.51 Y86.29 F6000.0
G01 Y86.76 F6000.0
G01 Y87.76 F6000.0
G01 Y89.22 F6000.0
G01 X2.85 Y89.36 F6000.0
G01 X3.02 Y89.57 F6000.0
G01 X2.67 Y89.54 F6000.0
G01 X2.65 Y89.9 F6000.0
G01 X2.59 Y90.9 F6000.0
G01 X2.5 Y92.26 F6000.0
G01 X2.52 Y92.63 F6000.0
G01 X2.59 Y93.63 F6000.0
G01 X2.68 Y95.0 F6000.0
G01 X2.71 Y94.96 F6000.0
G01 X3.33 Y94.11 F6000.0
G01 X3.19 Y93.54 F6000.0
G01 X3.11 Y93.02 F6000.0
G01 X3.04 Y92.76 F6000.0
G01 X3.1 Y92.36 F6000.0
G01 X3.38 Y92.38 F6000.0
G01 X3.75 Y92.71 F6000.0
G01 X4.57 Y92.92 F6000.0
G01 X4.66 Y92.9 F6000.0
G01 X5.7 Y92.57 F6000.0
G01 X5.75 Y92.08 F6000.0
G01 X5.89 Y90.59 F6000.0
G01 X5.62 Y90.23 F6000.0
G01 X5.58 Y90.12 F6000.0
G01 X5.6 Y89.57 F6000.0
G01 X5.47 Y88.99 F6000.0
G01 X5.19 Y88.16 F6000.0
G01 X4.91 Y87.3 F6000.0
G01 X5.33 Y86.81 F6000.0
G01 X5.35 Y86.78 F6000.0
G01 X5.47 Y86.53 F6000.0
G01 X5.57 Y85.82 F6000.0
G01 X5.42 Y85.96 F6000.0
G01 X5.41 Y85.78 F6000.0
G01 X5.54 Y85.53 F6000.0
G01 X5.69 Y85.76 F6000.0
G01 Y85.92 F6000.0
G01 X5.73 Y87.08 F6000.0
G01 X5.81 Y87.19 F6000.0
G01 X6.47 Y88.11 F6000.0
G01 X7.17 Y88.36 F6000.0
G01 X7.83 Y87.84 F6000.0
G01 X8.28 Y87.35 F6000.0
G01 X8.22 Y86.72 F6000.0
G01 X8.2 Y86.09 F6000.0
G01 X8.21 Y86.12 F6000.0
G01 X8.57 Y87.09 F6000.0
G01 X8.73 Y87.58 F6000.0
G01 X9.0 Y87.78 F6000.0
G01 Y87.9 F6000.0
G01 X8.99 Y89.01 F6000.0
G01 X8.93 Y89.43 F6000.0
G01 X8.96 Y89.37 F6000.0
G01 X9.4 Y88.4 F6000.0
G01 X9.64 Y87.82 F6000.0
G01 X10.27 Y87.58 F6000.0
G01 X10.61 F6000.0
G01 X10.41 Y87.76 F6000.0
G01 X10.16 Y88.12 F6000.0
G01 X10.51 Y88.98 F6000.0
G01 X10.79 Y89.35 F6000.0
G01 F6000.0
G01 X11.79 Y89.41 F6000.0
G01 X12.04 Y89.15 F6000.0
G01 X12.2 Y89.48 F6000.0
G01 X12.88 Y89.76 F6000.0
G01 X13.02 Y89.04 F6000.0
G01 X12.92 Y88.81 F6000.0
G01 X13.23 Y89.05 F6000.0
G01 X13.54 Y89.34 F6000.0
G01 X13.82 Y88.87 F6000.0
G01 X14.35 Y88.51 F6000.0
G01 X14.37 Y88.91 F6000.0
G01 X14.61 Y89.7 F6000.0
G01 X15.07 Y89.8 F6000.0
G01 X14.99 Y89.58 F6000.0
G01 X14.62 Y89.38 F6000.0
G01 X14.7 Y88.63 F6000.0
G01 X14.8 Y87.9 F6000.0
G01 X15.04 Y87.38 F6000.0
G01 X15.42 Y87.26 F6000.0
G01 X15.38 Y86.49 F6000.0
G01 X15.4 Y85.71 F6000.0
G01 X15.53 Y85.91 F6000.0
G01 X15.67 Y86.15 F6000.0
G01 X15.72 Y85.44 F6000.0
G01 X15.76 Y84.7 F6000.0
G01 X15.98 Y84.81 F6000.0
G01 X15.99 Y85.35 F6000.0
G01 Y85.44 F6000.0
G01 Y86.53 F6000.0
G01 X16.21 Y86.43 F6000.0
G01 X16.3 Y86.53 F6000.0
G01 X16.17 Y87.02 F6000.0
G01 X16.54 Y87.22 F6000.0
G01 X16.79 Y87.29 F6000.0
G01 X16.49 Y87.4 F6000.0
G01 X16.54 Y87.66 F6000.0
G01 X16.94 Y87.37 F6000.0
G01 X17.27 Y86.8 F6000.0
G01 X17.47 Y86.87 F6000.0
G01 X18.12 Y87.18 F6000.0
G01 X18.3 Y87.23 F6000.0
G01 X18.91 Y87.07 F6000.0
G01 X19.45 Y86.75 F6000.0
G01 X19.53 Y86.22 F6000.0
G01 X19.34 Y86.0 F6000.0
G01 X19.29 Y85.59 F6000.0
G01 X19.13 Y85.45 F6000.0
G01 X18.73 Y85.23 F6000.0
G01 X19.21 Y84.85 F6000.0
G01 X19.39 Y84.62 F6000.0
G01 X19.43 Y84.36 F6000.0
G01 X20.02 Y84.61 F6000.0
G01 X20.16 Y84.98 F6000.0
G01 X19.85 Y85.16 F6000.0
G01 X19.83 Y85.72 F6000.0
G01 X20.0 Y86.07 F6000.0
G01 X19.97 Y86.17 F6000.0
G01 X19.7 Y87.23 F6000.0
G01 X19.53 Y87.58 F6000.0
G01 X19.85 Y87.42 F6000.0
G01 X19.95 Y87.35 F6000.0
G01 X20.01 Y87.65 F6000.0
G01 X20.04 Y87.68 F6000.0
G01 X20.8 Y88.39 F6000.0
G01 X21.05 F6000.0
G01 X20.5 Y88.69 F6000.0
G01 X20.43 Y88.82 F6000.0
G01 X20.59 Y89.07 F6000.0
G01 X20.52 Y89.14 F6000.0
G01 X19.7 Y89.88 F6000.0
G01 X19.6 Y89.62 F6000.0
G01 X20.31 Y89.06 F6000.0
G01 X20.14 Y88.94 F6000.0
G01 X19.91 Y88.63 F6000.0
G01 X19.45 Y88.23 F6000.0
G01 X19.14 Y88.54 F6000.0
G01 X18.8 Y89.03 F6000.0
G01 X18.58 Y89.4 F6000.0
G01 X18.59 Y89.39 F6000.0
G01 X19.3 Y88.67 F6000.0
G01 X19.59 Y88.32 F6000.0
G01 X19.63 Y88.85 F6000.0
G01 X19.07 Y89.54 F6000.0
G01 X18.94 Y89.74 F6000.0
G01 X19.08 Y89.77 F6000.0
G01 X20.2 Y90.0 F6000.0
G01 X20.45 Y89.88 F6000.0
G01 X20.24 Y90.08 F6000.0
G01 X20.22 Y90.31 F6000.0
G01 X20.41 Y90.39 F6000.0
G01 X20.23 Y90.73 F6000.0
G01 X19.94 Y90.5 F6000.0
G01 X19.75 Y90.17 F6000.0
G01 X19.6 Y90.24 F6000.0
G01 X19.81 Y90.68 F6000.0
G01 X20.0 Y91.09 F6000.0
G01 X20.73 Y90.54 F6000.0
G01 X20.76 Y89.71 F6000.0
G01 X20.94 Y88.88 F6000.0
G01 X21.28 Y89.19 F6000.0
G01 X21.52 Y89.5 F6000.0
G01 X22.38 Y90.59 F6000.0
G01 X22.89 Y90.4 F6000.0
G01 X23.19 Y90.07 F6000.0
G01 X22.77 Y90.09 F6000.0
G01 X22.48 Y89.52 F6000.0
G01 X22.55 Y89.31 F6000.0
G01 X22.76 Y89.71 F6000.0
G01 X23.19 Y89.19 F6000.0
G01 X23.27 Y89.14 F6000.0
G01 X23.39 Y89.06 F6000.0
G01 X23.54 Y88.8 F6000.0
G01 X23.52 Y88.88 F6000.0
G01 X23.28 Y89.85 F6000.0
G01 X23.02 Y90.9 F6000.0
G01 X22.16 Y91.09 F6000.0
G01 X21.64 Y91.25 F6000.0
G01 X21.66 Y91.72 F6000.0
G01 X21.59 Y92.17 F6000.0
G01 X21.55 Y92.19 F6000.0
G01 X21.49 Y92.03 F6000.0
G01 X20.96 Y92.17 F6000.0
G01 X20.38 Y92.15 F6000.0
G01 X20.14 Y92.06 F6000.0
G01 X19.72 Y91.86 F6000.0
G01 X19.7 Y91.74 F6000.0
G01 X19.46 Y90.64 F6000.0
G01 X19.38 Y90.71 F6000.0
G01 Y90.72 F6000.0
G01 X19.52 Y91.72 F6000.0
G01 X19.76 Y92.56 F6000.0
G01 X19.93 Y92.55 F6000.0
G01 X20.26 Y92.4 F6000.0
G01 X20.11 Y92.66 F6000.0
G01 X19.87 Y93.17 F6000.0
G01 X20.04 Y93.42 F6000.0
G01 X20.13 Y93.54 F6000.0
G01 X20.05 F6000.0
G01 X18.97 Y93.61 F6000.0
G01 X18.36 Y93.23 F6000.0
G01 X18.2 Y93.2 F6000.0
G01 X17.07 Y92.96 F6000.0
G01 X16.64 Y93.11 F6000.0
G01 X15.27 Y93.62 F6000.0
G01 X15.19 Y93.97 F6000.0
G01 X14.96 Y94.95 F6000.0
G01 X14.64 Y96.28 F6000.0
G01 Y96.55 F6000.0
G01 X14.61 Y97.82 F6000.0
G01 X14.96 Y97.85 F6000.0
G01 X15.3 Y97.79 F6000.0
G01 X15.13 Y97.69 F6000.0
G01 X14.94 Y97.36 F6000.0
G01 X15.21 Y97.46 F6000.0
G01 X15.82 Y97.31 F6000.0
G01 X16.44 Y96.79 F6000.0
G01 X16.71 Y96.63 F6000.0
G01 X16.65 Y97.41 F6000.0
G01 X16.63 Y97.69 F6000.0
G01 X16.87 Y97.36 F6000.0
G01 X17.17 Y96.92 F6000.0
G01 X17.34 Y96.65 F6000.0
G01 X17.43 Y96.48 F6000.0
G01 Y96.49 F6000.0
G01 X17.56 Y97.49 F6000.0
G01 X17.84 Y97.69 F6000.0
G01 X18.39 Y96.9 F6000.0
G01 X18.65 Y96.53 F6000.0
G01 X19.01 Y97.28 F6000.0
G01 X19.58 Y97.97 F6000.0
G01 X20.46 Y97.7 F6000.0
G01 X20.63 Y97.94 F6000.0
G01 X20.9 Y98.37 F6000.0
G01 X21.19 Y98.31 F6000.0
G01 X21.25 Y98.27 F6000.0
G01 X22.08 Y97.59 F6000.0
G01 X21.86 Y98.2 F6000.0
G01 X21.73 Y98.8 F6000.0
G01 X21.77 Y98.73 F6000.0
G01 X22.23 Y97.84 F6000.0
G01 X22.73 Y96.89 F6000.0
G01 X22.61 Y96.42 F6000.0
G01 X22.62 Y96.0 F6000.0
G01 X22.79 F6000.0
G01 X23.08 Y96.33 F6000.0
G01 X23.48 Y96.69 F6000.0
G01 X24.0 F6000.0
G01 X24.32 Y96.22 F6000.0
G01 X24.51 Y95.74 F6000.0
G01 X24.09 Y96.13 F6000.0
G01 X23.88 Y96.3 F6000.0
G01 Y96.16 F6000.0
G01 Y95.02 F6000.0
G01 X23.47 Y95.04 F6000.0
G01 X23.23 Y95.07 F6000.0
G01 X24.02 Y94.65 F6000.0
G01 X24.5 Y94.81 F6000.0
G01 X24.79 Y94.56 F6000.0
G01 X24.83 Y94.3 F6000.0
G01 X24.84 Y94.56 F6000.0
G01 X24.85 F6000.0
G01 X25.86 Y94.51 F6000.0
G01 X26.16 Y93.89 F6000.0
G01 X26.14 Y93.86 F6000.0
G01 X25.46 Y93.09 F6000.0
G01 X25.24 Y92.67 F6000.0
G01 X25.39 Y92.31 F6000.0
G01 X25.61 Y91.84 F6000.0
G01 X25.65 Y91.93 F6000.0
G01 X25.82 Y92.09 F6000.0
G01 X26.71 Y92.96 F6000.0
G01 X27.07 Y92.66 F6000.0
G01 X27.28 Y92.52 F6000.0
G01 X27.32 Y92.77 F6000.0
G01 X27.49 Y92.72 F6000.0
G01 X28.62 Y92.39 F6000.0
G01 X28.94 Y91.69 F6000.0
G01 X29.16 Y91.22 F6000.0
G01 X29.24 Y91.76 F6000.0
G01 X29.13 Y91.97 F6000.0
G01 X28.57 Y93.07 F6000.0
G01 X27.79 Y93.44 F6000.0
G01 X27.41 Y94.02 F6000.0
G01 X27.58 Y93.95 F6000.0
G01 X27.74 Y93.51 F6000.0
G01 X27.83 Y93.69 F6000.0
G01 X27.9 Y93.9 F6000.0
G01 X28.33 Y95.05 F6000.0
G01 X28.8 Y95.04 F6000.0
G01 X29.03 Y94.8 F6000.0
G01 X29.94 Y93.83 F6000.0
G01 X30.0 Y94.07 F6000.0
G01 X29.93 Y94.21 F6000.0
G01 X29.39 Y95.23 F6000.0
G01 X29.35 Y95.31 F6000.0
G01 X28.85 Y96.27 F6000.0
G01 X29.24 Y96.4 F6000.0
G01 X30.19 Y96.64 F6000.0
G01 X30.25 Y96.84 F6000.0
G01 Y96.91 F6000.0
G01 X30.21 Y97.97 F6000.0
G01 X30.58 Y97.91 F6000.0
G01 X30.8 Y97.56 F6000.0
G01 X31.55 Y96.37 F6000.0
G01 X31.58 Y96.29 F6000.0
G01 X32.03 Y95.31 F6000.0
G01 Y95.37 F6000.0
G01 X31.91 Y96.44 F6000.0
G01 X31.8 Y96.65 F6000.0
G01 X31.34 Y97.54 F6000.0
G01 X30.77 Y98.64 F6000.0
G01 X30.84 Y98.95 F6000.0
G01 X31.05 Y98.9 F6000.0
G01 X32.03 Y98.69 F6000.0
G01 X33.22 Y98.42 F6000.0
G01 X33.16 Y98.76 F6000.0
G01 X32.95 Y98.85 F6000.0
G01 X32.02 Y99.22 F6000.0
G01 X30.89 Y99.67 F6000.0
G01 X30.81 Y99.7 F6000.0
G01 X29.78 Y100.02 F6000.0
G01 X28.96 F6000.0
G01 X28.91 Y100.0 F6000.0
G01 X27.92 Y99.64 F6000.0
G01 X27.74 Y99.6 F6000.0
G01 X26.58 Y99.34 F6000.0
G01 X26.34 Y99.86 F6000.0
G01 X26.1 Y100.46 F6000.0
G01 X26.02 Y99.97 F6000.0
G01 X26.16 Y99.75 F6000.0
G01 X26.3 Y99.38 F6000.0
G01 X26.37 Y99.17 F6000.0
G01 X26.18 Y99.36 F6000.0
G01 X25.88 Y99.4 F6000.0
G01 X25.97 Y99.27 F6000.0
G01 X26.06 Y99.17 F6000.0
G01 X25.83 Y99.08 F6000.0
G01 X25.6 Y99.36 F6000.0
G01 X25.69 Y99.64 F6000.0
G01 X25.56 Y99.88 F6000.0
G01 X25.19 Y100.31 F6000.0
G01 X25.59 Y100.4 F6000.0
G01 X25.8 Y100.5 F6000.0
G01 X25.53 Y100.66 F6000.0
G01 X25.63 Y100.91 F6000.0
G01 X25.69 Y101.28 F6000.0
G01 X25.32 Y101.27 F6000.0
G01 X25.19 Y101.03 F6000.0
G01 X24.99 Y101.5 F6000.0
G01 X25.41 Y101.71 F6000.0
G01 X26.0 Y101.12 F6000.0
G01 X26.04 Y100.59 F6000.0
G01 X26.17 Y100.77 F6000.0
G01 X26.22 Y100.83 F6000.0
G01 X26.62 Y100.48 F6000.0
G01 X26.99 Y100.45 F6000.0
G01 X26.71 Y101.06 F6000.0
G01 X26.54 Y101.62 F6000.0
G01 X27.25 Y101.8 F6000.0
G01 X28.18 Y101.91 F6000.0
G01 X28.9 Y101.55 F6000.0
G01 X29.28 Y101.24 F6000.0
G01 X29.21 Y101.65 F6000.0
G01 X28.76 Y102.13 F6000.0
G01 X28.42 Y102.16 F6000.0
G01 X27.09 Y102.3 F6000.0
G01 X26.84 Y102.35 F6000.0
G01 X25.6 Y102.61 F6000.0
G01 X25.72 Y102.64 F6000.0
G01 X26.79 Y102.97 F6000.0
G01 X27.55 Y103.14 F6000.0
G01 X27.07 Y103.26 F6000.0
G01 X25.62 Y103.59 F6000.0
G01 X25.59 F6000.0
G01 X24.64 Y103.27 F6000.0
G01 X23.66 Y102.94 F6000.0
G01 X23.36 Y102.4 F6000.0
G01 X23.21 Y102.0 F6000.0
G01 X22.67 Y101.98 F6000.0
G01 X22.57 Y102.01 F6000.0
G01 X21.53 Y102.34 F6000.0
G01 X21.45 Y102.54 F6000.0
G01 X21.0 Y103.67 F6000.0
G01 X21.15 Y104.3 F6000.0
G01 X21.41 Y104.55 F6000.0
G01 X21.44 Y103.9 F6000.0
G01 X21.41 Y103.25 F6000.0
G01 X22.01 F6000.0
G01 X22.67 Y103.46 F6000.0
G01 X22.65 Y103.53 F6000.0
G01 X22.46 Y104.57 F6000.0
G01 X21.76 Y104.88 F6000.0
G01 X21.33 Y105.08 F6000.0
G01 X21.75 Y105.84 F6000.0
G01 X22.49 Y106.41 F6000.0
G01 X23.06 Y105.92 F6000.0
G01 X23.1 Y105.9 F6000.0
G01 X23.95 Y105.3 F6000.0
G01 X24.58 Y106.02 F6000.0
G01 X24.25 Y106.68 F6000.0
G01 X24.23 F6000.0
G01 X23.25 Y106.97 F6000.0
G01 X22.43 Y106.87 F6000.0
G01 X21.6 Y106.58 F6000.0
G01 X21.33 Y106.3 F6000.0
G01 Y106.54 F6000.0
G01 X21.19 Y106.78 F6000.0
G01 X20.68 Y106.18 F6000.0
G01 X20.15 Y105.94 F6000.0
G01 X20.14 Y105.95 F6000.0
G01 X19.15 Y106.18 F6000.0
G01 X18.94 Y106.32 F6000.0
G01 X18.12 Y106.88 F6000.0
G01 X17.08 Y107.59 F6000.0
G01 X16.93 Y107.73 F6000.0
G01 X16.05 Y108.55 F6000.0
G01 X15.9 Y108.72 F6000.0
G01 X15.24 Y109.47 F6000.0
G01 X14.57 Y110.21 F6000.0
G01 X13.76 Y111.12 F6000.0
G01 X13.72 Y111.21 F6000.0
G01 X13.32 Y112.12 F6000.0
G01 X12.91 Y113.03 F6000.0
G01 X12.47 Y114.03 F6000.0
G01 X12.84 Y114.66 F6000.0
G01 X13.13 Y114.77 F6000.0
G01 X13.1 Y114.9 F6000.0
G01 X13.17 Y115.09 F6000.0
G01 X13.82 Y114.97 F6000.0
G01 X13.69 Y114.99 F6000.0
G01 X13.4 Y114.7 F6000.0
G01 X13.74 Y113.97 F6000.0
G01 X13.77 Y114.16 F6000.0
G01 X13.81 Y114.48 F6000.0
G01 X13.91 Y114.58 F6000.0
G01 X13.94 Y114.36 F6000.0
G01 X13.9 Y113.85 F6000.0
G01 X13.82 Y113.37 F6000.0
G01 X13.93 Y113.01 F6000.0
G01 X14.16 Y112.75 F6000.0
G01 X14.05 Y113.03 F6000.0
G01 X13.99 Y113.27 F6000.0
G01 X14.12 Y113.2 F6000.0
G01 X14.11 Y113.27 F6000.0
G01 Y113.29 F6000.0
G01 X14.07 Y114.31 F6000.0
G01 X14.12 Y114.16 F6000.0
G01 X14.18 Y113.92 F6000.0
G01 X14.28 Y114.27 F6000.0
G01 X14.42 Y114.43 F6000.0
G01 X14.56 Y114.46 F6000.0
G01 X14.66 Y114.61 F6000.0
G01 X14.72 Y114.24 F6000.0
G01 X14.8 Y113.99 F6000.0
G01 X14.89 Y114.19 F6000.0
G01 X14.93 Y114.48 F6000.0
G01 X15.02 Y114.41 F6000.0
G01 X15.25 Y114.11 F6000.0
G01 X15.62 Y113.54 F6000.0
G01 X15.77 Y112.98 F6000.0
G01 X15.86 Y112.67 F6000.0
G01 X16.09 Y112.53 F6000.0
G01 X16.05 Y113.02 F6000.0
G01 X15.9 Y114.5 F6000.0
G01 X15.94 Y114.66 F6000.0
G01 X16.15 Y114.34 F6000.0
G01 X16.34 Y114.21 F6000.0
G01 X16.36 Y114.65 F6000.0
G01 X16.42 Y114.78 F6000.0
G01 X16.78 Y114.66 F6000.0
G01 X17.04 Y114.36 F6000.0
G01 X17.93 Y113.28 F6000.0
G01 X18.09 Y112.95 F6000.0
G01 X18.25 Y113.47 F6000.0
G01 X18.17 Y113.72 F6000.0
G01 X17.75 Y114.92 F6000.0
G01 X17.51 Y115.22 F6000.0
G01 X17.82 F6000.0
G01 X18.36 Y115.36 F6000.0
G01 X18.4 Y115.5 F6000.0
G01 X17.91 Y115.4 F6000.0
G01 X17.57 Y115.33 F6000.0
G01 X17.64 Y115.72 F6000.0
G01 Y116.25 F6000.0
G01 X17.72 Y116.61 F6000.0
G01 X18.13 Y116.14 F6000.0
G01 X18.25 Y116.11 F6000.0
G01 X18.67 Y115.27 F6000.0
G01 X18.85 Y114.44 F6000.0
G01 X19.1 Y114.73 F6000.0
G01 X19.11 Y114.94 F6000.0
G01 X19.17 Y116.15 F6000.0
G01 X19.5 Y115.88 F6000.0
G01 X20.59 Y114.97 F6000.0
G01 Y114.83 F6000.0
G01 X20.64 Y113.69 F6000.0
G01 X20.63 Y113.46 F6000.0
G01 X20.86 Y113.51 F6000.0
G01 X21.24 Y114.22 F6000.0
G01 X21.1 Y115.07 F6000.0
G01 X21.06 Y115.69 F6000.0
G01 X21.43 Y115.4 F6000.0
G01 X21.7 Y115.25 F6000.0
G01 X21.99 Y115.45 F6000.0
G01 X22.4 Y115.35 F6000.0
G01 X22.54 Y115.34 F6000.0
G01 X22.45 Y115.5 F6000.0
G01 X22.38 Y116.22 F6000.0
G01 X22.32 Y117.09 F6000.0
G01 X22.46 Y117.31 F6000.0
G01 X23.2 Y117.66 F6000.0
G01 X23.66 Y117.59 F6000.0
G01 X23.68 F6000.0
G01 X24.7 Y117.51 F6000.0
G01 X24.46 Y117.73 F6000.0
G01 X24.14 Y118.27 F6000.0
G01 X24.76 Y118.72 F6000.0
G01 X25.08 Y118.8 F6000.0
G01 X24.75 Y119.0 F6000.0
G01 X24.3 Y119.53 F6000.0
G01 X24.09 Y119.8 F6000.0
G01 X24.07 Y119.91 F6000.0
G01 X24.19 Y120.3 F6000.0
G01 X24.55 Y120.37 F6000.0
G01 X25.01 Y120.23 F6000.0
G01 X25.63 Y120.0 F6000.0
G01 X25.91 Y120.1 F6000.0
G01 X25.92 Y120.49 F6000.0
G01 X26.02 Y120.42 F6000.0
G01 X26.65 Y119.78 F6000.0
G01 X27.31 Y119.29 F6000.0
G01 X27.04 Y118.61 F6000.0
G01 X26.71 Y118.04 F6000.0
G01 X26.29 Y118.27 F6000.0
G01 X26.23 Y118.31 F6000.0
G01 X25.3 Y118.85 F6000.0
G01 X25.24 Y118.72 F6000.0
G01 X25.66 Y118.39 F6000.0
G01 X26.16 Y118.1 F6000.0
G01 X26.45 Y117.95 F6000.0
G01 X26.85 F6000.0
G01 X27.2 Y118.1 F6000.0
G01 X27.69 Y118.37 F6000.0
G01 X28.25 Y118.69 F6000.0
G01 X27.99 Y118.71 F6000.0
G01 X27.56 Y118.68 F6000.0
G01 X27.69 Y118.94 F6000.0
G01 X28.47 Y119.26 F6000.0
G01 X28.9 Y118.76 F6000.0
G01 X28.64 Y118.63 F6000.0
G01 X28.82 Y118.28 F6000.0
G01 X28.89 Y118.11 F6000.0
G01 X29.31 Y117.0 F6000.0
G01 X29.04 Y116.55 F6000.0
G01 X29.27 Y116.49 F6000.0
G01 X29.91 Y116.89 F6000.0
G01 X30.05 Y117.17 F6000.0
G01 X30.09 Y117.11 F6000.0
G01 X30.7 Y116.23 F6000.0
G01 X30.33 Y115.41 F6000.0
G01 X30.24 Y115.32 F6000.0
G01 X30.73 Y115.49 F6000.0
G01 X30.75 Y115.55 F6000.0
G01 X30.98 Y116.59 F6000.0
G01 X31.01 Y116.89 F6000.0
G01 X30.58 Y117.43 F6000.0
G01 X30.04 Y117.98 F6000.0
G01 X30.39 Y118.36 F6000.0
G01 X30.96 Y118.73 F6000.0
G01 X31.64 Y118.32 F6000.0
G01 X32.15 Y117.94 F6000.0
G01 X32.1 Y118.35 F6000.0
G01 X31.49 Y118.97 F6000.0
G01 X30.97 Y119.23 F6000.0
G01 X30.44 Y119.02 F6000.0
G01 X29.8 Y118.73 F6000.0
G01 X29.61 Y118.81 F6000.0
G01 X30.02 Y119.35 F6000.0
G01 X30.52 Y119.84 F6000.0
G01 X30.44 Y119.92 F6000.0
G01 X30.14 Y119.83 F6000.0
G01 X29.58 Y119.72 F6000.0
G01 X29.08 Y120.11 F6000.0
G01 X29.23 Y120.12 F6000.0
G01 X29.68 Y120.08 F6000.0
G01 X30.47 Y120.51 F6000.0
G01 X30.66 Y120.32 F6000.0
G01 X30.8 Y120.14 F6000.0
G01 X30.92 Y119.98 F6000.0
G01 X30.97 Y120.07 F6000.0
G01 X31.35 Y120.39 F6000.0
G01 X31.82 Y119.82 F6000.0
G01 X32.02 Y119.23 F6000.0
G01 X32.09 Y119.7 F6000.0
G01 X31.79 Y120.62 F6000.0
G01 X31.2 Y121.03 F6000.0
G01 X31.17 Y121.08 F6000.0
G01 X30.67 Y121.95 F6000.0
G01 X30.14 Y122.87 F6000.0
G01 X30.46 Y122.24 F6000.0
G01 X30.7 Y122.36 F6000.0
G01 X30.8 Y122.6 F6000.0
G01 X30.61 Y123.22 F6000.0
G01 X30.33 Y123.5 F6000.0
G01 X30.86 Y123.26 F6000.0
G01 X31.2 Y122.95 F6000.0
G01 X30.98 Y122.36 F6000.0
G01 X30.88 Y121.51 F6000.0
G01 X31.17 Y121.34 F6000.0
G01 X31.47 Y121.44 F6000.0
G01 X32.19 Y121.64 F6000.0
G01 X31.88 Y121.67 F6000.0
G01 X31.36 Y122.21 F6000.0
G01 X32.08 Y122.13 F6000.0
G01 X32.21 Y121.83 F6000.0
G01 X32.74 Y120.61 F6000.0
G01 Y120.38 F6000.0
G01 X32.95 Y120.58 F6000.0
G01 X33.04 Y121.32 F6000.0
G01 X32.87 Y122.09 F6000.0
G01 X32.95 Y122.2 F6000.0
G01 X33.15 Y122.23 F6000.0
G01 X33.21 Y122.61 F6000.0
G01 X33.64 Y122.27 F6000.0
G01 X33.97 Y121.82 F6000.0
G01 X34.01 Y122.19 F6000.0
G01 X34.08 Y122.46 F6000.0
G01 X34.17 Y122.28 F6000.0
G01 X34.69 Y121.19 F6000.0
G01 X34.41 Y121.3 F6000.0
G01 X34.09 Y121.51 F6000.0
G01 X34.77 Y120.88 F6000.0
G01 X34.73 Y121.78 F6000.0
G01 X35.06 Y121.67 F6000.0
G01 X35.34 Y121.25 F6000.0
G01 X35.15 Y121.86 F6000.0
G01 X35.32 Y122.63 F6000.0
G01 X35.76 Y121.82 F6000.0
G01 X35.86 Y121.47 F6000.0
G01 X35.98 Y122.21 F6000.0
G01 X36.09 Y122.35 F6000.0
G01 X36.28 Y122.08 F6000.0
G01 X36.15 Y121.62 F6000.0
G01 X35.44 Y121.05 F6000.0
G01 X34.76 Y120.72 F6000.0
G01 X34.43 Y120.55 F6000.0
G01 X33.91 Y120.52 F6000.0
G01 X34.32 Y120.27 F6000.0
G01 X35.19 Y120.31 F6000.0
G01 X36.12 Y120.5 F6000.0
G01 X36.41 Y119.77 F6000.0
G01 X36.27 Y119.43 F6000.0
G01 X36.17 Y119.05 F6000.0
G01 X35.8 Y118.84 F6000.0
G01 X35.24 Y118.51 F6000.0
G01 X34.81 Y118.05 F6000.0
G01 X35.17 Y118.09 F6000.0
G01 X36.02 Y118.13 F6000.0
G01 X36.5 Y117.33 F6000.0
G01 X36.62 Y116.93 F6000.0
G01 X36.11 Y116.66 F6000.0
G01 X36.0 Y116.54 F6000.0
G01 X35.17 Y115.73 F6000.0
G01 X35.95 Y116.06 F6000.0
G01 X36.83 Y116.42 F6000.0
G01 X36.89 Y116.35 F6000.0
G01 X37.61 Y115.53 F6000.0
G01 X37.54 Y114.83 F6000.0
G01 X37.46 Y114.78 F6000.0
G01 X36.53 Y114.22 F6000.0
G01 X35.64 Y114.01 F6000.0
G01 X35.63 Y113.56 F6000.0
G01 X35.91 Y113.45 F6000.0
G01 X36.09 Y113.5 F6000.0
G01 X37.23 Y113.84 F6000.0
G01 X37.84 Y113.34 F6000.0
G01 X38.09 Y113.65 F6000.0
G01 X38.28 Y114.1 F6000.0
G01 X38.72 Y113.84 F6000.0
G01 X38.92 Y113.12 F6000.0
G01 X38.9 Y113.07 F6000.0
G01 X38.45 Y112.12 F6000.0
G01 X38.41 Y112.13 F6000.0
G01 X37.38 Y112.16 F6000.0
G01 X37.28 Y111.69 F6000.0
G01 X37.64 Y111.72 F6000.0
G01 X38.99 Y111.8 F6000.0
G01 X39.21 Y112.2 F6000.0
G01 X39.7 Y112.4 F6000.0
G01 X40.09 Y112.48 F6000.0
G01 X40.13 Y112.9 F6000.0
G01 X40.69 Y112.74 F6000.0
G01 X41.09 Y112.16 F6000.0
G01 X41.0 Y111.7 F6000.0
G01 X40.97 Y112.01 F6000.0
G01 X40.93 Y112.41 F6000.0
G01 X40.79 Y112.46 F6000.0
G01 X40.63 Y112.47 F6000.0
G01 X40.73 Y112.21 F6000.0
G01 X40.63 Y111.7 F6000.0
G01 X40.8 Y111.33 F6000.0
G01 X40.65 Y111.15 F6000.0
G01 X40.15 Y110.86 F6000.0
G01 X40.14 Y110.7 F6000.0
G01 X40.23 Y110.54 F6000.0
G01 X40.79 Y109.51 F6000.0
G01 X40.58 Y109.6 F6000.0
G01 X40.44 F6000.0
G01 X39.29 F6000.0
G01 X39.24 Y109.01 F6000.0
G01 X39.33 Y109.17 F6000.0
G01 X39.79 Y109.56 F6000.0
G01 X40.22 Y108.89 F6000.0
G01 X40.25 Y108.31 F6000.0
G01 X40.35 Y108.59 F6000.0
G01 X40.45 Y109.12 F6000.0
G01 X40.84 Y108.96 F6000.0
G01 X40.88 Y108.94 F6000.0
G01 X41.76 Y108.45 F6000.0
G01 X42.67 Y107.94 F6000.0
G01 X42.84 Y107.79 F6000.0
G01 X42.56 Y107.65 F6000.0
G01 X42.35 Y107.55 F6000.0
G01 X40.56 Y106.65 F6000.0
G01 X39.46 Y106.1 F6000.0
G01 X39.22 Y105.84 F6000.0
G01 X38.55 Y105.1 F6000.0
G01 X37.88 Y104.35 F6000.0
G01 X36.98 Y103.35 F6000.0
G01 X36.88 Y103.02 F6000.0
G01 X36.6 Y102.06 F6000.0
G01 X36.31 Y101.1 F6000.0
G01 X36.03 Y100.14 F6000.0
G01 X35.65 Y98.85 F6000.0
G01 X35.64 Y98.56 F6000.0
G01 X35.59 Y97.56 F6000.0
G01 X35.54 Y96.56 F6000.0
G01 X35.48 Y95.28 F6000.0
G01 X35.53 Y94.8 F6000.0
G01 X35.62 Y93.8 F6000.0
G01 X35.72 Y92.8 F6000.0
G01 X35.91 Y90.81 F6000.0
G01 X36.05 Y89.34 F6000.0
G01 X36.06 Y89.31 F6000.0
G01 X36.68 Y87.41 F6000.0
G01 X36.99 Y86.46 F6000.0
G01 X37.3 Y85.51 F6000.0
G01 X37.61 Y84.53 F6000.0
G01 X37.67 Y84.42 F6000.0
G01 X38.14 Y83.53 F6000.0
G01 X38.6 Y82.65 F6000.0
G01 X39.07 Y81.76 F6000.0
G01 X39.53 Y80.88 F6000.0
G01 X40.06 Y79.88 F6000.0
G01 X40.72 Y79.19 F6000.0
G01 X40.86 Y79.13 F6000.0
G01 X40.96 Y78.8 F6000.0
G01 Y78.58 F6000.0
G01 X41.32 Y78.96 F6000.0
G01 X41.44 Y79.04 F6000.0
G01 X41.47 Y79.13 F6000.0
G01 X41.2 Y79.16 F6000.0
G01 X41.18 Y79.21 F6000.0
G01 X41.43 Y79.25 F6000.0
G01 X41.5 Y79.38 F6000.0
G01 X41.53 Y79.43 F6000.0
G01 X41.8 Y79.37 F6000.0
G01 Y79.3 F6000.0
G01 X41.9 Y78.95 F6000.0
G01 X41.92 Y78.8 F6000.0
G01 X41.94 Y78.69 F6000.0
G01 X42.14 Y78.81 F6000.0
G01 X42.21 Y78.75 F6000.0
G01 X42.6 Y78.48 F6000.0
G01 X42.48 Y78.63 F6000.0
G01 X42.33 Y78.66 F6000.0
G01 X42.44 Y78.8 F6000.0
G01 X42.55 Y79.01 F6000.0
G01 X42.39 Y78.94 F6000.0
G01 X42.3 Y78.91 F6000.0
G01 X42.69 Y79.41 F6000.0
G01 X42.72 Y79.1 F6000.0
G01 X43.1 Y78.42 F6000.0
G01 X43.02 Y78.59 F6000.0
G01 X43.1 Y79.04 F6000.0
G01 X43.19 Y79.16 F6000.0
G01 X43.2 Y79.21 F6000.0
G01 X43.4 Y79.2 F6000.0
G01 Y79.11 F6000.0
G01 X43.14 Y78.95 F6000.0
G01 X43.04 Y78.86 F6000.0
G01 X43.38 Y78.92 F6000.0
G01 X43.71 Y78.91 F6000.0
G01 X43.95 Y78.87 F6000.0
G01 X44.02 F6000.0
G01 X44.17 Y78.77 F6000.0
G01 X44.59 Y78.69 F6000.0
G01 X44.88 Y78.81 F6000.0
G01 X44.91 Y79.04 F6000.0
G01 X44.99 Y78.9 F6000.0
G01 X45.08 Y78.81 F6000.0
G01 X45.06 Y79.14 F6000.0
G01 X44.77 Y79.27 F6000.0
G01 X44.85 Y79.5 F6000.0
G01 X45.17 Y79.54 F6000.0
G01 X45.11 Y79.44 F6000.0
G01 X45.23 Y79.2 F6000.0
G01 X45.52 Y79.28 F6000.0
G01 X46.01 Y79.32 F6000.0
G01 X45.91 Y79.15 F6000.0
G01 X45.55 Y78.91 F6000.0
G01 X45.62 Y78.7 F6000.0
G01 X45.83 Y78.52 F6000.0
G01 X45.92 Y78.39 F6000.0
G01 X45.97 Y78.3 F6000.0
G01 X46.23 Y78.2 F6000.0
G01 X46.2 Y78.4 F6000.0
G01 X46.17 Y78.55 F6000.0
G01 X46.29 Y78.77 F6000.0
G01 X46.39 Y78.95 F6000.0
G01 X46.43 Y78.86 F6000.0
G01 X46.64 Y78.87 F6000.0
G01 X47.0 Y79.0 F6000.0
G01 X47.32 Y79.15 F6000.0
G01 X47.4 Y79.11 F6000.0
G01 X47.91 Y79.01 F6000.0
G01 X47.94 Y79.14 F6000.0
G01 X47.92 Y79.22 F6000.0
G01 X48.15 Y79.09 F6000.0
G01 X48.64 Y79.02 F6000.0
G01 X49.4 Y78.94 F6000.0
G01 X49.54 Y78.97 F6000.0
G01 X49.7 Y79.17 F6000.0
G01 X49.75 Y79.12 F6000.0
G01 X49.79 Y78.9 F6000.0
G01 X49.86 Y78.61 F6000.0
G01 X50.21 Y78.47 F6000.0
G01 X50.37 Y78.49 F6000.0
G01 X50.46 Y78.44 F6000.0
G01 X50.39 Y78.17 F6000.0
G01 X50.56 Y78.19 F6000.0
G01 X50.87 Y78.53 F6000.0
G01 X50.95 Y78.67 F6000.0
G01 X50.98 Y78.44 F6000.0
G01 X51.15 Y78.35 F6000.0
G01 X51.16 F6000.0
G01 X52.17 Y78.42 F6000.0
G01 Y78.2 F6000.0
G01 X52.49 Y78.22 F6000.0
G01 X52.6 Y78.23 F6000.0
G01 X52.49 Y78.09 F6000.0
G01 Y77.88 F6000.0
G01 X52.6 F6000.0
G01 X52.73 Y77.9 F6000.0
G01 X52.97 Y77.87 F6000.0
G01 X53.12 Y78.06 F6000.0
G01 X53.16 Y77.98 F6000.0
G01 X53.24 Y77.75 F6000.0
G01 X53.86 Y77.83 F6000.0
G01 X54.11 Y77.89 F6000.0
G01 X54.38 Y78.02 F6000.0
G01 X54.5 Y77.98 F6000.0
G01 X54.64 Y77.96 F6000.0
G01 X54.74 Y78.11 F6000.0
G01 X54.7 Y77.88 F6000.0
G01 X54.75 Y77.54 F6000.0
G01 X54.96 Y77.51 F6000.0
G01 X54.74 Y77.31 F6000.0
G01 X54.67 Y77.13 F6000.0
G01 X54.88 Y77.21 F6000.0
G01 X55.12 Y77.28 F6000.0
G01 X55.29 Y77.37 F6000.0
G01 X55.13 Y77.46 F6000.0
G01 X55.2 Y77.65 F6000.0
G01 X55.3 Y77.83 F6000.0
G01 X55.24 Y77.93 F6000.0
G01 X55.44 Y77.92 F6000.0
G01 X55.48 Y77.71 F6000.0
G01 X55.38 Y77.54 F6000.0
G01 X55.73 Y77.62 F6000.0
G01 X55.81 F6000.0
G01 X55.69 Y77.31 F6000.0
G01 X55.74 Y77.22 F6000.0
G01 X55.85 Y77.07 F6000.0
G01 X55.92 Y76.98 F6000.0
G01 X56.09 Y77.09 F6000.0
G01 X56.22 Y77.23 F6000.0
G01 X56.2 Y77.37 F6000.0
G01 X56.39 Y77.21 F6000.0
G01 X56.49 Y77.11 F6000.0
G01 X56.73 Y77.09 F6000.0
G01 X56.91 F6000.0
G01 X57.35 Y77.31 F6000.0
G01 X57.52 Y77.14 F6000.0
G01 X57.42 Y77.2 F6000.0
G01 X57.34 F6000.0
G01 X57.15 Y77.13 F6000.0
G01 X57.05 Y77.11 F6000.0
G01 X57.52 Y77.0 F6000.0
G01 X57.7 Y77.17 F6000.0
G01 X57.93 Y77.34 F6000.0
G01 X58.12 Y77.37 F6000.0
G01 X58.48 Y77.24 F6000.0
G01 X58.67 Y77.19 F6000.0
G01 X58.59 Y77.15 F6000.0
G01 X58.44 Y77.01 F6000.0
G01 X58.34 Y76.81 F6000.0
G01 X58.29 Y76.95 F6000.0
G01 X58.21 Y77.09 F6000.0
G01 X58.07 Y77.2 F6000.0
G01 X57.93 Y77.19 F6000.0
G01 X57.85 Y76.98 F6000.0
G01 X57.98 Y77.01 F6000.0
G01 X58.17 Y76.88 F6000.0
G01 X58.37 Y76.69 F6000.0
G01 X58.56 Y76.65 F6000.0
G01 X58.81 Y76.58 F6000.0
G01 X59.1 Y76.52 F6000.0
G01 X59.37 Y76.58 F6000.0
G01 X59.61 Y76.66 F6000.0
G01 X59.69 Y76.76 F6000.0
G01 X59.73 Y76.91 F6000.0
G01 X59.83 Y76.81 F6000.0
G01 X60.39 Y76.86 F6000.0
G01 X60.48 Y76.82 F6000.0
G01 X60.32 Y76.64 F6000.0
G01 X60.27 Y76.54 F6000.0
G01 X60.67 Y76.91 F6000.0
G01 X60.77 Y77.0 F6000.0
G01 X60.82 Y76.79 F6000.0
G01 X60.71 Y76.35 F6000.0
G01 X60.77 Y76.3 F6000.0
G01 X60.91 Y76.58 F6000.0
G01 X60.93 Y76.79 F6000.0
G01 X61.13 Y76.78 F6000.0
G01 X61.47 Y76.68 F6000.0
G01 X61.75 Y76.58 F6000.0
G01 X61.97 F6000.0
G01 X61.85 Y76.73 F6000.0
G01 X61.78 Y76.79 F6000.0
G01 X62.11 Y77.08 F6000.0
G01 X62.29 Y77.11 F6000.0
G01 X62.11 Y76.96 F6000.0
G01 X62.09 Y76.82 F6000.0
G01 X62.19 Y76.7 F6000.0
G01 X62.27 Y76.65 F6000.0
G01 X62.38 Y76.59 F6000.0
G01 X62.5 Y76.42 F6000.0
G01 X62.63 Y76.61 F6000.0
G01 X62.71 Y76.8 F6000.0
G01 X62.88 Y76.63 F6000.0
G01 X62.82 Y76.57 F6000.0
G01 X62.77 Y76.5 F6000.0
G01 X62.95 Y76.31 F6000.0
G01 X63.03 Y76.14 F6000.0
G01 X63.08 F6000.0
G01 X63.11 Y76.37 F6000.0
G01 X63.01 Y76.72 F6000.0
G01 X63.09 Y76.79 F6000.0
G01 X63.27 Y76.68 F6000.0
G01 X63.3 Y76.57 F6000.0
G01 X63.34 Y76.47 F6000.0
G01 X63.48 F6000.0
G01 X63.49 Y76.5 F6000.0
G01 X63.78 Y76.74 F6000.0
G01 X63.79 Y76.78 F6000.0
G01 X63.81 Y76.95 F6000.0
G01 X63.96 Y76.62 F6000.0
G01 X64.0 Y76.53 F6000.0
G01 X64.1 Y76.43 F6000.0
G01 X63.98 Y76.38 F6000.0
G01 X63.86 Y76.26 F6000.0
G01 X64.07 Y76.24 F6000.0
G01 X64.4 Y76.83 F6000.0
G01 X64.53 Y76.84 F6000.0
G01 X64.64 Y76.87 F6000.0
G01 X64.81 Y76.95 F6000.0
G01 X65.03 Y76.88 F6000.0
G01 X64.86 Y76.81 F6000.0
G01 X64.51 Y76.56 F6000.0
G01 X64.35 Y76.31 F6000.0
G01 X64.61 Y76.47 F6000.0
G01 X64.86 Y76.64 F6000.0
G01 X64.8 Y76.43 F6000.0
G01 X64.84 Y76.37 F6000.0
G01 X65.07 Y76.3 F6000.0
G01 X65.13 Y76.12 F6000.0
G01 X65.17 Y76.25 F6000.0
G01 X65.32 Y76.58 F6000.0
G01 X65.41 Y76.62 F6000.0
G01 X65.44 Y76.81 F6000.0
G01 X65.53 Y76.97 F6000.0
G01 X65.54 Y76.92 F6000.0
G01 X65.64 Y76.85 F6000.0
G01 X65.92 Y76.69 F6000.0
G01 X65.61 F6000.0
G01 X65.56 Y76.62 F6000.0
G01 X65.65 Y76.43 F6000.0
G01 X65.7 Y76.3 F6000.0
G01 X65.77 Y76.33 F6000.0
G01 X65.86 Y76.44 F6000.0
G01 X65.96 Y76.3 F6000.0
G01 X66.24 Y76.31 F6000.0
G01 X66.25 Y76.56 F6000.0
G01 X66.14 Y76.44 F6000.0
G01 X66.05 Y76.35 F6000.0
G01 X66.19 Y76.71 F6000.0
G01 X66.38 Y76.72 F6000.0
G01 X66.69 Y76.42 F6000.0
G01 X66.75 Y76.36 F6000.0
G01 X66.78 Y76.09 F6000.0
G01 X66.8 Y76.56 F6000.0
G01 X66.71 Y76.59 F6000.0
G01 X66.63 Y76.97 F6000.0
G01 X66.76 Y76.96 F6000.0
G01 X66.68 Y76.87 F6000.0
G01 X66.61 Y76.83 F6000.0
G01 X66.95 Y76.7 F6000.0
G01 X67.3 Y76.33 F6000.0
G01 X67.37 Y76.04 F6000.0
G01 X67.44 Y76.3 F6000.0
G01 X67.54 Y76.58 F6000.0
G01 X67.57 Y76.38 F6000.0
G01 X67.66 Y76.25 F6000.0
G01 X67.81 Y76.28 F6000.0
G01 X67.67 Y76.07 F6000.0
G01 X67.53 Y75.88 F6000.0
G01 X67.82 Y76.09 F6000.0
G01 X68.25 Y76.23 F6000.0
G01 X68.21 Y76.07 F6000.0
G01 X68.07 Y75.86 F6000.0
G01 X68.16 Y75.8 F6000.0
G01 X68.51 Y76.09 F6000.0
G01 X68.75 Y76.02 F6000.0
G01 X68.74 Y75.75 F6000.0
G01 X68.83 Y75.76 F6000.0
G01 X68.97 Y76.11 F6000.0
G01 X68.88 Y76.35 F6000.0
G01 X68.65 Y76.45 F6000.0
G01 X68.97 Y76.5 F6000.0
G01 X69.3 Y76.55 F6000.0
G01 X69.36 Y76.6 F6000.0
G01 X69.31 Y76.42 F6000.0
G01 X69.42 Y76.17 F6000.0
G01 X69.5 Y76.18 F6000.0
G01 X69.67 Y76.31 F6000.0
G01 X69.91 Y76.19 F6000.0
G01 X70.0 Y76.04 F6000.0
G01 X70.38 Y76.68 F6000.0
G01 X70.46 Y76.91 F6000.0
G01 X70.54 Y76.88 F6000.0
G01 X70.67 Y76.76 F6000.0
G01 X70.91 Y76.61 F6000.0
G01 X70.78 Y76.59 F6000.0
G01 X70.6 Y76.65 F6000.0
G01 X70.75 Y76.43 F6000.0
G01 X71.01 Y76.47 F6000.0
G01 X71.11 Y76.8 F6000.0
G01 X71.13 Y76.83 F6000.0
G01 X71.37 Y76.78 F6000.0
G01 X71.34 Y76.65 F6000.0
G01 X71.11 Y76.46 F6000.0
G01 X71.36 Y76.51 F6000.0
G01 X71.62 Y76.69 F6000.0
G01 X71.7 Y76.78 F6000.0
G01 X71.73 Y76.5 F6000.0
G01 X72.1 Y76.27 F6000.0
G01 X72.38 Y76.37 F6000.0
G01 X72.45 Y76.5 F6000.0
G01 X72.21 Y76.45 F6000.0
G01 X71.83 Y76.39 F6000.0
G01 X71.94 Y76.48 F6000.0
G01 X72.21 Y76.83 F6000.0
G01 X72.29 F6000.0
G01 X72.45 Y76.8 F6000.0
G01 X72.54 Y76.91 F6000.0
G01 X72.64 Y76.72 F6000.0
G01 X72.82 Y76.63 F6000.0
G01 X73.02 Y76.52 F6000.0
G01 X73.15 Y76.5 F6000.0
G01 X73.29 Y76.64 F6000.0
G01 X73.38 Y76.72 F6000.0
G01 X73.7 Y76.98 F6000.0
G01 X74.04 Y77.11 F6000.0
G01 X74.0 Y77.0 F6000.0
G01 X73.89 Y76.88 F6000.0
G01 X73.71 Y76.63 F6000.0
G01 X73.52 Y76.46 F6000.0
G01 X73.46 Y76.29 F6000.0
G01 X73.45 Y76.16 F6000.0
G01 X73.61 Y76.35 F6000.0
G01 X73.87 Y76.42 F6000.0
G01 X73.93 Y76.47 F6000.0
G01 X74.07 Y76.77 F6000.0
G01 X74.17 Y76.68 F6000.0
G01 X74.12 Y76.4 F6000.0
G01 X74.21 Y76.49 F6000.0
G01 X74.35 Y76.59 F6000.0
G01 X74.49 Y76.74 F6000.0
G01 X74.63 Y76.76 F6000.0
G01 X74.72 Y76.84 F6000.0
G01 X74.83 Y77.15 F6000.0
G01 X75.17 Y77.41 F6000.0
G01 X75.29 Y77.49 F6000.0
G01 X75.33 Y77.33 F6000.0
G01 X75.42 Y77.03 F6000.0
G01 X75.31 Y76.87 F6000.0
G01 X75.26 Y76.79 F6000.0
G01 X75.21 Y76.55 F6000.0
G01 X75.18 Y76.44 F6000.0
G01 X75.57 Y76.94 F6000.0
G01 X75.58 Y76.97 F6000.0
G01 X75.88 Y77.2 F6000.0
G01 X76.14 Y77.5 F6000.0
G01 X76.25 Y77.16 F6000.0
G01 X76.63 Y77.0 F6000.0
G01 X76.53 Y77.19 F6000.0
G01 X76.44 Y77.28 F6000.0
G01 X76.75 Y77.25 F6000.0
G01 X76.87 Y77.24 F6000.0
G01 X77.13 Y77.28 F6000.0
G01 X77.07 Y77.15 F6000.0
G01 X76.78 Y76.86 F6000.0
G01 X76.57 Y76.69 F6000.0
G01 X76.46 Y76.62 F6000.0
G01 X76.83 Y76.72 F6000.0
G01 X77.09 Y77.0 F6000.0
G01 Y76.77 F6000.0
G01 X77.0 Y76.6 F6000.0
G01 X77.1 Y76.65 F6000.0
G01 X77.28 Y76.76 F6000.0
G01 X77.37 Y76.81 F6000.0
G01 X77.47 Y76.85 F6000.0
G01 X77.65 Y76.92 F6000.0
G01 X77.88 Y76.86 F6000.0
G01 X77.99 Y76.77 F6000.0
G01 X78.25 Y77.19 F6000.0
G01 X78.19 Y76.99 F6000.0
G01 X78.13 Y76.86 F6000.0
G01 X78.38 Y76.97 F6000.0
G01 F6000.0
G01 X79.38 Y77.08 F6000.0
G01 X79.54 F6000.0
G01 X79.4 Y77.21 F6000.0
G01 X79.33 Y77.45 F6000.0
G01 X79.52 Y77.59 F6000.0
G01 X79.83 Y77.81 F6000.0
G01 X80.06 Y78.07 F6000.0
G01 X80.04 Y77.8 F6000.0
G01 X80.52 Y77.52 F6000.0
G01 X81.12 Y77.71 F6000.0
G01 X81.47 Y77.91 F6000.0
G01 X82.01 Y78.1 F6000.0
G01 X82.28 Y78.21 F6000.0
G01 X82.19 Y78.11 F6000.0
G01 X82.16 Y78.0 F6000.0
G01 X82.12 Y77.96 F6000.0
G01 X81.97 Y77.73 F6000.0
G01 X82.11 Y77.75 F6000.0
G01 X82.29 Y77.77 F6000.0
G01 X82.96 Y78.09 F6000.0
G01 X83.27 Y78.3 F6000.0
G01 X83.36 Y78.38 F6000.0
G01 X83.49 Y78.42 F6000.0
G01 X83.59 Y78.2 F6000.0
G01 X83.35 Y78.11 F6000.0
G01 X83.16 Y78.06 F6000.0
G01 X83.03 Y77.88 F6000.0
G01 X83.06 Y77.71 F6000.0
G01 X83.29 Y77.88 F6000.0
G01 X83.69 Y78.05 F6000.0
G01 X83.59 Y77.88 F6000.0
G01 X83.45 Y77.72 F6000.0
G01 X83.59 Y77.75 F6000.0
G01 X83.9 Y77.88 F6000.0
G01 X84.13 Y77.98 F6000.0
G01 X83.96 Y78.04 F6000.0
G01 X83.82 Y78.23 F6000.0
G01 X84.05 Y78.33 F6000.0
G01 X84.51 Y78.46 F6000.0
G01 X84.67 Y78.61 F6000.0
G01 X84.61 Y78.42 F6000.0
G01 X84.46 Y77.98 F6000.0
G01 X84.4 Y77.83 F6000.0
G01 X84.74 Y78.32 F6000.0
G01 X84.78 Y78.47 F6000.0
G01 X85.03 Y78.57 F6000.0
G01 X85.07 Y78.72 F6000.0
G01 X85.11 Y78.86 F6000.0
G01 X85.16 Y78.99 F6000.0
G01 X85.14 Y78.69 F6000.0
G01 X85.12 Y78.58 F6000.0
G01 X85.31 Y78.66 F6000.0
G01 X85.73 Y78.23 F6000.0
G01 X85.88 Y78.34 F6000.0
G01 X86.09 Y78.4 F6000.0
G01 X86.25 Y78.32 F6000.0
G01 X86.39 Y78.24 F6000.0
G01 X86.56 Y78.18 F6000.0
G01 X86.74 Y78.33 F6000.0
G01 X86.93 Y78.67 F6000.0
G01 X87.06 Y78.78 F6000.0
G01 X87.21 Y78.72 F6000.0
G01 X87.32 Y78.66 F6000.0
G01 X87.39 Y78.51 F6000.0
G01 X87.5 Y78.65 F6000.0
G01 X87.6 Y78.68 F6000.0
G01 X87.84 Y78.77 F6000.0
G01 X87.87 Y79.08 F6000.0
G01 X87.92 Y79.1 F6000.0
G01 X87.91 Y78.69 F6000.0
G01 X88.11 F6000.0
G01 X88.22 F6000.0
G01 X88.32 Y78.58 F6000.0
G01 X88.39 Y78.73 F6000.0
G01 X88.54 Y78.93 F6000.0
G01 X88.61 Y78.83 F6000.0
G01 X88.71 Y78.58 F6000.0
G01 X88.73 Y78.67 F6000.0
G01 X88.78 Y78.76 F6000.0
G01 X88.94 Y78.58 F6000.0
G01 X89.15 F6000.0
G01 X88.96 Y78.83 F6000.0
G01 X88.94 Y79.0 F6000.0
G01 X89.24 Y78.8 F6000.0
G01 X89.39 Y78.58 F6000.0
G01 X89.43 Y78.71 F6000.0
G01 X89.38 Y78.94 F6000.0
G01 X89.71 Y78.76 F6000.0
G01 X89.8 Y78.53 F6000.0
G01 X89.84 Y78.71 F6000.0
G01 X89.86 Y78.94 F6000.0
G01 X90.09 Y79.07 F6000.0
G01 X90.05 Y79.26 F6000.0
G01 X90.3 Y78.82 F6000.0
G01 X90.08 Y78.77 F6000.0
G01 X89.99 Y78.81 F6000.0
G01 X89.95 Y78.62 F6000.0
G01 X90.09 Y78.54 F6000.0
G01 X90.23 Y78.44 F6000.0
G01 X90.4 Y78.3 F6000.0
G01 X90.69 Y78.64 F6000.0
G01 X90.54 Y78.58 F6000.0
G01 X90.41 Y78.69 F6000.0
G01 X90.62 Y78.79 F6000.0
G01 X90.79 Y78.94 F6000.0
G01 X90.72 Y79.13 F6000.0
G01 Y79.55 F6000.0
G01 X90.87 Y79.32 F6000.0
G01 X91.02 Y79.04 F6000.0
G01 X91.05 Y78.95 F6000.0
G01 X91.09 Y78.86 F6000.0
G01 X91.19 Y78.96 F6000.0
G01 X91.33 Y79.01 F6000.0
G01 X91.47 Y79.09 F6000.0
G01 X91.56 Y79.23 F6000.0
G01 X91.45 Y79.87 F6000.0
G01 X91.64 Y79.7 F6000.0
G01 X91.9 Y79.28 F6000.0
G01 X91.85 Y79.3 F6000.0
G01 X91.75 Y79.41 F6000.0
G01 X91.77 Y79.18 F6000.0
G01 X92.08 Y79.16 F6000.0
G01 X92.09 Y79.67 F6000.0
G01 X92.15 Y79.78 F6000.0
G01 X92.31 Y79.59 F6000.0
G01 X92.4 Y79.46 F6000.0
G01 X92.49 Y79.7 F6000.0
G01 X92.75 Y79.73 F6000.0
G01 X92.83 Y79.72 F6000.0
G01 X92.84 Y79.92 F6000.0
G01 X93.12 Y80.2 F6000.0
G01 X93.39 Y80.37 F6000.0
G01 X93.48 Y80.46 F6000.0
G01 X93.56 Y80.56 F6000.0
G01 X93.64 Y80.42 F6000.0
G01 X93.69 Y80.34 F6000.0
G01 X93.67 Y80.6 F6000.0
G01 X93.72 Y80.66 F6000.0
G01 X93.88 Y80.74 F6000.0
G01 X94.0 Y81.0 F6000.0
G01 X94.19 Y81.29 F6000.0
G01 X94.64 Y81.25 F6000.0
G01 X95.01 Y81.27 F6000.0
G01 X94.73 Y81.57 F6000.0
G01 X94.48 Y81.6 F6000.0
G01 X94.72 Y81.7 F6000.0
G01 X95.01 Y81.71 F6000.0
G01 X95.26 Y81.72 F6000.0
G01 X95.83 Y81.73 F6000.0
G01 X95.94 Y81.64 F6000.0
G01 X95.89 Y81.81 F6000.0
G01 X95.85 Y82.03 F6000.0
G01 X96.11 Y82.04 F6000.0
G01 X96.92 Y82.43 F6000.0
G01 X97.36 Y82.63 F6000.0
G01 X97.5 Y82.28 F6000.0
G01 X97.28 Y81.63 F6000.0
G01 X96.94 Y81.15 F6000.0
G01 X96.58 Y80.48 F6000.0
G01 X96.2 Y79.84 F6000.0
G01 X95.98 Y79.59 F6000.0
G01 X95.32 Y78.84 F6000.0
G01 X94.44 Y77.83 F6000.0
G01 X94.19 Y77.49 F6000.0
G01 X93.62 Y76.72 F6000.0
G01 X93.57 Y76.67 F6000.0
G01 X92.89 Y75.84 F6000.0
G01 X92.3 Y75.1 F6000.0
G01 X91.78 Y74.48 F6000.0
G01 X91.6 Y74.28 F6000.0
G01 X90.26 Y72.81 F6000.0
G01 X89.58 Y72.07 F6000.0
G01 X88.73 Y71.13 F6000.0
G01 X88.53 Y70.98 F6000.0
G01 X86.93 Y69.79 F6000.0
G01 X85.93 Y69.04 F6000.0
G01 X85.21 Y68.56 F6000.0
G01 X85.05 Y68.46 F6000.0
G01 X85.17 Y68.57 F6000.0
G01 X86.04 Y69.35 F6000.0
G01 X86.29 Y69.56 F6000.0
G01 X87.06 Y70.21 F6000.0
G01 X87.83 Y70.85 F6000.0
G01 X88.59 Y71.49 F6000.0
G01 X89.61 Y72.35 F6000.0
G01 X90.21 Y73.04 F6000.0
G01 X90.26 Y73.13 F6000.0
G01 X90.77 Y73.99 F6000.0
G01 X91.34 Y74.94 F6000.0
G01 X91.14 Y74.82 F6000.0
G01 X91.01 Y74.74 F6000.0
G01 X90.64 Y75.0 F6000.0
G01 X90.38 Y75.59 F6000.0
G01 X90.39 Y75.7 F6000.0
G01 X90.03 Y75.33 F6000.0
G01 X89.64 Y74.96 F6000.0
G01 X89.52 Y74.86 F6000.0
G01 X89.44 Y74.77 F6000.0
G01 Y74.78 F6000.0
G01 X89.6 Y75.78 F6000.0
G01 X89.57 Y76.03 F6000.0
G01 X89.25 Y76.14 F6000.0
G01 X88.69 Y75.33 F6000.0
G01 X88.24 Y74.7 F6000.0
G01 X87.51 Y74.66 F6000.0
G01 X87.5 Y74.64 F6000.0
G01 X87.09 Y73.69 F6000.0
G01 X86.96 Y73.54 F6000.0
G01 X86.78 Y73.44 F6000.0
G01 X86.64 Y73.34 F6000.0
G01 X86.61 Y73.25 F6000.0
G01 X86.8 Y73.17 F6000.0
G01 X86.88 Y73.35 F6000.0
G01 X86.95 Y73.47 F6000.0
G01 X87.29 Y73.59 F6000.0
G01 X87.28 Y73.84 F6000.0
G01 X87.39 F6000.0
G01 X87.6 Y73.89 F6000.0
G01 X88.23 Y74.44 F6000.0
G01 X88.59 Y74.59 F6000.0
G01 X88.71 Y74.53 F6000.0
G01 X88.78 Y74.47 F6000.0
G01 X89.13 Y74.61 F6000.0
G01 X89.12 Y74.36 F6000.0
G01 X88.87 Y74.21 F6000.0
G01 X88.08 Y73.99 F6000.0
G01 X87.76 Y73.67 F6000.0
G01 X87.39 Y73.39 F6000.0
G01 X87.02 Y73.1 F6000.0
G01 X87.51 Y73.3 F6000.0
G01 X87.83 Y73.31 F6000.0
G01 X87.64 Y72.99 F6000.0
G01 X87.48 Y72.82 F6000.0
G01 X87.39 Y72.62 F6000.0
G01 Y72.42 F6000.0
G01 X87.2 Y72.62 F6000.0
G01 X86.28 Y72.72 F6000.0
G01 X86.14 Y72.23 F6000.0
G01 X86.28 Y72.09 F6000.0
G01 X85.99 Y72.16 F6000.0
G01 X85.64 Y72.19 F6000.0
G01 X85.49 Y72.17 F6000.0
G01 X84.81 Y71.99 F6000.0
G01 X84.47 Y71.8 F6000.0
G01 X84.53 Y71.92 F6000.0
G01 X84.59 Y72.03 F6000.0
G01 X84.32 Y71.89 F6000.0
G01 X83.17 Y71.29 F6000.0
G01 X83.1 Y71.25 F6000.0
G01 X82.29 Y70.67 F6000.0
G01 X81.41 Y70.04 F6000.0
G01 X80.59 Y69.56 F6000.0
G01 X79.86 Y69.14 F6000.0
G01 X79.67 Y69.07 F6000.0
G01 X78.53 Y68.65 F6000.0
G01 X78.35 Y68.6 F6000.0
G01 X77.2 Y68.27 F6000.0
G01 X77.74 Y68.56 F6000.0
G01 X78.01 Y68.7 F6000.0
G01 X79.78 Y69.62 F6000.0
G01 X80.94 Y70.22 F6000.0
G01 X80.6 Y70.08 F6000.0
G01 X79.34 Y69.54 F6000.0
G01 X79.11 Y69.48 F6000.0
G01 X78.89 Y69.35 F6000.0
G01 X78.71 Y69.27 F6000.0
G01 X77.86 Y68.97 F6000.0
G01 X77.66 Y68.89 F6000.0
G01 X76.53 Y68.41 F6000.0
G01 X76.18 Y68.28 F6000.0
G01 X74.88 Y67.82 F6000.0
G01 X74.74 Y67.78 F6000.0
G01 X73.65 Y67.44 F6000.0
G01 X73.47 Y67.37 F6000.0
G01 X73.9 Y67.07 F6000.0
G01 X74.07 Y67.13 F6000.0
G01 X75.17 Y67.55 F6000.0
G01 X75.61 F6000.0
G01 X75.5 Y67.5 F6000.0
G01 X74.52 Y66.98 F6000.0
G01 X74.07 Y66.79 F6000.0
G01 X74.15 Y66.75 F6000.0
G01 X74.47 Y66.62 F6000.0
G01 X75.72 Y66.09 F6000.0
G01 X76.65 Y65.95 F6000.0
G01 X76.78 Y66.0 F6000.0
G01 X77.86 Y66.4 F6000.0
G01 X77.91 Y66.42 F6000.0
G01 X78.78 Y66.34 F6000.0
G01 X78.9 Y66.38 F6000.0
G01 X80.81 Y66.97 F6000.0
G01 X81.89 Y67.31 F6000.0
G01 X82.63 Y67.63 F6000.0
G01 X83.05 Y67.91 F6000.0
G01 X83.4 Y68.08 F6000.0
G01 X83.61 Y68.2 F6000.0
G01 X83.75 Y68.29 F6000.0
G01 X84.75 Y68.9 F6000.0
G01 X84.79 Y68.94 F6000.0
G01 X85.53 Y69.69 F6000.0
G01 X85.38 Y70.04 F6000.0
G01 X85.56 Y69.95 F6000.0
G01 X85.9 Y69.56 F6000.0
G01 X85.27 Y69.06 F6000.0
G01 X85.14 Y68.95 F6000.0
G01 X84.69 Y68.7 F6000.0
G01 X84.61 Y68.68 F6000.0
G01 X84.51 Y68.56 F6000.0
G01 X84.42 Y68.54 F6000.0
G01 X84.29 Y68.47 F6000.0
G01 X83.41 Y67.99 F6000.0
G01 X82.53 Y67.51 F6000.0
G01 X81.66 Y67.03 F6000.0
G01 X80.65 Y66.48 F6000.0
G01 X80.42 Y66.42 F6000.0
G01 X79.22 Y66.1 F6000.0
G01 X79.08 Y66.07 F6000.0
G01 X77.98 Y65.82 F6000.0
G01 X77.75 Y65.8 F6000.0
G01 X76.75 Y65.73 F6000.0
G01 X75.52 Y65.64 F6000.0
G01 X75.01 Y65.68 F6000.0
G01 X74.77 Y65.73 F6000.0
G01 X74.2 Y65.64 F6000.0
G01 X74.11 Y65.58 F6000.0
G01 X73.17 Y64.99 F6000.0
G01 F6000.0
G01 X72.22 Y64.66 F6000.0
G01 X71.28 Y64.33 F6000.0
G01 X71.07 Y64.3 F6000.0
G01 X69.88 Y64.12 F6000.0
G01 X69.58 Y64.11 F6000.0
G01 X69.42 F6000.0
G01 X68.42 Y64.1 F6000.0
G01 X67.26 Y64.09 F6000.0
G01 X66.73 Y64.14 F6000.0
G01 X67.11 Y64.0 F6000.0
G01 X67.53 Y63.81 F6000.0
G01 X67.47 Y63.77 F6000.0
G01 Y63.21 F6000.0
G01 X67.33 Y63.06 F6000.0
G01 X67.12 Y63.02 F6000.0
G01 X67.33 Y63.0 F6000.0
G01 X67.59 Y63.13 F6000.0
G01 X67.81 Y63.06 F6000.0
G01 X68.1 Y62.96 F6000.0
G01 X68.42 Y62.99 F6000.0
G01 X68.58 Y63.11 F6000.0
G01 X68.68 Y63.19 F6000.0
G01 X68.96 Y63.22 F6000.0
G01 X69.23 Y63.18 F6000.0
G01 X69.31 Y63.17 F6000.0
G01 X70.38 Y63.03 F6000.0
G01 X70.49 F6000.0
G01 X71.6 Y63.08 F6000.0
G01 X71.77 Y63.22 F6000.0
G01 X71.81 Y63.36 F6000.0
G01 X71.89 Y63.27 F6000.0
G01 X72.03 Y63.18 F6000.0
G01 X72.17 Y63.34 F6000.0
G01 X72.26 Y63.37 F6000.0
G01 X72.79 Y63.48 F6000.0
G01 X72.8 Y63.52 F6000.0
G01 X73.01 Y63.62 F6000.0
G01 X73.09 Y63.65 F6000.0
G01 X73.24 Y63.64 F6000.0
G01 X73.26 Y63.65 F6000.0
G01 X74.2 Y64.05 F6000.0
G01 X74.14 Y63.94 F6000.0
G01 X73.54 Y63.57 F6000.0
G01 X73.16 Y63.46 F6000.0
G01 X72.2 Y63.19 F6000.0
G01 X70.86 Y62.81 F6000.0
G01 X70.47 Y62.8 F6000.0
G01 X69.48 Y62.78 F6000.0
G01 X68.09 Y62.76 F6000.0
G01 F6000.0
M5
G00 X67.91 Y63.14 F6000.0
M3 F6000.0
G01 X67.97 Y63.19 F6000.0
G01 X67.96 Y63.02 F6000.0
G01 X67.91 Y63.14 F6000.0
G01 F6000.0
M5
G00 X68.18 Y63.64 F6000.0
M3 F6000.0
G01 X68.28 Y63.69 F6000.0
G01 X68.37 Y63.59 F6000.0
G01 X68.28 Y63.55 F6000.0
G01 X68.18 Y63.64 F6000.0
G01 F6000.0
M5
G00 X67.26 Y63.37 F6000.0
M3 F6000.0
G01 X67.16 Y63.5 F6000.0
G01 X67.07 Y63.31 F6000.0
G01 X67.16 Y63.18 F6000.0
G01 X67.26 Y63.37 F6000.0
G01 F6000.0
M5
G00 X67.05 Y63.05 F6000.0
M3 F6000.0
G01 X66.87 F6000.0
G01 X66.92 Y63.0 F6000.0
G01 X67.05 Y63.05 F6000.0
G01 F6000.0
M5
G00 X66.32 Y63.64 F6000.0
M3 F6000.0
G01 X66.28 Y63.85 F6000.0
G01 X66.33 Y64.01 F6000.0
G01 X66.42 Y63.73 F6000.0
G01 X66.32 Y63.64 F6000.0
G01 F6000.0
M5
G00 X65.9 Y63.43 F6000.0
M3 F6000.0
G01 X66.42 Y63.44 F6000.0
G01 X66.56 Y63.36 F6000.0
G01 X66.7 Y63.46 F6000.0
G01 X66.86 Y63.53 F6000.0
G01 X67.05 Y63.67 F6000.0
G01 X66.97 Y63.81 F6000.0
G01 X66.66 Y63.97 F6000.0
G01 X66.23 Y64.22 F6000.0
G01 X65.89 Y63.88 F6000.0
G01 X65.56 Y63.43 F6000.0
G01 X65.59 Y63.37 F6000.0
G01 X65.9 Y63.43 F6000.0
G01 F6000.0
M5
G00 X65.45 Y63.81 F6000.0
M3 F6000.0
G01 X65.28 Y63.74 F6000.0
G01 X65.33 Y63.69 F6000.0
G01 X65.45 Y63.81 F6000.0
G01 F6000.0
M5
G00 X65.81 Y64.09 F6000.0
M3 F6000.0
G01 X65.51 Y64.25 F6000.0
G01 X65.58 Y64.2 F6000.0
G01 X65.63 Y64.1 F6000.0
G01 X65.67 Y64.01 F6000.0
G01 X65.81 Y64.09 F6000.0
G01 F6000.0
M5
G00 X64.75 Y64.66 F6000.0
M3 F6000.0
G01 X64.7 Y64.75 F6000.0
G01 X64.94 Y64.66 F6000.0
G01 X64.98 Y64.57 F6000.0
G01 X64.75 Y64.66 F6000.0
G01 F6000.0
M5
G00 X64.37 Y63.88 F6000.0
M3 F6000.0
G01 X64.65 Y63.97 F6000.0
G01 X65.06 Y63.91 F6000.0
G01 X65.31 Y64.1 F6000.0
G01 X65.13 Y64.08 F6000.0
G01 X63.95 Y63.96 F6000.0
G01 X63.26 Y63.83 F6000.0
G01 X63.08 Y63.78 F6000.0
G01 X63.73 Y63.64 F6000.0
G01 X64.37 Y63.88 F6000.0
G01 F6000.0
M5
G00 X61.66 Y66.94 F6000.0
M3 F6000.0
G01 X61.49 Y66.95 F6000.0
G01 X61.54 Y66.89 F6000.0
G01 X61.66 Y66.94 F6000.0
G01 F6000.0
M5
G00 X61.64 Y67.17 F6000.0
M3 F6000.0
