
;Inkscape Lasertools G-code
;https://github.com/ChrisWag91/Inkscape-Lasertools-Plugin

G28
G90 ;Absolute programming
G21 ;Programming in millimeters (mm)
M5
M03 S1 ;Activate laser and set power to 0 (CUSTOM)

; START perimeter strategy
G01 F6000.0
M5
G00 X83.96 Y143.59 F6000.0
M3 F6000.0
G01 X83.98 Y143.6 F6000.0
G01 X84.81 Y144.2 F6000.0
G01 X84.82 Y144.21 F6000.0
G01 X85.82 Y144.42 F6000.0
M5
G00 X86. Y144.42 F6000.0
M3 F6000.0
G01 X86.65 Y144.33 F6000.0
M5
G00 X86.84 Y144.33 F6000.0
M3 F6000.0
G01 X86.87 Y144.31 F6000.0
G01 X87.77 Y143.78 F6000.0
M5
G00 X87.95 Y143.5 F6000.0
M3 F6000.0
G01 X87.86 Y143.4 F6000.0
M5
G00 X88.14 Y143.5 F6000.0
M3 F6000.0
G01 X89.1 Y143.46 F6000.0
G01 X89.77 Y143.06 F6000.0
G01 X90.02 Y142.79 F6000.0
G01 X90.94 Y141.77 F6000.0
G01 X91.61 Y141.28 F6000.0
G01 X92.22 Y140.71 F6000.0
M5
G00 X92.31 Y140.44 F6000.0
M3 F6000.0
G01 X92.32 Y140.4 F6000.0
G01 X92.53 Y139.39 F6000.0
G01 X92.54 Y138.5 F6000.0
G01 X92.3 Y137.65 F6000.0
G01 X92.28 Y137.62 F6000.0
G01 X91.75 Y136.72 F6000.0
G01 X92.29 Y136.37 F6000.0
G01 X92.61 Y135.97 F6000.0
G01 X92.74 Y135.53 F6000.0
G01 X92.72 Y135.08 F6000.0
G01 Y135.07 F6000.0
G01 X92.35 Y134.13 F6000.0
G01 X92.32 Y134.09 F6000.0
G01 X91.75 Y133.2 F6000.0
G01 X91.85 Y133.11 F6000.0
G01 X92.03 F6000.0
M5
G00 X92.59 Y133.01 F6000.0
M3 F6000.0
G01 X92.5 Y132.83 F6000.0
M5
G00 X92.87 Y133.48 F6000.0
M3 F6000.0
G01 X92.78 Y133.2 F6000.0
M5
G00 X92.96 Y133.66 F6000.0
M3 F6000.0
G01 X93.05 F6000.0
M5
G00 X93.61 Y133.66 F6000.0
M3 F6000.0
G01 X94.17 Y133.11 F6000.0
M5
G00 X93.24 Y134.59 F6000.0
M3 F6000.0
G01 X93.42 Y133.76 F6000.0
M5
G00 X93.24 Y134.78 F6000.0
M3 F6000.0
G01 X93.49 Y135.43 F6000.0
G01 X94.07 Y135.8 F6000.0
M5
G00 X94.26 Y136.26 F6000.0
M3 F6000.0
G01 Y136.17 F6000.0
M5
G00 X94.26 Y136.54 F6000.0
M3 F6000.0
G01 X94.35 Y136.45 F6000.0
M5
G00 X94.26 Y136.82 F6000.0
M3 F6000.0
G01 Y136.72 F6000.0
M5
G00 X94.82 Y137.09 F6000.0
M3 F6000.0
G01 X94.44 Y136.63 F6000.0
M5
G00 X95.37 Y137.37 F6000.0
M3 F6000.0
G01 X95.47 F6000.0
M5
G00 X95.65 Y137.37 F6000.0
M3 F6000.0
G01 X96.11 Y137.47 F6000.0
M5
G00 X96.58 Y137.47 F6000.0
M3 F6000.0
G01 X96.67 F6000.0
M5
G00 X96.86 Y137.47 F6000.0
M3 F6000.0
G01 X96.95 F6000.0
M5
G00 X97.14 Y137.47 F6000.0
M3 F6000.0
G01 X97.23 F6000.0
M5
G00 X91.29 Y133.2 F6000.0
M3 F6000.0
G01 X91.48 Y133.11 F6000.0
M5
G00 X93.33 Y130.97 F6000.0
M3 F6000.0
G01 Y130.88 F6000.0
M5
G00 X93.52 Y128.84 F6000.0
M3 F6000.0
G01 X94.26 Y128.47 F6000.0
M5
G00 X94.63 Y128.65 F6000.0
M3 F6000.0
G01 X95.47 Y128.56 F6000.0
M5
G00 X95.74 Y128.38 F6000.0
M3 F6000.0
G01 X96.3 Y128.19 F6000.0
M5
G00 X96.49 Y128.1 F6000.0
M3 F6000.0
G01 X96.86 Y128.0 F6000.0
M5
G00 X97.14 Y127.91 F6000.0
M3 F6000.0
G01 X97.32 F6000.0
M5
G00 X96.11 Y127.72 F6000.0
M3 F6000.0
G01 X96.67 F6000.0
M5
G00 X95.37 Y127.72 F6000.0
M3 F6000.0
G01 X95.74 Y127.82 F6000.0
M5
G00 X94.44 Y127.72 F6000.0
M3 F6000.0
G01 X94.91 Y127.82 F6000.0
M5
G00 X94.17 Y127.72 F6000.0
M3 F6000.0
G01 X94.26 F6000.0
M5
G00 X93.7 Y127.82 F6000.0
M3 F6000.0
G01 X93.98 Y127.72 F6000.0
M5
G00 X93.42 Y127.72 F6000.0
M3 F6000.0
G01 X93.52 F6000.0
M5
G00 X93.15 Y127.72 F6000.0
M3 F6000.0
G01 X93.24 F6000.0
M5
G00 X92.59 Y127.72 F6000.0
M3 F6000.0
G01 X92.68 F6000.0
M5
G00 X91.94 Y127.72 F6000.0
M3 F6000.0
G01 X92.4 F6000.0
M5
G00 X91.48 Y127.72 F6000.0
M3 F6000.0
G01 X91.57 F6000.0
M5
G00 X91.01 Y127.63 F6000.0
M3 F6000.0
G01 X91.11 F6000.0
M5
G00 X91.29 Y129.21 F6000.0
M3 F6000.0
G01 X91.38 F6000.0
M5
G00 X91.57 Y129.3 F6000.0
M3 F6000.0
G01 X91.66 Y129.21 F6000.0
M5
G00 X92.4 Y128.75 F6000.0
M3 F6000.0
G01 X93.24 F6000.0
M5
G00 X90.73 Y129.21 F6000.0
M3 F6000.0
G01 X91.11 F6000.0
M5
G00 X89.53 Y129.12 F6000.0
M3 F6000.0
G01 X89.62 F6000.0
M5
G00 X89.34 Y127.63 F6000.0
M3 F6000.0
G01 X89.62 F6000.0
M5
G00 X88.88 Y127.17 F6000.0
M3 F6000.0
G01 X88.97 F6000.0
M5
G00 X88.6 Y127.63 F6000.0
M3 F6000.0
G01 X88.69 F6000.0
M5
G00 X87.58 Y127.63 F6000.0
M3 F6000.0
G01 X87.67 F6000.0
M5
G00 X86.19 Y127.91 F6000.0
M3 F6000.0
G01 X86.28 F6000.0
M5
G00 X84.52 Y127.35 F6000.0
M3 F6000.0
G01 X84.61 F6000.0
M5
G00 X84.24 Y127.35 F6000.0
M3 F6000.0
G01 X84.33 F6000.0
M5
G00 X83.87 Y126.33 F6000.0
M3 F6000.0
G01 X83.68 Y126.15 F6000.0
M5
G00 X83.41 Y126.61 F6000.0
M3 F6000.0
G01 X83.68 Y126.52 F6000.0
M5
G00 X82.38 Y126.89 F6000.0
M3 F6000.0
G01 X83.03 Y126.8 F6000.0
M5
G00 X82.01 Y127.35 F6000.0
M3 F6000.0
G01 X82.29 Y127.26 F6000.0
M5
G00 X81.55 Y126.06 F6000.0
M3 F6000.0
G01 X81.61 F6000.0
G01 X82.66 F6000.0
M5
G00 X80.53 Y126.15 F6000.0
M3 F6000.0
G01 X81.36 Y126.06 F6000.0
M5
G00 X79.79 Y126.15 F6000.0
M3 F6000.0
G01 X80.16 Y126.06 F6000.0
M5
G00 X79.42 Y126.24 F6000.0
M3 F6000.0
G01 Y126.15 F6000.0
M5
G00 X78.67 Y126.24 F6000.0
M3 F6000.0
G01 X78.95 F6000.0
M5
G00 X78.77 Y127.26 F6000.0
M3 F6000.0
G01 X78.95 Y127.35 F6000.0
M5
G00 X78.95 Y127.91 F6000.0
M3 F6000.0
G01 X79.04 F6000.0
M5
G00 X79.32 Y127.82 F6000.0
M3 F6000.0
G01 X79.51 Y127.72 F6000.0
M5
G00 X78.21 Y127.26 F6000.0
M3 F6000.0
G01 X78.49 F6000.0
M5
G00 X77.93 Y128. F6000.0
M3 F6000.0
G01 X78.39 F6000.0
M5
G00 X77.37 Y128. F6000.0
M3 F6000.0
G01 X77.65 F6000.0
M5
G00 X77.56 Y126.98 F6000.0
M3 F6000.0
G01 X77.93 Y127.08 F6000.0
M5
G00 X77.28 Y126.33 F6000.0
M3 F6000.0
G01 X78.21 F6000.0
M5
G00 X77. Y126.33 F6000.0
M3 F6000.0
G01 X77.1 F6000.0
M5
G00 X76.91 Y126.61 F6000.0
M3 F6000.0
G01 X77.1 Y126.7 F6000.0
M5
G00 X76.54 Y127.72 F6000.0
M3 F6000.0
G01 Y127.63 F6000.0
M5
G00 X76.45 Y127.91 F6000.0
M3 F6000.0
G01 X77.0 Y128.0 F6000.0
M5
G00 X75.15 Y127.72 F6000.0
M3 F6000.0
G01 X75.33 F6000.0
M5
G00 X74.87 Y127.82 F6000.0
M3 F6000.0
G01 X74.96 F6000.0
M5
G00 X74.78 Y128.65 F6000.0
M3 F6000.0
G01 X74.87 F6000.0
M5
G00 X74.31 Y128.65 F6000.0
M3 F6000.0
G01 X74.22 Y128.47 F6000.0
M5
G00 X73.76 Y128.56 F6000.0
M3 F6000.0
G01 X73.85 Y128.47 F6000.0
M5
G00 X73.29 Y128.56 F6000.0
M3 F6000.0
G01 Y128.47 F6000.0
M5
G00 X72.92 Y128.65 F6000.0
M3 F6000.0
G01 X72.74 Y128.47 F6000.0
M5
G00 X72.83 Y127.63 F6000.0
M3 F6000.0
G01 X72.92 F6000.0
M5
G00 X73.2 Y127.72 F6000.0
M3 F6000.0
G01 X73.39 F6000.0
M5
G00 X73.57 Y127.72 F6000.0
M3 F6000.0
G01 X73.66 F6000.0
M5
G00 X74.03 Y127.72 F6000.0
M3 F6000.0
G01 X74.13 F6000.0
M5
G00 X72.55 Y127.63 F6000.0
M3 F6000.0
G01 X72.64 F6000.0
M5
G00 X72.27 Y127.63 F6000.0
M3 F6000.0
G01 X72.36 F6000.0
M5
G00 X71.99 Y127.63 F6000.0
M3 F6000.0
G01 X72.09 F6000.0
M5
G00 X71.44 Y127.63 F6000.0
M3 F6000.0
G01 X71.81 F6000.0
M5
G00 X70.69 Y127.54 F6000.0
M3 F6000.0
G01 X71.25 F6000.0
M5
G00 X70.32 Y127.54 F6000.0
M3 F6000.0
G01 X70.42 F6000.0
M5
G00 X69.77 Y127.54 F6000.0
M3 F6000.0
G01 X70.05 F6000.0
M5
G00 X69.4 Y127.54 F6000.0
M3 F6000.0
G01 X69.49 F6000.0
M5
G00 X68.56 Y127.91 F6000.0
M3 F6000.0
G01 X69.03 Y127.72 F6000.0
M5
G00 X67.82 Y127.91 F6000.0
M3 F6000.0
G01 X68.19 F6000.0
M5
G00 X67.17 Y127.91 F6000.0
M3 F6000.0
G01 X67.54 F6000.0
M5
G00 X66.8 Y127.91 F6000.0
M3 F6000.0
G01 X66.98 F6000.0
M5
G00 X66.06 Y128. F6000.0
M3 F6000.0
G01 X66.33 F6000.0
M5
G00 X64.48 Y128. F6000.0
M3 F6000.0
G01 X64.67 F6000.0
G01 X65.87 F6000.0
M5
G00 X64.29 Y128.28 F6000.0
M3 F6000.0
G01 X64.39 F6000.0
M5
G00 X63.64 Y128.1 F6000.0
M3 F6000.0
G01 X64.02 Y128.28 F6000.0
G01 X64.29 Y128.1 F6000.0
M5
G00 X67.91 Y129.49 F6000.0
M3 F6000.0
G01 X67.77 Y129.16 F6000.0
G01 X67.48 Y128.93 F6000.0
G01 X66.62 Y128.65 F6000.0
G01 X66.61 F6000.0
G01 X65.61 Y128.49 F6000.0
G01 X64.76 Y128.28 F6000.0
M5
G00 X68.38 Y130.42 F6000.0
M3 F6000.0
G01 X68.0 Y129.86 F6000.0
M5
G00 X68.65 Y130.6 F6000.0
M3 F6000.0
G01 X68.74 Y130.63 F6000.0
G01 X69.77 Y130.97 F6000.0
M5
G00 X70.14 Y130.88 F6000.0
M3 F6000.0
G01 Y130.69 F6000.0
M5
G00 X70.42 Y131.44 F6000.0
M3 F6000.0
G01 X69.95 Y130.88 F6000.0
M5
G00 X70.6 Y131.62 F6000.0
M3 F6000.0
G01 X70.79 F6000.0
M5
G00 X70.97 Y131.9 F6000.0
M3 F6000.0
G01 X71.07 F6000.0
M5
G00 X71.34 Y131.99 F6000.0
M3 F6000.0
G01 X71.53 F6000.0
M5
G00 X71.72 Y132.09 F6000.0
M3 F6000.0
G01 X72.69 Y132.04 F6000.0
G01 X73.56 Y131.61 F6000.0
G01 X73.84 Y131.23 F6000.0
G01 X74.15 Y130.88 F6000.0
G01 X74.73 Y130.74 F6000.0
G01 X75.33 Y130.63 F6000.0
G01 X75.86 Y130.28 F6000.0
G01 X76.35 Y129.86 F6000.0
M5
G00 X76.72 Y130.05 F6000.0
M3 F6000.0
G01 X76.63 Y129.95 F6000.0
M5
G00 X76.72 Y131.06 F6000.0
M3 F6000.0
G01 X77.28 Y130.32 F6000.0
M5
G00 X76.63 Y131.25 F6000.0
M3 F6000.0
G01 X76.74 Y131.43 F6000.0
G01 X77.37 Y132.46 F6000.0
M5
G00 X77.65 Y132.64 F6000.0
M3 F6000.0
G01 X77.93 F6000.0
M5
G00 X77.19 Y137.75 F6000.0
M3 F6000.0
G01 X77.03 Y137.51 F6000.0
G01 X76.31 Y136.46 F6000.0
G01 X76.08 Y135.76 F6000.0
G01 X75.99 Y135.06 F6000.0
G01 X76.08 Y134.4 F6000.0
G01 X76.36 Y133.78 F6000.0
G01 X76.85 Y133.25 F6000.0
G01 X77.56 Y132.83 F6000.0
M5
G00 X77.47 Y138.21 F6000.0
M3 F6000.0
G01 X78.18 Y138.68 F6000.0
G01 X78.96 Y139.03 F6000.0
G01 X79.77 Y139.17 F6000.0
G01 X80.62 Y139.04 F6000.0
M5
G00 X80.9 Y138.86 F6000.0
M3 F6000.0
G01 X81.64 Y138.49 F6000.0
M5
G00 X81.92 Y138.49 F6000.0
M3 F6000.0
G01 X82.01 F6000.0
M5
G00 X81.73 Y139.04 F6000.0
M3 F6000.0
G01 X81.92 Y138.76 F6000.0
M5
G00 X81.55 Y139.88 F6000.0
M3 F6000.0
G01 Y139.32 F6000.0
M5
G00 X83.78 Y143.5 F6000.0
M3 F6000.0
G01 X83.09 Y142.83 F6000.0
G01 X83.07 Y142.8 F6000.0
G01 X82.46 Y141.97 F6000.0
G01 X82.45 Y141.96 F6000.0
G01 X82.0 Y141.06 F6000.0
G01 X81.55 Y140.16 F6000.0
M5
G00 X75.89 Y126.43 F6000.0
M3 F6000.0
G01 X76.82 Y126.33 F6000.0
M5
G00 X73.57 Y121.51 F6000.0
M3 F6000.0
G01 X73.48 Y121.32 F6000.0
M5
G00 X73.01 Y121.6 F6000.0
M3 F6000.0
G01 X73.29 Y121.51 F6000.0
M5
G00 X72.83 Y121.32 F6000.0
M3 F6000.0
G01 X72.92 F6000.0
M5
G00 X72.55 Y121.32 F6000.0
M3 F6000.0
G01 X72.64 Y121.23 F6000.0
M5
G00 X72.46 Y121.69 F6000.0
M3 F6000.0
G01 X72.55 F6000.0
M5
G00 X71.99 Y121.79 F6000.0
M3 F6000.0
G01 X72.27 F6000.0
M5
G00 X71.99 Y121.23 F6000.0
M3 F6000.0
G01 X72.09 F6000.0
M5
G00 X71.72 Y121.23 F6000.0
M3 F6000.0
G01 X71.81 F6000.0
M5
G00 X71.53 Y121.79 F6000.0
M3 F6000.0
G01 X71.81 F6000.0
M5
G00 X70.88 Y121.05 F6000.0
M3 F6000.0
G01 X70.97 F6000.0
M5
G00 X70.6 Y122.44 F6000.0
M3 F6000.0
G01 X71.34 Y121.79 F6000.0
M5
G00 X69.77 Y122.99 F6000.0
M3 F6000.0
G01 X70.05 Y122.53 F6000.0
M5
G00 X69.21 Y123.18 F6000.0
M3 F6000.0
G01 X69.58 Y123.09 F6000.0
M5
G00 X68.47 Y123.18 F6000.0
M3 F6000.0
G01 X68.65 F6000.0
M5
G00 X68.1 Y122.9 F6000.0
M3 F6000.0
G01 X68.0 Y122.72 F6000.0
M5
G00 X66.89 Y122.62 F6000.0
M3 F6000.0
G01 X67.54 F6000.0
M5
G00 X66.71 Y122.62 F6000.0
M3 F6000.0
G01 X66.06 Y122.07 F6000.0
M5
G00 X65.96 Y121.23 F6000.0
M3 F6000.0
G01 X66.06 F6000.0
M5
G00 X66.24 Y121.14 F6000.0
M3 F6000.0
G01 X66.89 F6000.0
M5
G00 X67.08 Y121.14 F6000.0
M3 F6000.0
G01 X67.26 F6000.0
M5
G00 X67.54 Y121.14 F6000.0
M3 F6000.0
G01 X67.63 F6000.0
M5
G00 X68.38 Y121.14 F6000.0
M3 F6000.0
G01 Y120.95 F6000.0
M5
G00 X65.69 Y121.23 F6000.0
M3 F6000.0
G01 X65.78 F6000.0
M5
G00 X65.04 Y121.6 F6000.0
M3 F6000.0
G01 X65.41 Y121.69 F6000.0
M5
G00 X64.67 Y121.51 F6000.0
M3 F6000.0
G01 X64.85 Y121.6 F6000.0
M5
G00 X64.67 Y121.23 F6000.0
M3 F6000.0
G01 X65.5 F6000.0
M5
G00 X65.41 Y116.59 F6000.0
M3 F6000.0
G01 Y116.5 F6000.0
M5
G00 X65.13 Y116.59 F6000.0
M3 F6000.0
G01 X65.22 F6000.0
M5
G00 X64.11 Y116.59 F6000.0
M3 F6000.0
G01 X64.85 F6000.0
M5
G00 X63.92 Y116.69 F6000.0
M3 F6000.0
G01 Y116.59 F6000.0
M5
G00 X63.09 Y116.69 F6000.0
M3 F6000.0
G01 X63.74 Y116.59 F6000.0
M5
G00 X64.76 Y114.83 F6000.0
M3 F6000.0
G01 X64.67 Y114.74 F6000.0
M5
G00 X65.04 Y114.83 F6000.0
M3 F6000.0
G01 X65.13 F6000.0
M5
G00 X65.31 Y114.92 F6000.0
M3 F6000.0
G01 X65.41 F6000.0
M5
G00 X66.33 Y115.11 F6000.0
M3 F6000.0
G01 X66.43 F6000.0
M5
G00 X66.61 Y115.2 F6000.0
M3 F6000.0
G01 X66.71 F6000.0
M5
G00 X67.17 Y115.39 F6000.0
M3 F6000.0
G01 X67.36 Y115.48 F6000.0
M5
G00 X67.54 Y115.57 F6000.0
M3 F6000.0
G01 X68.1 Y115.76 F6000.0
M5
G00 X68.65 Y116.04 F6000.0
M3 F6000.0
G01 X69.4 Y116.22 F6000.0
M5
G00 X69.58 Y116.31 F6000.0
M3 F6000.0
G01 X69.86 Y116.42 F6000.0
G01 X71.07 Y116.87 F6000.0
M5
G00 X71.44 Y116.96 F6000.0
M3 F6000.0
G01 X71.9 Y117.06 F6000.0
M5
G00 X72.36 Y117.15 F6000.0
M3 F6000.0
G01 X73.29 Y117.52 F6000.0
M5
G00 X73.57 Y117.61 F6000.0
M3 F6000.0
G01 X73.79 Y117.69 F6000.0
G01 X74.96 Y118.08 F6000.0
M5
G00 X75.24 Y118.17 F6000.0
M3 F6000.0
G01 X75.4 Y118.23 F6000.0
G01 X77.29 Y118.89 F6000.0
G01 X78.39 Y119.28 F6000.0
M5
G00 X78.58 Y119.28 F6000.0
M3 F6000.0
G01 X78.86 Y119.38 F6000.0
M5
G00 X79.04 Y119.47 F6000.0
M3 F6000.0
G01 X79.32 Y119.56 F6000.0
M5
G00 X79.6 Y119.65 F6000.0
M3 F6000.0
G01 X80.06 Y119.84 F6000.0
M5
G00 X80.44 Y119.93 F6000.0
M3 F6000.0
G01 X80.62 Y120.03 F6000.0
M5
G00 X80.9 Y120.12 F6000.0
M3 F6000.0
G01 X81.36 Y120.3 F6000.0
M5
G00 X81.55 Y120.3 F6000.0
M3 F6000.0
G01 X82.2 Y120.58 F6000.0
M5
G00 X82.38 Y120.67 F6000.0
M3 F6000.0
G01 X82.66 Y120.77 F6000.0
M5
G00 X82.94 Y120.86 F6000.0
M3 F6000.0
G01 X83.31 Y120.95 F6000.0
M5
G00 X83.5 Y121.05 F6000.0
M3 F6000.0
G01 X83.96 Y121.14 F6000.0
M5
G00 X84.24 Y121.23 F6000.0
M3 F6000.0
G01 X84.89 Y121.42 F6000.0
M5
G00 X85.08 Y121.51 F6000.0
M3 F6000.0
G01 X85.82 Y121.79 F6000.0
M5
G00 X86.09 Y121.88 F6000.0
M3 F6000.0
G01 X86.56 Y122.07 F6000.0
M5
G00 X86.84 Y122.16 F6000.0
M3 F6000.0
G01 X87.3 Y122.34 F6000.0
M5
G00 X88.6 Y122.81 F6000.0
M3 F6000.0
G01 X88.52 Y122.78 F6000.0
G01 X87.49 Y122.44 F6000.0
M5
G00 X88.78 Y122.81 F6000.0
M3 F6000.0
G01 X88.97 F6000.0
M5
G00 X89.16 Y122.81 F6000.0
M3 F6000.0
G01 X89.28 Y122.85 F6000.0
G01 X90.36 Y123.18 F6000.0
M5
G00 X90.55 Y123.18 F6000.0
M3 F6000.0
G01 X91.03 Y123.25 F6000.0
G01 X92.5 Y123.46 F6000.0
M5
G00 X92.87 Y123.36 F6000.0
M3 F6000.0
G01 X93.24 F6000.0
M5
G00 X93.42 Y123.27 F6000.0
M3 F6000.0
G01 X93.85 Y123.23 F6000.0
G01 X95.28 Y123.09 F6000.0
M5
G00 X95.65 Y123.09 F6000.0
M3 F6000.0
G01 X95.84 F6000.0
M5
G00 X96.02 Y122.99 F6000.0
M3 F6000.0
G01 X96.3 Y122.9 F6000.0
M5
G00 X96.58 Y122.9 F6000.0
M3 F6000.0
G01 X97.14 Y122.72 F6000.0
M5
G00 X97.32 Y122.72 F6000.0
M3 F6000.0
G01 X97.41 F6000.0
M5
G00 X96.49 Y119.1 F6000.0
M3 F6000.0
G01 X96.95 Y118.91 F6000.0
M5
G00 X96.95 Y118.26 F6000.0
M3 F6000.0
G01 X97.32 Y118.36 F6000.0
M5
G00 X96.21 Y118.17 F6000.0
M3 F6000.0
G01 X96.67 Y118.26 F6000.0
M5
G00 X96.02 Y118.26 F6000.0
M3 F6000.0
G01 X95.28 Y118.08 F6000.0
M5
G00 X95.09 Y118.54 F6000.0
M3 F6000.0
G01 X94.86 Y118.14 F6000.0
G01 X94.44 Y117.98 F6000.0
M5
G00 X94.44 Y118.36 F6000.0
M3 F6000.0
G01 Y118.26 F6000.0
M5
G00 X93.98 Y117.89 F6000.0
M3 F6000.0
G01 X94.26 F6000.0
M5
G00 X93.7 Y117.89 F6000.0
M3 F6000.0
G01 X93.8 F6000.0
M5
G00 X93.42 Y117.89 F6000.0
M3 F6000.0
G01 Y117.8 F6000.0
M5
G00 X93.15 Y118.17 F6000.0
M3 F6000.0
G01 X93.05 Y118.08 F6000.0
M5
G00 X92.87 Y117.8 F6000.0
M3 F6000.0
G01 X93.05 F6000.0
M5
G00 X92.5 Y117.89 F6000.0
M3 F6000.0
G01 X92.68 Y117.71 F6000.0
M5
G00 X92.31 Y117.71 F6000.0
M3 F6000.0
G01 X92.4 F6000.0
M5
G00 X91.94 Y117.98 F6000.0
M3 F6000.0
G01 X92.5 Y118.17 F6000.0
M5
G00 X92.68 Y118.26 F6000.0
M3 F6000.0
G01 X92.87 Y118.45 F6000.0
M5
G00 X93.05 Y118.54 F6000.0
M3 F6000.0
G01 X93.42 Y118.45 F6000.0
M5
G00 X91.75 Y117.52 F6000.0
M3 F6000.0
G01 X92.12 Y117.61 F6000.0
M5
G00 X91.29 Y117.52 F6000.0
M3 F6000.0
G01 X91.48 F6000.0
M5
G00 X90.46 Y117.98 F6000.0
M3 F6000.0
G01 X90.92 Y117.52 F6000.0
M5
G00 X89.99 Y117.34 F6000.0
M3 F6000.0
G01 X90.46 F6000.0
M5
G00 X89.9 Y117.8 F6000.0
M3 F6000.0
G01 X89.99 F6000.0
M5
G00 X89.25 Y117.15 F6000.0
M3 F6000.0
G01 X89.62 Y117.24 F6000.0
M5
G00 X88.69 Y117.15 F6000.0
M3 F6000.0
G01 X89.06 F6000.0
M5
G00 X87.77 Y117.24 F6000.0
M3 F6000.0
G01 X88.14 Y117.43 F6000.0
M5
G00 X87.58 Y117.43 F6000.0
M3 F6000.0
G01 X87.77 F6000.0
M5
G00 X86.84 Y117.8 F6000.0
M3 F6000.0
G01 X87.12 Y117.61 F6000.0
M5
G00 X86.19 Y117.61 F6000.0
M3 F6000.0
G01 Y117.52 F6000.0
M5
G00 X85.63 Y117.89 F6000.0
M3 F6000.0
G01 X85.72 Y117.8 F6000.0
M5
G00 X85.54 Y118.26 F6000.0
M3 F6000.0
G01 X85.63 F6000.0
M5
G00 X85.82 Y118.36 F6000.0
M3 F6000.0
G01 X85.91 Y118.26 F6000.0
M5
G00 X85.45 Y118.45 F6000.0
M3 F6000.0
G01 X85.54 F6000.0
M5
G00 X85.26 Y118.54 F6000.0
M3 F6000.0
G01 Y118.45 F6000.0
M5
G00 X85.17 Y118.26 F6000.0
M3 F6000.0
G01 X85.26 F6000.0
M5
G00 X84.42 Y117.43 F6000.0
M3 F6000.0
G01 X84.33 Y117.34 F6000.0
M5
G00 X84.15 Y117.24 F6000.0
M3 F6000.0
G01 Y117.15 F6000.0
M5
G00 X84.52 Y116.5 F6000.0
M3 F6000.0
G01 X84.8 F6000.0
M5
G00 X84.8 Y116.22 F6000.0
M3 F6000.0
G01 X84.89 F6000.0
M5
G00 X84.24 Y116.41 F6000.0
M3 F6000.0
G01 X84.33 F6000.0
M5
G00 X83.5 Y116.13 F6000.0
M3 F6000.0
G01 X84.05 Y116.31 F6000.0
M5
G00 X83.41 Y116.69 F6000.0
M3 F6000.0
G01 X83.5 Y116.59 F6000.0
M5
G00 X83.31 Y116.22 F6000.0
M3 F6000.0
G01 Y116.13 F6000.0
M5
G00 X82.48 Y115.85 F6000.0
M3 F6000.0
G01 X82.66 Y115.94 F6000.0
M5
G00 X82.29 Y115.94 F6000.0
M3 F6000.0
G01 X81.73 Y115.66 F6000.0
M5
G00 X82.11 Y116.41 F6000.0
M3 F6000.0
G01 X82.01 Y116.13 F6000.0
M5
G00 X82.48 Y116.69 F6000.0
M3 F6000.0
G01 X82.75 F6000.0
M5
G00 X83.5 Y117.52 F6000.0
M3 F6000.0
G01 X82.94 Y116.87 F6000.0
M5
G00 X83.96 Y117.98 F6000.0
M3 F6000.0
G01 X83.68 Y117.61 F6000.0
M5
G00 X86.19 Y116.69 F6000.0
M3 F6000.0
G01 X85.26 Y116.41 F6000.0
M5
G00 X86.37 Y116.69 F6000.0
M3 F6000.0
G01 X86.45 Y116.7 F6000.0
G01 X87.44 Y116.87 F6000.0
G01 X88.51 Y117.06 F6000.0
M5
G00 X87.67 Y111.4 F6000.0
M3 F6000.0
G01 X87.74 Y111.36 F6000.0
G01 X88.69 Y110.84 F6000.0
M5
G00 X88.88 Y110.84 F6000.0
M3 F6000.0
G01 X89.16 F6000.0
M5
G00 X89.53 Y110.84 F6000.0
M3 F6000.0
G01 X89.34 Y110.56 F6000.0
M5
G00 X89.71 Y110.66 F6000.0
M3 F6000.0
G01 X89.9 Y110.84 F6000.0
M5
G00 X89.62 Y110.28 F6000.0
M3 F6000.0
G01 X89.99 Y110.1 F6000.0
M5
G00 X89.99 Y109.82 F6000.0
M3 F6000.0
G01 X90.08 F6000.0
M5
G00 X90.27 Y110. F6000.0
M3 F6000.0
G01 X90.73 F6000.0
M5
G00 X90.83 Y110.19 F6000.0
M3 F6000.0
G01 X91.01 Y110.1 F6000.0
M5
G00 X91.48 Y109.73 F6000.0
M3 F6000.0
G01 X91.38 Y109.63 F6000.0
M5
G00 X91.75 Y109.63 F6000.0
M3 F6000.0
G01 Y109.54 F6000.0
M5
G00 X91.66 Y109.26 F6000.0
M3 F6000.0
G01 X92.22 Y109.36 F6000.0
M5
G00 X92.4 Y109.45 F6000.0
M3 F6000.0
G01 X92.5 F6000.0
M5
G00 X92.31 Y109.63 F6000.0
M3 F6000.0
G01 X92.4 F6000.0
M5
G00 X92.12 Y109.82 F6000.0
M3 F6000.0
G01 X92.22 F6000.0
M5
G00 X92.78 Y109.45 F6000.0
M3 F6000.0
G01 X92.96 Y109.54 F6000.0
M5
G00 X93.42 Y109.63 F6000.0
M3 F6000.0
G01 X93.24 Y109.54 F6000.0
M5
G00 X93.89 Y110. F6000.0
M3 F6000.0
G01 X93.98 Y109.82 F6000.0
G01 X93.61 Y109.63 F6000.0
M5
G00 X94.17 Y110.28 F6000.0
M3 F6000.0
G01 X94.63 Y110.38 F6000.0
M5
G00 X94.44 Y110.19 F6000.0
M3 F6000.0
G01 X94.26 Y109.82 F6000.0
M5
G00 X94.26 Y110.66 F6000.0
M3 F6000.0
G01 X94.17 Y110.56 F6000.0
M5
G00 X93.89 Y111.12 F6000.0
M3 F6000.0
G01 X94.07 Y111.03 F6000.0
M5
G00 X94.17 Y111.4 F6000.0
M3 F6000.0
G01 X94.44 F6000.0
M5
G00 X94.91 Y110.66 F6000.0
M3 F6000.0
G01 X95.0 F6000.0
M5
G00 X95.19 Y110.93 F6000.0
M3 F6000.0
G01 X95.09 Y110.84 F6000.0
M5
G00 X95.37 Y111.03 F6000.0
M3 F6000.0
G01 Y110.75 F6000.0
M5
G00 X95.47 Y110.1 F6000.0
M3 F6000.0
G01 X96.21 Y110.19 F6000.0
M5
G00 X96.86 Y110.38 F6000.0
M3 F6000.0
G01 X96.95 Y110.28 F6000.0
M5
G00 X97.14 Y110.56 F6000.0
M3 F6000.0
G01 X97.32 Y110.47 F6000.0
M5
G00 X97.23 Y110.75 F6000.0
M3 F6000.0
G01 X97.32 Y110.66 F6000.0
M5
G00 X97.32 Y111.21 F6000.0
M3 F6000.0
G01 X97.23 Y111.03 F6000.0
M5
G00 X95.93 Y112.05 F6000.0
M3 F6000.0
G01 X96.02 F6000.0
M5
G00 X95.47 Y112.23 F6000.0
M3 F6000.0
G01 X95.65 Y111.4 F6000.0
G01 X95.84 Y111.49 F6000.0
M5
G00 X94.91 Y112.14 F6000.0
M3 F6000.0
G01 X95.0 Y112.05 F6000.0
M5
G00 X94.91 Y112.42 F6000.0
M3 F6000.0
G01 X95.0 Y112.33 F6000.0
M5
G00 X94.63 Y113.16 F6000.0
M3 F6000.0
G01 X94.7 Y113.09 F6000.0
G01 X95.51 Y112.34 F6000.0
G01 X96.29 Y112.22 F6000.0
G01 X96.37 Y112.11 F6000.0
G01 X97.04 Y111.21 F6000.0
M5
G00 X95.28 Y110.1 F6000.0
M3 F6000.0
G01 X94.44 Y109.91 F6000.0
M5
G00 X91.94 Y111.49 F6000.0
M3 F6000.0
G01 X92.22 Y111.58 F6000.0
M5
G00 X91.66 Y111.3 F6000.0
M3 F6000.0
G01 X91.41 Y110.68 F6000.0
G01 X91.48 Y110.0 F6000.0
M5
G00 X90.92 Y109.17 F6000.0
M3 F6000.0
G01 X90.55 Y108.98 F6000.0
M5
G00 X90.64 Y109.17 F6000.0
M3 F6000.0
G01 X90.36 Y108.89 F6000.0
M5
G00 X89.99 Y108.8 F6000.0
M3 F6000.0
G01 X90.18 F6000.0
M5
G00 X89.71 Y108.8 F6000.0
M3 F6000.0
G01 X89.81 Y108.71 F6000.0
M5
G00 X89.25 Y108.61 F6000.0
M3 F6000.0
G01 X89.53 F6000.0
M5
G00 X88.6 Y108.43 F6000.0
M3 F6000.0
G01 X88.88 Y108.52 F6000.0
M5
G00 X89.44 Y109.73 F6000.0
M3 F6000.0
G01 X89.53 Y109.63 F6000.0
M5
G00 X89.25 Y109.91 F6000.0
M3 F6000.0
G01 X89.34 F6000.0
M5
G00 X88.51 Y110.84 F6000.0
M3 F6000.0
G01 X88.14 Y110.38 F6000.0
M5
G00 X87.86 Y110.38 F6000.0
M3 F6000.0
G01 X87.95 Y110.19 F6000.0
M5
G00 X87.95 Y109.91 F6000.0
M3 F6000.0
G01 Y109.73 F6000.0
M5
G00 X87.67 Y109.91 F6000.0
M3 F6000.0
G01 X87.77 F6000.0
M5
G00 X87.77 Y109.26 F6000.0
M3 F6000.0
G01 X87.86 Y109.17 F6000.0
M5
G00 X87.58 Y108.15 F6000.0
M3 F6000.0
G01 X88.41 Y108.34 F6000.0
M5
G00 X86.65 Y107.87 F6000.0
M3 F6000.0
G01 X87.21 Y108.06 F6000.0
M5
G00 X86.56 Y108.34 F6000.0
M3 F6000.0
G01 X86.65 Y108.24 F6000.0
M5
G00 X86.19 Y107.78 F6000.0
M3 F6000.0
G01 X86.28 F6000.0
M5
G00 X85.91 Y107.69 F6000.0
M3 F6000.0
G01 X86.0 F6000.0
M5
G00 X85.54 Y107.59 F6000.0
M3 F6000.0
G01 X85.72 F6000.0
M5
G00 X85.17 Y107.87 F6000.0
M3 F6000.0
G01 Y107.5 F6000.0
M5
G00 X85.17 Y108.06 F6000.0
M3 F6000.0
G01 X85.19 Y108.08 F6000.0
G01 X85.82 Y108.89 F6000.0
M5
G00 X86.09 Y109.17 F6000.0
M3 F6000.0
G01 X86.19 Y108.71 F6000.0
M5
G00 X86.56 Y110.47 F6000.0
M3 F6000.0
G01 X86.75 Y110.66 F6000.0
M5
G00 X86.84 Y110.84 F6000.0
M3 F6000.0
G01 X87.49 Y111.4 F6000.0
M5
G00 X86.28 Y110.66 F6000.0
M3 F6000.0
G01 X86.25 Y110.54 F6000.0
G01 X86.0 Y109.45 F6000.0
M5
G00 X84.42 Y107.31 F6000.0
M3 F6000.0
G01 X84.52 F6000.0
M5
G00 X84.33 Y106.76 F6000.0
M3 F6000.0
G01 X84.42 F6000.0
M5
G00 X83.87 Y107.04 F6000.0
M3 F6000.0
G01 X83.96 Y106.76 F6000.0
M5
G00 X83.5 Y106.85 F6000.0
M3 F6000.0
G01 Y106.76 F6000.0
M5
G00 X83.31 Y107.5 F6000.0
M3 F6000.0
G01 X82.66 Y107.04 F6000.0
M5
G00 X82.2 Y106.94 F6000.0
M3 F6000.0
G01 X82.38 F6000.0
M5
G00 X82.38 Y106.48 F6000.0
M3 F6000.0
G01 X82.48 F6000.0
M5
G00 X82.11 Y106.39 F6000.0
M3 F6000.0
G01 X82.2 F6000.0
M5
G00 X81.73 Y106.39 F6000.0
M3 F6000.0
G01 X81.83 F6000.0
M5
G00 X81.27 Y106.76 F6000.0
M3 F6000.0
G01 X81.36 F6000.0
M5
G00 X80.9 Y106.67 F6000.0
M3 F6000.0
G01 X80.99 F6000.0
M5
G00 X81.08 Y106.2 F6000.0
M3 F6000.0
G01 X81.27 F6000.0
M5
G00 X80.44 Y106.57 F6000.0
M3 F6000.0
G01 X80.53 F6000.0
M5
G00 X79.6 Y106.67 F6000.0
M3 F6000.0
G01 X79.69 Y106.11 F6000.0
M5
G00 X79.6 Y105.92 F6000.0
M3 F6000.0
G01 X79.69 Y105.74 F6000.0
M5
G00 X79.14 Y105.37 F6000.0
M3 F6000.0
G01 X79.23 F6000.0
M5
G00 X79.14 Y105.18 F6000.0
M3 F6000.0
G01 Y105.09 F6000.0
M5
G00 X79.23 Y104.25 F6000.0
M3 F6000.0
G01 X79.42 Y104.07 F6000.0
G01 X79.04 Y104.16 F6000.0
M5
G00 X79.42 Y103.97 F6000.0
M3 F6000.0
G01 X80.02 Y103.28 F6000.0
G01 X80.25 Y102.4 F6000.0
M5
G00 X80.06 Y102.49 F6000.0
M3 F6000.0
G01 X79.88 Y102.21 F6000.0
M5
G00 X79.6 Y102.03 F6000.0
M3 F6000.0
G01 X79.32 Y101.93 F6000.0
M5
G00 X79.42 Y102.12 F6000.0
M3 F6000.0
G01 X79.14 Y101.84 F6000.0
M5
G00 X78.95 Y101.75 F6000.0
M3 F6000.0
G01 X78.86 Y101.56 F6000.0
M5
G00 X79.04 Y101.47 F6000.0
M3 F6000.0
G01 Y101.28 F6000.0
M5
G00 X79.42 Y101.28 F6000.0
M3 F6000.0
G01 F6000.0
G01 X80.25 Y100.73 F6000.0
M5
G00 X80.34 Y100.91 F6000.0
M3 F6000.0
G01 X80.53 Y100.73 F6000.0
M5
G00 X80.44 Y100.54 F6000.0
M3 F6000.0
G01 X80.53 Y100.36 F6000.0
M5
G00 X80.71 Y100.26 F6000.0
M3 F6000.0
G01 X81.55 Y100.08 F6000.0
M5
G00 X81.92 Y99.99 F6000.0
M3 F6000.0
G01 X82.11 Y99.89 F6000.0
M5
G00 X82.11 Y100.17 F6000.0
M3 F6000.0
G01 X82.2 F6000.0
M5
G00 X82.48 Y100.08 F6000.0
M3 F6000.0
G01 X82.66 F6000.0
M5
G00 X82.66 Y99.62 F6000.0
M3 F6000.0
G01 X82.57 Y99.43 F6000.0
M5
G00 X82.11 Y99.52 F6000.0
M3 F6000.0
G01 X82.2 Y99.43 F6000.0
M5
G00 X83.13 Y99.15 F6000.0
M3 F6000.0
G01 X83.31 Y99.24 F6000.0
M5
G00 X83.59 Y99.06 F6000.0
M3 F6000.0
G01 X83.78 Y98.97 F6000.0
M5
G00 X83.96 Y98.97 F6000.0
M3 F6000.0
G01 X84.89 Y98.59 F6000.0
M5
G00 X85.17 Y98.59 F6000.0
M3 F6000.0
G01 X85.45 Y98.5 F6000.0
M5
G00 X85.63 Y98.41 F6000.0
M3 F6000.0
G01 X85.76 Y98.37 F6000.0
G01 X86.84 Y98.04 F6000.0
M5
G00 X87.3 Y97.85 F6000.0
M3 F6000.0
G01 X88.04 Y97.57 F6000.0
M5
G00 X88.41 Y97.11 F6000.0
M3 F6000.0
G01 X88.51 F6000.0
M5
G00 X88.14 Y96.46 F6000.0
M3 F6000.0
G01 X88.41 Y96.65 F6000.0
M5
G00 X88.14 Y96.28 F6000.0
M3 F6000.0
G01 Y96.18 F6000.0
M5
G00 X87.77 Y96.55 F6000.0
M3 F6000.0
G01 X87.86 F6000.0
M5
G00 X87.3 Y96.37 F6000.0
M3 F6000.0
G01 X87.39 F6000.0
M5
G00 X87.39 Y96.18 F6000.0
M3 F6000.0
G01 X87.49 F6000.0
M5
G00 X87.02 Y96.28 F6000.0
M3 F6000.0
G01 X87.12 F6000.0
M5
G00 X86.93 Y96. F6000.0
M3 F6000.0
G01 X87.3 F6000.0
M5
G00 X86.93 Y95.72 F6000.0
M3 F6000.0
G01 X87.02 F6000.0
M5
G00 X86.37 Y95.44 F6000.0
M3 F6000.0
G01 X86.47 F6000.0
M5
G00 X85.72 Y95.25 F6000.0
M3 F6000.0
G01 X85.91 Y95.16 F6000.0
M5
G00 X84.98 Y95.25 F6000.0
M3 F6000.0
G01 X85.35 F6000.0
M5
G00 X84.15 Y95.53 F6000.0
M3 F6000.0
G01 Y95.44 F6000.0
M5
G00 X84.24 Y94.51 F6000.0
M3 F6000.0
G01 X84.42 Y94.42 F6000.0
M5
G00 X83.31 Y94.88 F6000.0
M3 F6000.0
G01 X83.5 Y94.42 F6000.0
M5
G00 X83.13 Y94.14 F6000.0
M3 F6000.0
G01 X83.31 Y94.23 F6000.0
M5
G00 X82.85 Y94.14 F6000.0
M3 F6000.0
G01 X82.94 F6000.0
M5
G00 X82.85 Y94.79 F6000.0
M3 F6000.0
G01 X82.94 F6000.0
M5
G00 X81.46 Y95.25 F6000.0
M3 F6000.0
G01 Y95.16 F6000.0
M5
G00 X80.16 Y93.77 F6000.0
M3 F6000.0
G01 Y93.68 F6000.0
M5
G00 X79.88 Y93.77 F6000.0
M3 F6000.0
G01 X79.97 F6000.0
M5
G00 X79.69 Y93.59 F6000.0
M3 F6000.0
G01 X79.79 F6000.0
M5
G00 X79.32 Y93.21 F6000.0
M3 F6000.0
G01 X79.6 Y93.03 F6000.0
M5
G00 X80.71 Y93.12 F6000.0
M3 F6000.0
G01 X81.18 F6000.0
M5
G00 X81.36 Y93.12 F6000.0
M3 F6000.0
G01 X81.64 F6000.0
M5
G00 X81.18 Y92.84 F6000.0
M3 F6000.0
G01 X81.27 F6000.0
M5
G00 X78.49 Y93.31 F6000.0
M3 F6000.0
G01 X78.58 Y93.21 F6000.0
M5
G00 X77.56 Y93.49 F6000.0
M3 F6000.0
G01 X77.84 Y93.21 F6000.0
M5
G00 X76.08 Y91.08 F6000.0
M3 F6000.0
G01 X76.17 F6000.0
M5
G00 X75.7 Y90.89 F6000.0
M3 F6000.0
G01 X75.89 F6000.0
M5
G00 X74.96 Y90.8 F6000.0
M3 F6000.0
G01 X75.24 Y90.71 F6000.0
M5
G00 X74.78 Y90.52 F6000.0
M3 F6000.0
G01 X74.96 F6000.0
M5
G00 X74.59 Y90.34 F6000.0
M3 F6000.0
G01 X74.68 F6000.0
M5
G00 X74.22 Y91.17 F6000.0
M3 F6000.0
G01 X74.13 Y91.08 F6000.0
M5
G00 X73.85 Y90.89 F6000.0
M3 F6000.0
G01 X73.76 Y90.8 F6000.0
M5
G00 X73.66 Y90.62 F6000.0
M3 F6000.0
G01 X73.57 Y90.52 F6000.0
M5
G00 X73.11 Y90.62 F6000.0
M3 F6000.0
G01 Y90.52 F6000.0
M5
G00 X72.64 Y90.62 F6000.0
M3 F6000.0
G01 Y90.52 F6000.0
M5
G00 X72.64 Y90.25 F6000.0
M3 F6000.0
G01 X72.36 Y89.97 F6000.0
M5
G00 X72.36 Y89.69 F6000.0
M3 F6000.0
G01 X72.46 F6000.0
M5
G00 X72.64 Y89.59 F6000.0
M3 F6000.0
G01 X73.01 Y89.5 F6000.0
M5
G00 X73.2 Y89.41 F6000.0
M3 F6000.0
G01 X73.39 Y89.32 F6000.0
M5
G00 X73.29 Y89.97 F6000.0
M3 F6000.0
G01 X73.38 Y89.99 F6000.0
G01 X74.41 Y90.34 F6000.0
M5
G00 X73.76 Y91.45 F6000.0
M3 F6000.0
G01 Y91.27 F6000.0
M5
G00 X71.99 Y90.34 F6000.0
M3 F6000.0
G01 X71.72 Y89.97 F6000.0
M5
G00 X71.81 Y89.41 F6000.0
M3 F6000.0
G01 X72.64 Y89.32 F6000.0
M5
G00 X71.16 Y89.04 F6000.0
M3 F6000.0
G01 X71.25 F6000.0
M5
G00 X70.14 Y88.67 F6000.0
M3 F6000.0
G01 X70.6 Y88.58 F6000.0
M5
G00 X69.77 Y88.58 F6000.0
M3 F6000.0
G01 X69.86 F6000.0
M5
G00 X69.49 Y88.39 F6000.0
M3 F6000.0
G01 X69.58 F6000.0
M5
G00 X69.03 Y88.11 F6000.0
M3 F6000.0
G01 X69.3 Y88.2 F6000.0
M5
G00 X69.21 Y89.04 F6000.0
M3 F6000.0
G01 X69.03 Y88.95 F6000.0
M5
G00 X68.84 Y89.13 F6000.0
M3 F6000.0
G01 X68.28 Y88.48 F6000.0
M5
G00 X68.28 Y88.2 F6000.0
M3 F6000.0
G01 X68.75 Y88.58 F6000.0
M5
G00 X68.28 Y88.85 F6000.0
M3 F6000.0
G01 X68.19 Y88.76 F6000.0
M5
G00 X68.19 Y89.04 F6000.0
M3 F6000.0
G01 X68.0 Y88.76 F6000.0
M5
G00 X67.73 Y88.58 F6000.0
M3 F6000.0
G01 X67.82 F6000.0
M5
G00 X68. Y88.2 F6000.0
M3 F6000.0
G01 X67.91 Y88.11 F6000.0
M5
G00 X68.47 Y87.83 F6000.0
M3 F6000.0
G01 X68.84 Y88.02 F6000.0
M5
G00 X68.65 Y87.09 F6000.0
M3 F6000.0
G01 X68.93 Y87.0 F6000.0
M5
G00 X69.49 Y87.28 F6000.0
M3 F6000.0
G01 X69.58 F6000.0
M5
G00 X68.19 Y86.72 F6000.0
M3 F6000.0
G01 X68.38 F6000.0
M5
G00 X67.54 Y86.63 F6000.0
M3 F6000.0
G01 X67.82 Y86.53 F6000.0
M5
G00 X67.17 Y86.72 F6000.0
M3 F6000.0
G01 X67.26 F6000.0
M5
G00 X67.08 Y86.44 F6000.0
M3 F6000.0
G01 X67.26 F6000.0
M5
G00 X67.26 Y87.55 F6000.0
M3 F6000.0
G01 X67.36 F6000.0
M5
G00 X66.43 Y88.58 F6000.0
M3 F6000.0
G01 Y88.48 F6000.0
M5
G00 X67.63 Y89.32 F6000.0
M3 F6000.0
G01 X67.45 Y88.76 F6000.0
M5
G00 X68.65 Y91.73 F6000.0
M3 F6000.0
G01 X68.84 Y91.45 F6000.0
M5
G00 X70.23 Y91.54 F6000.0
M3 F6000.0
G01 X70.32 Y91.36 F6000.0
M5
G00 X70.14 Y90.89 F6000.0
M3 F6000.0
G01 Y90.8 F6000.0
M5
G00 X71.62 Y90.62 F6000.0
M3 F6000.0
G01 X71.53 Y90.34 F6000.0
M5
G00 X71.34 Y84.03 F6000.0
M3 F6000.0
G01 X71.44 F6000.0
M5
G00 X70.42 Y83.47 F6000.0
M3 F6000.0
G01 X70.79 Y83.38 F6000.0
M5
G00 X68.84 Y82.08 F6000.0
M3 F6000.0
G01 X68.93 F6000.0
M5
G00 X67.73 Y82.17 F6000.0
M3 F6000.0
G01 X67.91 Y82.08 F6000.0
M5
G00 X71.07 Y78.93 F6000.0
M3 F6000.0
G01 X71.16 F6000.0
M5
G00 X71.62 Y79.02 F6000.0
M3 F6000.0
G01 X71.81 F6000.0
M5
G00 X71.99 Y79.02 F6000.0
M3 F6000.0
G01 X72.27 F6000.0
M5
G00 X72.46 Y79.3 F6000.0
M3 F6000.0
G01 X72.55 F6000.0
M5
G00 X72.83 Y79.39 F6000.0
M3 F6000.0
G01 X72.92 F6000.0
M5
G00 X73.29 Y79.67 F6000.0
M3 F6000.0
G01 X73.66 Y79.48 F6000.0
M5
G00 X74.03 Y79.67 F6000.0
M3 F6000.0
G01 X74.13 F6000.0
M5
G00 X73.76 Y79.95 F6000.0
M3 F6000.0
G01 X73.94 Y79.85 F6000.0
M5
G00 X73.94 Y80.5 F6000.0
M3 F6000.0
G01 X74.41 Y79.95 F6000.0
M5
G00 X74.41 Y80.78 F6000.0
M3 F6000.0
G01 X74.5 Y80.6 F6000.0
M5
G00 X74.5 Y80.97 F6000.0
M3 F6000.0
G01 X74.68 Y80.69 F6000.0
M5
G00 X73.94 Y81.15 F6000.0
M3 F6000.0
G01 X74.22 Y80.88 F6000.0
M5
G00 X74.31 Y81.89 F6000.0
M3 F6000.0
G01 X74.41 Y81.8 F6000.0
M5
G00 X74.68 Y81.89 F6000.0
M3 F6000.0
G01 X75.24 Y81.34 F6000.0
M5
G00 X75.8 Y81.99 F6000.0
M3 F6000.0
G01 X76.17 Y81.34 F6000.0
M5
G00 X76.26 Y81.15 F6000.0
M3 F6000.0
G01 Y81.06 F6000.0
M5
G00 X76.63 Y81.43 F6000.0
M3 F6000.0
G01 Y81.34 F6000.0
M5
G00 X76.63 Y82.17 F6000.0
M3 F6000.0
G01 Y82.08 F6000.0
M5
G00 X77.28 Y82.55 F6000.0
M3 F6000.0
G01 X77.37 Y82.36 F6000.0
M5
G00 X78.12 Y82.82 F6000.0
M3 F6000.0
G01 Y82.73 F6000.0
M5
G00 X78.39 Y81.62 F6000.0
M3 F6000.0
G01 X78.3 Y81.52 F6000.0
M5
G00 X78.49 Y84.03 F6000.0
M3 F6000.0
G01 X78.39 Y83.94 F6000.0
M5
G00 X78.95 Y84.68 F6000.0
M3 F6000.0
G01 X79.32 Y84.12 F6000.0
M5
G00 X79.51 Y84.31 F6000.0
M3 F6000.0
G01 Y84.22 F6000.0
M5
G00 X80.16 Y84.96 F6000.0
M3 F6000.0
G01 X80.25 Y84.86 F6000.0
M5
G00 X80.06 Y85.23 F6000.0
M3 F6000.0
G01 X80.16 Y85.14 F6000.0
M5
G00 X79.79 Y85.23 F6000.0
M3 F6000.0
G01 Y85.14 F6000.0
M5
G00 X79.6 Y85.42 F6000.0
M3 F6000.0
G01 X79.69 F6000.0
M5
G00 X80.62 Y85.51 F6000.0
M3 F6000.0
G01 Y85.42 F6000.0
M5
G00 X81.08 Y85.61 F6000.0
M3 F6000.0
G01 X81.18 F6000.0
M5
G00 X80.71 Y85.98 F6000.0
M3 F6000.0
G01 X80.81 Y85.79 F6000.0
M5
G00 X81.18 Y86.44 F6000.0
M3 F6000.0
G01 Y86.26 F6000.0
M5
G00 X81.83 Y86.53 F6000.0
M3 F6000.0
G01 X81.73 Y86.44 F6000.0
M5
G00 X81.64 Y87. F6000.0
M3 F6000.0
G01 Y86.91 F6000.0
M5
G00 X82.01 Y87.09 F6000.0
M3 F6000.0
G01 Y87.0 F6000.0
M5
G00 X80.9 Y87.46 F6000.0
M3 F6000.0
G01 X81.08 Y87.28 F6000.0
M5
G00 X83.59 Y88.2 F6000.0
M3 F6000.0
G01 X83.68 Y88.02 F6000.0
M5
G00 X85.08 Y89.04 F6000.0
M3 F6000.0
G01 Y88.95 F6000.0
M5
G00 X85.45 Y89.41 F6000.0
M3 F6000.0
G01 Y89.22 F6000.0
M5
G00 X85.08 Y89.59 F6000.0
M3 F6000.0
G01 X85.17 Y89.5 F6000.0
M5
G00 X86.09 Y89.87 F6000.0
M3 F6000.0
G01 X86.19 Y89.78 F6000.0
M5
G00 X86.19 Y90.06 F6000.0
M3 F6000.0
G01 X86.28 Y90.25 F6000.0
G01 X86.37 Y89.78 F6000.0
M5
G00 X86.19 Y89.5 F6000.0
M3 F6000.0
G01 Y89.41 F6000.0
M5
G00 X86.93 Y89.69 F6000.0
M3 F6000.0
G01 Y89.5 F6000.0
M5
G00 X86.93 Y90.52 F6000.0
M3 F6000.0
G01 Y90.43 F6000.0
M5
G00 X87.3 Y90.62 F6000.0
M3 F6000.0
G01 Y90.06 F6000.0
M5
G00 X87.95 Y90.62 F6000.0
M3 F6000.0
G01 Y90.43 F6000.0
M5
G00 X88.42 Y90.8 F6000.0
M3 F6000.0
G01 Y90.71 F6000.0
M5
G00 X88.42 Y91.17 F6000.0
M3 F6000.0
G01 Y91.08 F6000.0
M5
G00 X88.32 Y91.45 F6000.0
M3 F6000.0
G01 X88.41 Y91.36 F6000.0
M5
G00 X87.77 Y91.08 F6000.0
M3 F6000.0
G01 X87.86 Y90.99 F6000.0
M5
G00 X89.16 Y91.45 F6000.0
M3 F6000.0
G01 Y91.36 F6000.0
M5
G00 X89.44 Y92.01 F6000.0
M3 F6000.0
G01 Y91.91 F6000.0
M5
G00 X89.53 Y93.77 F6000.0
M3 F6000.0
G01 X89.62 Y93.59 F6000.0
M5
G00 X92.59 Y94.05 F6000.0
M3 F6000.0
G01 X92.68 F6000.0
M5
G00 X93.24 Y94.6 F6000.0
M3 F6000.0
G01 X93.42 F6000.0
M5
G00 X93.89 Y95.16 F6000.0
M3 F6000.0
G01 X93.98 F6000.0
M5
G00 X94.07 Y95.72 F6000.0
M3 F6000.0
G01 X94.17 F6000.0
M5
G00 X94.35 Y96. F6000.0
M3 F6000.0
G01 X94.26 Y95.9 F6000.0
M5
G00 X94.07 Y96.28 F6000.0
M3 F6000.0
G01 X94.17 Y96.09 F6000.0
M5
G00 X93.7 Y95.9 F6000.0
M3 F6000.0
G01 X93.8 F6000.0
M5
G00 X93.61 Y95.63 F6000.0
M3 F6000.0
G01 X93.7 F6000.0
M5
G00 X93.8 Y96.74 F6000.0
M3 F6000.0
G01 X93.61 Y96.46 F6000.0
M5
G00 X93.15 Y97.02 F6000.0
M3 F6000.0
G01 X93.61 Y97.11 F6000.0
M5
G00 X92.68 Y97.2 F6000.0
M3 F6000.0
G01 X92.78 F6000.0
M5
G00 X91.66 Y97.57 F6000.0
M3 F6000.0
G01 X92.12 Y97.39 F6000.0
M5
G00 X91.2 Y97.67 F6000.0
M3 F6000.0
G01 X91.38 Y97.57 F6000.0
M5
G00 X90.36 Y97.94 F6000.0
M3 F6000.0
G01 X90.55 F6000.0
M5
G00 X89.9 Y97.94 F6000.0
M3 F6000.0
G01 X89.99 F6000.0
M5
G00 X89.62 Y97.3 F6000.0
M3 F6000.0
G01 X89.71 Y97.2 F6000.0
M5
G00 X88.78 Y98.22 F6000.0
M3 F6000.0
G01 X89.44 Y98.04 F6000.0
M5
G00 X87.95 Y98.41 F6000.0
M3 F6000.0
G01 X88.6 Y98.32 F6000.0
M5
G00 X87.21 Y98.59 F6000.0
M3 F6000.0
G01 X87.67 Y98.41 F6000.0
M5
G00 X86.84 Y98.69 F6000.0
M3 F6000.0
G01 X87.02 Y98.59 F6000.0
M5
G00 X86.47 Y98.78 F6000.0
M3 F6000.0
G01 X86.65 Y98.69 F6000.0
M5
G00 X85.72 Y98.97 F6000.0
M3 F6000.0
G01 X85.82 F6000.0
M5
G00 X85.35 Y99.15 F6000.0
M3 F6000.0
G01 X85.54 Y98.97 F6000.0
M5
G00 X85.08 Y99.43 F6000.0
M3 F6000.0
G01 Y99.24 F6000.0
M5
G00 X84.8 Y99.24 F6000.0
M3 F6000.0
G01 X84.89 F6000.0
M5
G00 X84.8 Y99.62 F6000.0
M3 F6000.0
G01 Y99.52 F6000.0
M5
G00 X84.42 Y99.43 F6000.0
M3 F6000.0
G01 Y99.34 F6000.0
M5
G00 X84.33 Y99.15 F6000.0
M3 F6000.0
G01 Y99.06 F6000.0
M5
G00 X83.68 Y99.52 F6000.0
M3 F6000.0
G01 X84.24 F6000.0
M5
G00 X84.42 Y100.17 F6000.0
M3 F6000.0
G01 Y99.89 F6000.0
M5
G00 X84.89 Y100.08 F6000.0
M3 F6000.0
G01 X84.98 Y99.71 F6000.0
G01 X84.89 Y99.89 F6000.0
M5
G00 X85.35 Y99.71 F6000.0
M3 F6000.0
G01 X85.54 Y99.34 F6000.0
M5
G00 X86.28 Y100.54 F6000.0
M3 F6000.0
G01 X86.65 Y100.64 F6000.0
M5
G00 X87.02 Y100.73 F6000.0
M3 F6000.0
G01 X86.93 Y100.64 F6000.0
M5
G00 X86.93 Y101.38 F6000.0
M3 F6000.0
G01 X87.02 F6000.0
M5
G00 X87.39 Y101.47 F6000.0
M3 F6000.0
G01 X87.58 F6000.0
M5
G00 X87.95 Y101.56 F6000.0
M3 F6000.0
G01 X88.04 F6000.0
M5
G00 X88.23 Y101.66 F6000.0
M3 F6000.0
G01 X88.32 F6000.0
M5
G00 X88.51 Y101.66 F6000.0
M3 F6000.0
G01 X88.78 Y101.75 F6000.0
M5
G00 X88.42 Y102.31 F6000.0
M3 F6000.0
G01 X89.25 Y102.4 F6000.0
M5
G00 X89.06 Y102.4 F6000.0
M3 F6000.0
G01 Y102.39 F6000.0
G01 X88.97 Y101.38 F6000.0
M5
G00 X88.51 Y101.01 F6000.0
M3 F6000.0
G01 X88.6 F6000.0
M5
G00 X88.14 Y100.91 F6000.0
M3 F6000.0
G01 X88.32 Y101.01 F6000.0
M5
G00 X87.67 Y102.31 F6000.0
M3 F6000.0
G01 X88.14 F6000.0
M5
G00 X87.12 Y102.21 F6000.0
M3 F6000.0
G01 X87.49 F6000.0
M5
G00 X86.84 Y102.12 F6000.0
M3 F6000.0
G01 X86.93 F6000.0
M5
G00 X86.37 Y101.93 F6000.0
M3 F6000.0
G01 X86.65 Y102.12 F6000.0
M5
G00 X86.37 Y101.66 F6000.0
M3 F6000.0
G01 Y101.28 F6000.0
M5
G00 X86.09 Y101.47 F6000.0
M3 F6000.0
G01 X86.19 F6000.0
M5
G00 X86.09 Y101.75 F6000.0
M3 F6000.0
G01 Y101.66 F6000.0
M5
G00 X86. Y102.4 F6000.0
M3 F6000.0
G01 Y102.31 F6000.0
M5
G00 X86.28 Y102.58 F6000.0
M3 F6000.0
G01 Y102.31 F6000.0
M5
G00 X85.91 Y102.86 F6000.0
M3 F6000.0
G01 X86.19 Y102.77 F6000.0
M5
G00 X85.63 Y102.68 F6000.0
M3 F6000.0
G01 X85.65 Y102.51 F6000.0
G01 X85.77 Y101.52 F6000.0
G01 X85.91 Y100.36 F6000.0
M5
G00 X86.19 Y100.73 F6000.0
M3 F6000.0
G01 X86.37 Y101.01 F6000.0
M5
G00 X85.08 Y101.84 F6000.0
M3 F6000.0
G01 X85.35 F6000.0
M5
G00 X84.42 Y100.82 F6000.0
M3 F6000.0
G01 X84.33 Y100.73 F6000.0
M5
G00 X84.05 Y100.36 F6000.0
M3 F6000.0
G01 Y100.26 F6000.0
M5
G00 X83.78 Y100.36 F6000.0
M3 F6000.0
G01 Y99.99 F6000.0
M5
G00 X83.41 Y99.8 F6000.0
M3 F6000.0
G01 X83.5 Y99.71 F6000.0
M5
G00 X83.41 Y100.26 F6000.0
M3 F6000.0
G01 X83.22 Y99.99 F6000.0
M5
G00 X83.13 Y100.36 F6000.0
M3 F6000.0
G01 X82.94 Y99.99 F6000.0
M5
G00 X83.41 Y100.45 F6000.0
M3 F6000.0
G01 X83.59 Y100.54 F6000.0
M5
G00 X83.78 Y100.64 F6000.0
M3 F6000.0
G01 X83.96 F6000.0
M5
G00 X83.31 Y101.38 F6000.0
M3 F6000.0
G01 X83.41 F6000.0
M5
G00 X83.03 Y101.28 F6000.0
M3 F6000.0
G01 X83.13 F6000.0
M5
G00 X81.64 Y100.64 F6000.0
M3 F6000.0
G01 X81.73 Y99.99 F6000.0
M5
G00 X80.9 Y100.08 F6000.0
M3 F6000.0
G01 X80.71 Y99.89 F6000.0
G01 X81.18 Y99.99 F6000.0
M5
G00 X80.53 Y99.89 F6000.0
M3 F6000.0
G01 X80.71 F6000.0
M5
G00 X79.88 Y100.17 F6000.0
M3 F6000.0
G01 X80.25 Y99.99 F6000.0
M5
G00 X80.62 Y100.91 F6000.0
M3 F6000.0
G01 X80.71 Y100.82 F6000.0
M5
G00 X80.99 Y100.73 F6000.0
M3 F6000.0
G01 X81.18 F6000.0
M5
G00 X81.27 Y101.1 F6000.0
M3 F6000.0
G01 X81.46 Y101.01 F6000.0
M5
G00 X80.99 Y101.47 F6000.0
M3 F6000.0
G01 X81.08 F6000.0
M5
G00 X80.44 Y101.56 F6000.0
M3 F6000.0
G01 Y101.47 F6000.0
M5
G00 X80.16 Y101.47 F6000.0
M3 F6000.0
G01 X80.59 Y101.87 F6000.0
G01 X81.03 Y101.7 F6000.0
G01 X81.09 Y101.62 F6000.0
G01 X81.73 Y100.73 F6000.0
G01 X81.46 F6000.0
M5
G00 X79.79 Y101.19 F6000.0
M3 F6000.0
G01 X79.97 Y101.38 F6000.0
M5
G00 X79.6 Y101.66 F6000.0
M3 F6000.0
G01 X79.23 Y101.38 F6000.0
M5
G00 X78.67 Y101.47 F6000.0
M3 F6000.0
G01 X78.77 Y101.28 F6000.0
M5
G00 X78.58 Y101.1 F6000.0
M3 F6000.0
G01 X78.49 Y101.01 F6000.0
M5
G00 X78.02 Y101.38 F6000.0
M3 F6000.0
G01 X77.75 Y101.1 F6000.0
M5
G00 X77.75 Y101.38 F6000.0
M3 F6000.0
G01 X77.65 Y101.28 F6000.0
M5
G00 X77.37 Y101.38 F6000.0
M3 F6000.0
G01 X77.28 Y101.28 F6000.0
M5
G00 X77.37 Y101.1 F6000.0
M3 F6000.0
G01 X77.28 Y100.91 F6000.0
M5
G00 X77.56 Y100.64 F6000.0
M3 F6000.0
G01 X77.75 F6000.0
M5
G00 X77.93 Y100.64 F6000.0
M3 F6000.0
G01 X78.2 Y100.55 F6000.0
G01 X79.42 Y100.17 F6000.0
M5
G00 X79.6 Y100.82 F6000.0
M3 F6000.0
G01 X79.79 F6000.0
M5
G00 X79.69 Y101.84 F6000.0
M3 F6000.0
G01 X80.06 F6000.0
M5
G00 X79.14 Y102.21 F6000.0
M3 F6000.0
G01 Y102.12 F6000.0
M5
G00 X78.77 Y101.84 F6000.0
M3 F6000.0
G01 X78.67 Y101.66 F6000.0
M5
G00 X78.58 Y102.03 F6000.0
M3 F6000.0
G01 Y101.93 F6000.0
M5
G00 X78.39 Y102.31 F6000.0
M3 F6000.0
G01 X78.49 Y102.21 F6000.0
M5
G00 X78.39 Y102.58 F6000.0
M3 F6000.0
G01 X78.95 Y101.93 F6000.0
M5
G00 X78.21 Y101.56 F6000.0
M3 F6000.0
G01 X78.39 Y101.66 F6000.0
M5
G00 X77.75 Y102.03 F6000.0
M3 F6000.0
G01 X77.93 Y101.56 F6000.0
M5
G00 X77.28 Y101.56 F6000.0
M3 F6000.0
G01 X77.37 F6000.0
M5
G00 X77. Y101.28 F6000.0
M3 F6000.0
G01 X76.72 Y101.19 F6000.0
G01 X77.1 Y101.38 F6000.0
M5
G00 X76.82 Y101.75 F6000.0
M3 F6000.0
G01 X77.0 Y101.56 F6000.0
M5
G00 X77. Y101.84 F6000.0
M3 F6000.0
G01 X77.19 Y101.75 F6000.0
M5
G00 X77.1 Y102.21 F6000.0
M3 F6000.0
G01 X77.56 F6000.0
M5
G00 X77.93 Y102.49 F6000.0
M3 F6000.0
G01 X77.65 Y102.31 F6000.0
M5
G00 X77.75 Y102.86 F6000.0
M3 F6000.0
G01 X78.02 Y102.4 F6000.0
M5
G00 X78.3 Y102.77 F6000.0
M3 F6000.0
G01 X78.49 F6000.0
M5
G00 X78.12 Y102.86 F6000.0
M3 F6000.0
G01 Y102.68 F6000.0
M5
G00 X78.02 Y103.05 F6000.0
M3 F6000.0
G01 X78.3 F6000.0
M5
G00 X78.77 Y103.23 F6000.0
M3 F6000.0
G01 X79.04 F6000.0
M5
G00 X79.23 Y103.33 F6000.0
M3 F6000.0
G01 X79.32 Y103.23 F6000.0
M5
G00 X79.51 Y103.33 F6000.0
M3 F6000.0
G01 X79.6 Y103.23 F6000.0
M5
G00 X79.6 Y103.51 F6000.0
M3 F6000.0
G01 X79.69 F6000.0
M5
G00 X79.04 Y102.86 F6000.0
M3 F6000.0
G01 X79.14 Y102.77 F6000.0
M5
G00 X78.3 Y103.7 F6000.0
M3 F6000.0
G01 Y103.6 F6000.0
M5
G00 X77.47 Y103.33 F6000.0
M3 F6000.0
G01 X78.21 F6000.0
M5
G00 X77.28 Y102.86 F6000.0
M3 F6000.0
G01 X77.37 Y102.77 F6000.0
M5
G00 X77. Y102.86 F6000.0
M3 F6000.0
G01 Y102.77 F6000.0
M5
G00 X77. Y102.49 F6000.0
M3 F6000.0
G01 X77.56 Y102.35 F6000.0
G01 X77.67 Y102.16 F6000.0
G01 X77.65 Y101.84 F6000.0
G01 X77.75 Y101.75 F6000.0
G01 X78.12 Y102.12 F6000.0
M5
G00 X76.82 Y102.31 F6000.0
M3 F6000.0
G01 X76.54 Y102.12 F6000.0
M5
G00 X76.63 Y102.58 F6000.0
M3 F6000.0
G01 Y102.49 F6000.0
M5
G00 X76.54 Y103.05 F6000.0
M3 F6000.0
G01 X76.82 Y102.95 F6000.0
M5
G00 X77.1 Y103.7 F6000.0
M3 F6000.0
G01 X77.19 Y103.6 F6000.0
M5
G00 X77.1 Y104.07 F6000.0
M3 F6000.0
G01 X77.28 Y104.16 F6000.0
M5
G00 X76.82 Y103.97 F6000.0
M3 F6000.0
G01 X76.91 Y103.88 F6000.0
M5
G00 X76.54 Y104.35 F6000.0
M3 F6000.0
G01 X76.45 Y104.25 F6000.0
M5
G00 X76.91 Y104.72 F6000.0
M3 F6000.0
G01 X76.82 Y104.62 F6000.0
M5
G00 X77.1 Y105.09 F6000.0
M3 F6000.0
G01 X77.65 Y104.9 F6000.0
M5
G00 X77.93 Y104.81 F6000.0
M3 F6000.0
G01 X78.53 Y104.26 F6000.0
G01 X78.72 Y103.92 F6000.0
G01 X78.77 Y103.51 F6000.0
M5
G00 X77.93 Y105.83 F6000.0
M3 F6000.0
G01 X78.49 Y106.02 F6000.0
M5
G00 X78.86 Y106.11 F6000.0
M3 F6000.0
G01 X79.14 Y105.65 F6000.0
M5
G00 X79.14 Y106.39 F6000.0
M3 F6000.0
G01 Y106.3 F6000.0
M5
G00 X79.14 Y106.67 F6000.0
M3 F6000.0
G01 X79.51 Y106.85 F6000.0
M5
G00 X77.47 Y105.74 F6000.0
M3 F6000.0
G01 X77.75 Y105.83 F6000.0
M5
G00 X77. Y105.65 F6000.0
M3 F6000.0
G01 X77.28 Y105.74 F6000.0
M5
G00 X76.63 Y105.55 F6000.0
M3 F6000.0
G01 X76.82 F6000.0
M5
G00 X75.98 Y105.18 F6000.0
M3 F6000.0
G01 X76.26 Y105.27 F6000.0
M5
G00 X75.61 Y105.27 F6000.0
M3 F6000.0
G01 Y104.81 F6000.0
M5
G00 X75.33 Y104.9 F6000.0
M3 F6000.0
G01 X75.43 Y104.72 F6000.0
M5
G00 X75.43 Y104.35 F6000.0
M3 F6000.0
G01 X75.61 Y104.25 F6000.0
M5
G00 X75.43 Y104.07 F6000.0
M3 F6000.0
G01 X75.52 F6000.0
M5
G00 X75.7 Y103.97 F6000.0
M3 F6000.0
G01 Y103.7 F6000.0
M5
G00 X75.7 Y103.42 F6000.0
M3 F6000.0
G01 X75.76 Y103.41 F6000.0
G01 X76.82 Y103.33 F6000.0
M5
G00 X75.89 Y102.49 F6000.0
M3 F6000.0
G01 X75.7 Y102.21 F6000.0
M5
G00 X75.43 Y102.58 F6000.0
M3 F6000.0
G01 X75.24 Y102.4 F6000.0
M5
G00 X75.15 Y102.21 F6000.0
M3 F6000.0
G01 X75.24 Y102.12 F6000.0
M5
G00 X75.33 Y101.93 F6000.0
M3 F6000.0
G01 Y101.66 F6000.0
M5
G00 X75.24 Y101.47 F6000.0
M3 F6000.0
G01 X75.33 Y101.38 F6000.0
M5
G00 X75.33 Y101.1 F6000.0
M3 F6000.0
G01 X75.52 F6000.0
M5
G00 X75.8 Y101.19 F6000.0
M3 F6000.0
G01 X75.89 F6000.0
M5
G00 X75.89 Y101.01 F6000.0
M3 F6000.0
G01 X76.79 Y100.86 F6000.0
G01 X77.23 Y100.83 F6000.0
G01 X77.56 Y101.01 F6000.0
M5
G00 X76.26 Y101.66 F6000.0
M3 F6000.0
G01 X76.54 Y101.38 F6000.0
M5
G00 X75.8 Y101.75 F6000.0
M3 F6000.0
G01 X75.7 Y101.66 F6000.0
M5
G00 X74.87 Y101.47 F6000.0
M3 F6000.0
G01 X74.59 Y101.38 F6000.0
M5
G00 X74.87 Y101.28 F6000.0
M3 F6000.0
G01 X75.06 F6000.0
M5
G00 X74.68 Y102.03 F6000.0
M3 F6000.0
G01 Y102.34 F6000.0
G01 X74.84 Y102.53 F6000.0
G01 X75.44 Y102.6 F6000.0
G01 X76.13 Y102.32 F6000.0
G01 X76.54 Y101.75 F6000.0
M5
G00 X74.96 Y102.4 F6000.0
M3 F6000.0
G01 X75.06 F6000.0
M5
G00 X74.78 Y102.21 F6000.0
M3 F6000.0
G01 X74.87 Y102.03 F6000.0
M5
G00 X74.03 Y102.03 F6000.0
M3 F6000.0
G01 Y101.84 F6000.0
M5
G00 X73.85 Y102.21 F6000.0
M3 F6000.0
G01 X73.94 F6000.0
M5
G00 X74.03 Y102.4 F6000.0
M3 F6000.0
G01 X74.31 F6000.0
M5
G00 X74.03 Y102.95 F6000.0
M3 F6000.0
G01 X73.94 Y102.86 F6000.0
M5
G00 X73.57 Y103.05 F6000.0
M3 F6000.0
G01 X73.66 Y102.95 F6000.0
M5
G00 X73.2 Y103.05 F6000.0
M3 F6000.0
G01 X73.11 Y102.95 F6000.0
M5
G00 X72.92 Y102.77 F6000.0
M3 F6000.0
G01 X72.83 Y102.68 F6000.0
M5
G00 X72.64 Y102.58 F6000.0
M3 F6000.0
G01 Y102.49 F6000.0
M5
G00 X72.83 Y102.4 F6000.0
M3 F6000.0
G01 X73.01 Y102.49 F6000.0
M5
G00 X73.01 Y102.31 F6000.0
M3 F6000.0
G01 X72.92 Y102.21 F6000.0
M5
G00 X73.2 Y102.49 F6000.0
M3 F6000.0
G01 X73.76 Y102.68 F6000.0
M5
G00 X73.57 Y102.49 F6000.0
M3 F6000.0
G01 X73.85 F6000.0
M5
G00 X73.39 Y102.4 F6000.0
M3 F6000.0
G01 X73.11 Y102.03 F6000.0
M5
G00 X73.39 Y102.03 F6000.0
M3 F6000.0
G01 X73.29 Y101.93 F6000.0
M5
G00 X73.39 Y101.66 F6000.0
M3 F6000.0
G01 X74.31 Y101.56 F6000.0
M5
G00 X73.85 Y101.47 F6000.0
M3 F6000.0
G01 X73.94 F6000.0
M5
G00 X73.66 Y102.03 F6000.0
M3 F6000.0
G01 X73.57 Y101.84 F6000.0
M5
G00 X72.46 Y101.93 F6000.0
M3 F6000.0
G01 X73.11 Y101.75 F6000.0
M5
G00 X72.46 Y102.31 F6000.0
M3 F6000.0
G01 X72.36 Y102.21 F6000.0
M5
G00 X72.09 Y102.12 F6000.0
M3 F6000.0
G01 X71.72 Y102.03 F6000.0
G01 X72.18 Y102.31 F6000.0
M5
G00 X72.09 Y101.93 F6000.0
M3 F6000.0
G01 X72.27 F6000.0
M5
G00 X72.46 Y102.68 F6000.0
M3 F6000.0
G01 X72.36 Y102.49 F6000.0
M5
G00 X72.09 Y102.77 F6000.0
M3 F6000.0
G01 X72.18 Y102.68 F6000.0
M5
G00 X72.09 Y103.05 F6000.0
M3 F6000.0
G01 X72.27 F6000.0
M5
G00 X72.64 Y103.42 F6000.0
M3 F6000.0
G01 X72.74 Y102.95 F6000.0
M5
G00 X73.11 Y103.23 F6000.0
M3 F6000.0
G01 X73.39 F6000.0
M5
G00 X73.48 Y103.42 F6000.0
M3 F6000.0
G01 X73.66 Y103.33 F6000.0
M5
G00 X73.85 Y103.42 F6000.0
M3 F6000.0
G01 Y103.05 F6000.0
M5
G00 X74.22 Y103.23 F6000.0
M3 F6000.0
G01 X74.13 Y103.14 F6000.0
M5
G00 X74.41 Y103.05 F6000.0
M3 F6000.0
G01 X74.31 Y102.95 F6000.0
M5
G00 X74.59 Y103.51 F6000.0
M3 F6000.0
G01 X74.78 Y103.23 F6000.0
M5
G00 X74.78 Y103.51 F6000.0
M3 F6000.0
G01 X74.87 F6000.0
M5
G00 X74.87 Y103.79 F6000.0
M3 F6000.0
G01 X75.24 Y103.05 F6000.0
M5
G00 X75.24 Y103.79 F6000.0
M3 F6000.0
G01 X75.33 Y103.7 F6000.0
M5
G00 X74.68 Y103.97 F6000.0
M3 F6000.0
G01 X74.78 F6000.0
M5
G00 X74.41 Y104.25 F6000.0
M3 F6000.0
G01 X74.31 Y104.16 F6000.0
M5
G00 X73.94 Y104.44 F6000.0
M3 F6000.0
G01 X74.03 Y104.16 F6000.0
M5
G00 X73.85 Y104.25 F6000.0
M3 F6000.0
G01 X73.76 Y104.07 F6000.0
M5
G00 X73.57 Y103.97 F6000.0
M3 F6000.0
G01 X73.39 Y103.88 F6000.0
M5
G00 X73.2 Y103.7 F6000.0
M3 F6000.0
G01 X73.29 F6000.0
M5
G00 X73.76 Y103.79 F6000.0
M3 F6000.0
G01 X73.85 Y103.7 F6000.0
M5
G00 X73.57 Y104.25 F6000.0
M3 F6000.0
G01 X73.76 Y104.44 F6000.0
M5
G00 X73.66 Y104.72 F6000.0
M3 F6000.0
G01 X73.48 Y104.62 F6000.0
M5
G00 X73.39 Y104.44 F6000.0
M3 F6000.0
G01 X73.29 Y104.35 F6000.0
M5
G00 X73.48 Y104.9 F6000.0
M3 F6000.0
G01 X73.57 F6000.0
M5
G00 X73.85 Y104.9 F6000.0
M3 F6000.0
G01 X73.94 Y104.81 F6000.0
M5
G00 X74.13 Y105.18 F6000.0
M3 F6000.0
G01 X74.03 Y105.0 F6000.0
M5
G00 X73.66 Y105.27 F6000.0
M3 F6000.0
G01 X73.85 Y105.18 F6000.0
M5
G00 X73.48 Y105.46 F6000.0
M3 F6000.0
G01 X73.39 Y105.27 F6000.0
M5
G00 X73.01 Y105.55 F6000.0
M3 F6000.0
G01 X73.11 F6000.0
M5
G00 X73.2 Y105.74 F6000.0
M3 F6000.0
G01 X73.29 Y105.65 F6000.0
M5
G00 X73.39 Y105.92 F6000.0
M3 F6000.0
G01 X73.57 Y106.02 F6000.0
M5
G00 X73.66 Y105.92 F6000.0
M3 F6000.0
G01 X74.0 Y106.11 F6000.0
G01 X74.47 Y105.9 F6000.0
G01 X74.53 Y105.86 F6000.0
G01 X75.43 Y105.27 F6000.0
M5
G00 X74.87 Y105.37 F6000.0
M3 F6000.0
G01 X75.15 Y104.72 F6000.0
M5
G00 X75.06 Y104.53 F6000.0
M3 F6000.0
G01 X75.15 Y104.07 F6000.0
M5
G00 X74.87 Y104.72 F6000.0
M3 F6000.0
G01 X74.68 Y104.25 F6000.0
M5
G00 X74.87 Y105. F6000.0
M3 F6000.0
G01 X74.68 Y104.81 F6000.0
M5
G00 X74.03 Y105.83 F6000.0
M3 F6000.0
G01 X74.13 Y105.74 F6000.0
M5
G00 X72.92 Y105.18 F6000.0
M3 F6000.0
G01 X72.64 Y104.9 F6000.0
M5
G00 X72.36 Y104.35 F6000.0
M3 F6000.0
G01 Y104.25 F6000.0
M5
G00 X72.36 Y103.97 F6000.0
M3 F6000.0
G01 X72.46 Y103.88 F6000.0
M5
G00 X72.27 Y103.79 F6000.0
M3 F6000.0
G01 X72.19 Y103.6 F6000.0
G01 X72.36 F6000.0
M5
G00 X72.83 Y103.51 F6000.0
M3 F6000.0
G01 X72.92 Y103.42 F6000.0
M5
G00 X72.83 Y103.88 F6000.0
M3 F6000.0
G01 X73.11 F6000.0
M5
G00 X71.9 Y103.88 F6000.0
M3 F6000.0
G01 Y103.79 F6000.0
M5
G00 X71.62 Y103.79 F6000.0
M3 F6000.0
G01 X71.72 Y103.7 F6000.0
M5
G00 X71.44 Y103.7 F6000.0
M3 F6000.0
G01 Y103.33 F6000.0
M5
G00 X71.62 Y102.86 F6000.0
M3 F6000.0
G01 X71.72 Y102.77 F6000.0
M5
G00 X71.34 Y102.58 F6000.0
M3 F6000.0
G01 X71.62 F6000.0
M5
G00 X71.34 Y102.12 F6000.0
M3 F6000.0
G01 X71.53 Y102.03 F6000.0
M5
G00 X71.07 Y102.68 F6000.0
M3 F6000.0
G01 Y102.58 F6000.0
M5
G00 X70.6 Y102.58 F6000.0
M3 F6000.0
G01 X70.88 Y103.05 F6000.0
M5
G00 X70.6 Y103.42 F6000.0
M3 F6000.0
G01 X70.69 Y103.33 F6000.0
M5
G00 X70.23 Y103.14 F6000.0
M3 F6000.0
G01 X70.32 F6000.0
M5
G00 X70.23 Y102.77 F6000.0
M3 F6000.0
G01 X70.32 F6000.0
M5
G00 X70.42 Y102.4 F6000.0
M3 F6000.0
G01 X70.51 F6000.0
M5
G00 X70.69 Y102.31 F6000.0
M3 F6000.0
G01 X71.07 Y102.21 F6000.0
M5
G00 X69.86 Y102.95 F6000.0
M3 F6000.0
G01 X69.95 Y102.77 F6000.0
M5
G00 X69.58 Y102.49 F6000.0
M3 F6000.0
G01 X70.14 F6000.0
M5
G00 X69.49 Y102.95 F6000.0
M3 F6000.0
G01 X69.4 Y102.86 F6000.0
M5
G00 X69.12 Y102.86 F6000.0
M3 F6000.0
G01 F6000.0
G01 X69.67 Y103.7 F6000.0
M5
G00 X69.4 Y103.88 F6000.0
M3 F6000.0
G01 X69.49 F6000.0
M5
G00 X69.95 Y103.51 F6000.0
M3 F6000.0
G01 Y103.42 F6000.0
M5
G00 X70.14 Y103.79 F6000.0
M3 F6000.0
G01 X70.23 Y103.7 F6000.0
M5
G00 X70.42 Y103.97 F6000.0
M3 F6000.0
G01 Y103.33 F6000.0
M5
G00 X70.97 Y103.79 F6000.0
M3 F6000.0
G01 X71.16 Y103.7 F6000.0
M5
G00 X71.53 Y104.35 F6000.0
M3 F6000.0
G01 Y104.18 F6000.0
G01 X71.72 Y104.25 F6000.0
M5
G00 X71.34 Y105. F6000.0
M3 F6000.0
G01 X71.44 Y104.9 F6000.0
M5
G00 X71.34 Y105.37 F6000.0
M3 F6000.0
G01 X71.44 Y105.18 F6000.0
M5
G00 X70.32 Y105.92 F6000.0
M3 F6000.0
G01 X70.69 Y105.65 F6000.0
M5
G00 X69.67 Y106.02 F6000.0
M3 F6000.0
G01 X70.14 F6000.0
M5
G00 X69.49 Y105.27 F6000.0
M3 F6000.0
G01 X69.58 F6000.0
M5
G00 X69.21 Y105.27 F6000.0
M3 F6000.0
G01 X69.2 Y105.1 F6000.0
G01 X69.4 Y105.09 F6000.0
M5
G00 X69.21 Y104.9 F6000.0
M3 F6000.0
G01 X69.12 Y104.81 F6000.0
M5
G00 X69.12 Y104.44 F6000.0
M3 F6000.0
G01 X69.03 Y103.51 F6000.0
M5
G00 X68.84 Y102.86 F6000.0
M3 F6000.0
G01 X69.03 Y103.23 F6000.0
M5
G00 X68.38 Y103.33 F6000.0
M3 F6000.0
G01 X68.28 Y103.23 F6000.0
M5
G00 X67.91 Y102.86 F6000.0
M3 F6000.0
G01 X68.16 Y102.81 F6000.0
G01 X69.4 Y102.58 F6000.0
M5
G00 X68.75 Y104.16 F6000.0
M3 F6000.0
G01 X68.84 Y104.07 F6000.0
M5
G00 X68.28 Y104.07 F6000.0
M3 F6000.0
G01 X68.38 Y103.97 F6000.0
M5
G00 X68.28 Y104.35 F6000.0
M3 F6000.0
G01 X68.47 Y104.16 F6000.0
M5
G00 X68. Y104.35 F6000.0
M3 F6000.0
G01 X68.1 Y104.25 F6000.0
M5
G00 X67.73 Y103.97 F6000.0
M3 F6000.0
G01 X67.54 Y103.7 F6000.0
M5
G00 X67.63 Y104.44 F6000.0
M3 F6000.0
G01 X67.73 Y104.35 F6000.0
M5
G00 X67.26 Y104.44 F6000.0
M3 F6000.0
G01 X67.45 Y104.35 F6000.0
M5
G00 X66.43 Y104.62 F6000.0
M3 F6000.0
G01 X66.98 Y104.44 F6000.0
M5
G00 X66.33 Y104.44 F6000.0
M3 F6000.0
G01 X66.24 Y104.25 F6000.0
M5
G00 X65.87 Y103.97 F6000.0
M3 F6000.0
G01 X66.24 F6000.0
M5
G00 X66.24 Y103.33 F6000.0
M3 F6000.0
G01 X66.43 Y103.23 F6000.0
M5
G00 X66.24 Y103.05 F6000.0
M3 F6000.0
G01 X66.43 Y102.86 F6000.0
M5
G00 X66.71 Y103.23 F6000.0
M3 F6000.0
G01 Y103.14 F6000.0
M5
G00 X67.26 Y102.86 F6000.0
M3 F6000.0
G01 X67.45 Y102.77 F6000.0
M5
G00 X65.59 Y102.95 F6000.0
M3 F6000.0
G01 X65.78 Y102.86 F6000.0
M5
G00 X65.5 Y103.33 F6000.0
M3 F6000.0
G01 X65.59 F6000.0
M5
G00 X65.5 Y103.7 F6000.0
M3 F6000.0
G01 X65.87 F6000.0
M5
G00 X65.31 Y103.7 F6000.0
M3 F6000.0
G01 X65.22 Y103.6 F6000.0
M5
G00 X64.94 Y103.05 F6000.0
M3 F6000.0
G01 X65.22 Y102.95 F6000.0
M5
G00 X64.85 Y104.16 F6000.0
M3 F6000.0
G01 X64.76 Y104.07 F6000.0
M5
G00 X65.41 Y104.35 F6000.0
M3 F6000.0
G01 X65.22 Y104.25 F6000.0
M5
G00 X65.22 Y104.9 F6000.0
M3 F6000.0
G01 X64.94 Y104.81 F6000.0
M5
G00 X65.22 Y105.18 F6000.0
M3 F6000.0
G01 X65.66 Y105.22 F6000.0
G01 X65.96 Y104.9 F6000.0
M5
G00 X66.52 Y104.9 F6000.0
M3 F6000.0
G01 X66.89 Y105.18 F6000.0
M5
G00 X67.54 Y105.65 F6000.0
M3 F6000.0
G01 X67.82 F6000.0
G01 X66.98 Y105.37 F6000.0
M5
G00 X67.91 Y105.46 F6000.0
M3 F6000.0
G01 X68.0 Y105.0 F6000.0
M5
G00 X68.38 Y105.27 F6000.0
M3 F6000.0
G01 Y105.09 F6000.0
M5
G00 X68.65 Y105.27 F6000.0
M3 F6000.0
G01 X68.96 Y105.78 F6000.0
G01 X69.49 Y105.92 F6000.0
M5
G00 X68.65 Y104.62 F6000.0
M3 F6000.0
G01 X68.75 Y104.53 F6000.0
M5
G00 X71.34 Y106.57 F6000.0
M3 F6000.0
G01 X70.88 Y106.11 F6000.0
M5
G00 X71.53 Y106.67 F6000.0
M3 F6000.0
G01 X71.9 F6000.0
M5
G00 X72.09 Y106.76 F6000.0
M3 F6000.0
G01 X72.28 Y106.68 F6000.0
G01 X73.39 Y106.2 F6000.0
M5
G00 X72.18 Y106.3 F6000.0
M3 F6000.0
G01 X72.09 Y106.2 F6000.0
M5
G00 X71.44 Y109.36 F6000.0
M3 F6000.0
G01 X71.9 Y109.45 F6000.0
M5
G00 X72.27 Y109.54 F6000.0
M3 F6000.0
G01 X72.48 Y109.6 F6000.0
G01 X73.66 Y109.91 F6000.0
M5
G00 X73.85 Y109.91 F6000.0
M3 F6000.0
G01 X73.94 F6000.0
M5
G00 X73.76 Y110.1 F6000.0
M3 F6000.0
G01 X74.03 Y110.28 F6000.0
M5
G00 X74.22 Y110. F6000.0
M3 F6000.0
G01 X74.28 Y110.02 F6000.0
G01 X75.33 Y110.19 F6000.0
M5
G00 X75.52 Y110.28 F6000.0
M3 F6000.0
G01 X75.61 F6000.0
M5
G00 X75.98 Y110.38 F6000.0
M3 F6000.0
G01 X75.89 Y110.28 F6000.0
M5
G00 X76.26 Y110.56 F6000.0
M3 F6000.0
G01 X76.35 Y110.47 F6000.0
M5
G00 X76.54 Y110.56 F6000.0
M3 F6000.0
G01 X76.63 F6000.0
M5
G00 X76.91 Y110.56 F6000.0
M3 F6000.0
G01 X77.19 Y110.66 F6000.0
M5
G00 X77.19 Y111.21 F6000.0
M3 F6000.0
G01 X77.28 F6000.0
M5
G00 X76.26 Y111.77 F6000.0
M3 F6000.0
G01 X76.82 Y112.33 F6000.0
M5
G00 X77.28 Y112.51 F6000.0
M3 F6000.0
G01 X77.65 Y112.33 F6000.0
M5
G00 X77.93 Y112.33 F6000.0
M3 F6000.0
G01 X78.02 Y112.23 F6000.0
M5
G00 X78.3 Y112.05 F6000.0
M3 F6000.0
G01 X78.95 Y111.58 F6000.0
M5
G00 X79.14 Y111.49 F6000.0
M3 F6000.0
G01 Y111.4 F6000.0
M5
G00 X79.42 Y111.12 F6000.0
M3 F6000.0
G01 X79.51 F6000.0
M5
G00 X79.6 Y111.3 F6000.0
M3 F6000.0
G01 X80.53 F6000.0
M5
G00 X79.88 Y111.77 F6000.0
M3 F6000.0
G01 X79.6 Y111.58 F6000.0
M5
G00 X78.86 Y111.03 F6000.0
M3 F6000.0
G01 X79.14 F6000.0
M5
G00 X78.58 Y111.03 F6000.0
M3 F6000.0
G01 X78.56 Y111.02 F6000.0
G01 X77.56 Y110.84 F6000.0
M5
G00 X76.08 Y111.58 F6000.0
M3 F6000.0
G01 X75.52 Y111.3 F6000.0
M5
G00 X74.5 Y110.93 F6000.0
M3 F6000.0
G01 X75.06 Y111.4 F6000.0
M5
G00 X74.31 Y110.75 F6000.0
M3 F6000.0
G01 X74.13 Y110.19 F6000.0
M5
G00 X72.27 Y109.91 F6000.0
M3 F6000.0
G01 X72.55 F6000.0
M5
G00 X71.81 Y110. F6000.0
M3 F6000.0
G01 X72.09 F6000.0
M5
G00 X71.72 Y109.82 F6000.0
M3 F6000.0
G01 X71.81 Y109.73 F6000.0
M5
G00 X71.44 Y109.82 F6000.0
M3 F6000.0
G01 X71.53 Y109.73 F6000.0
M5
G00 X70.79 Y109.17 F6000.0
M3 F6000.0
G01 X71.25 Y109.26 F6000.0
M5
G00 X70.42 Y109.17 F6000.0
M3 F6000.0
G01 Y109.08 F6000.0
M5
G00 X69.77 Y108.98 F6000.0
M3 F6000.0
G01 X69.95 Y109.08 F6000.0
M5
G00 X69.86 Y109.54 F6000.0
M3 F6000.0
G01 X70.05 Y109.45 F6000.0
M5
G00 X69.4 Y109.82 F6000.0
M3 F6000.0
G01 X69.58 Y109.54 F6000.0
M5
G00 X69.3 Y108.89 F6000.0
M3 F6000.0
G01 X69.49 Y108.98 F6000.0
M5
G00 X68.65 Y108.8 F6000.0
M3 F6000.0
G01 X68.84 F6000.0
M5
G00 X67.73 Y108.61 F6000.0
M3 F6000.0
G01 X68.28 Y108.71 F6000.0
M5
G00 X68.28 Y110. F6000.0
M3 F6000.0
G01 X68.56 Y109.91 F6000.0
M5
G00 X69.03 Y110. F6000.0
M3 F6000.0
G01 X69.12 Y109.91 F6000.0
M5
G00 X70.42 Y110.1 F6000.0
M3 F6000.0
G01 X70.32 Y110.0 F6000.0
M5
G00 X69.58 Y112.51 F6000.0
M3 F6000.0
G01 X69.7 Y112.54 F6000.0
G01 X70.79 Y112.79 F6000.0
M5
G00 X70.97 Y112.88 F6000.0
M3 F6000.0
G01 X71.33 Y112.98 F6000.0
G01 X72.64 Y113.34 F6000.0
M5
G00 X72.83 Y113.44 F6000.0
M3 F6000.0
G01 X72.92 F6000.0
M5
G00 X73.11 Y113.44 F6000.0
M3 F6000.0
G01 X73.39 Y113.53 F6000.0
M5
G00 X73.57 Y113.62 F6000.0
M3 F6000.0
G01 X73.78 Y113.68 F6000.0
G01 X74.96 Y114.0 F6000.0
M5
G00 X75.15 Y114.09 F6000.0
M3 F6000.0
G01 X75.7 Y114.18 F6000.0
M5
G00 X75.89 Y114.18 F6000.0
M3 F6000.0
G01 X76.29 Y114.28 F6000.0
G01 X77.65 Y114.64 F6000.0
M5
G00 X78.49 Y114.83 F6000.0
M3 F6000.0
G01 X79.04 Y115.02 F6000.0
M5
G00 X79.23 Y115.02 F6000.0
M3 F6000.0
G01 X79.79 Y115.2 F6000.0
M5
G00 X80.06 Y115.2 F6000.0
M3 F6000.0
G01 X80.34 Y115.29 F6000.0
M5
G00 X80.53 Y115.39 F6000.0
M3 F6000.0
G01 X80.81 Y115.48 F6000.0
M5
G00 X80.71 Y116.04 F6000.0
M3 F6000.0
G01 X80.99 Y115.85 F6000.0
M5
G00 X80.44 Y116.13 F6000.0
M3 F6000.0
G01 X80.71 Y115.85 F6000.0
M5
G00 X79.69 Y116.04 F6000.0
M3 F6000.0
G01 X79.6 Y115.94 F6000.0
M5
G00 X79.23 Y115.85 F6000.0
M3 F6000.0
G01 Y115.76 F6000.0
M5
G00 X78.86 Y115.57 F6000.0
M3 F6000.0
G01 X79.04 Y115.66 F6000.0
M5
G00 X78.67 Y115.39 F6000.0
M3 F6000.0
G01 X78.39 Y115.11 F6000.0
M5
G00 X76.82 Y114.92 F6000.0
M3 F6000.0
G01 X76.63 Y114.74 F6000.0
M5
G00 X73.66 Y114.09 F6000.0
M3 F6000.0
G01 X73.85 Y114.0 F6000.0
M5
G00 X72.83 Y114.37 F6000.0
M3 F6000.0
G01 X73.39 Y114.0 F6000.0
M5
G00 X72.27 Y114.27 F6000.0
M3 F6000.0
G01 X72.64 F6000.0
M5
G00 X71.16 Y113.62 F6000.0
M3 F6000.0
G01 X71.81 Y114.18 F6000.0
M5
G00 X70.88 Y113.44 F6000.0
M3 F6000.0
G01 X70.79 Y113.34 F6000.0
M5
G00 X70.6 Y113.16 F6000.0
M3 F6000.0
G01 X70.51 Y113.07 F6000.0
M5
G00 X70.23 Y112.97 F6000.0
M3 F6000.0
G01 X70.32 Y112.88 F6000.0
M5
G00 X71.16 Y113.07 F6000.0
M3 F6000.0
G01 X71.25 Y112.97 F6000.0
M5
G00 X69.12 Y113.34 F6000.0
M3 F6000.0
G01 X69.67 Y113.16 F6000.0
M5
G00 X68.56 Y113.07 F6000.0
M3 F6000.0
G01 X68.38 Y112.88 F6000.0
M5
G00 X68. Y112.6 F6000.0
M3 F6000.0
G01 X68.1 F6000.0
M5
G00 X67.82 Y112.51 F6000.0
M3 F6000.0
G01 X67.63 Y112.33 F6000.0
M5
G00 X67.45 Y112.05 F6000.0
M3 F6000.0
G01 X66.71 Y111.67 F6000.0
M5
G00 X66.52 Y111.58 F6000.0
M3 F6000.0
G01 X66.43 Y111.49 F6000.0
M5
G00 X65.41 Y111.12 F6000.0
M3 F6000.0
G01 X66.24 Y111.49 F6000.0
M5
G00 X65.31 Y111.4 F6000.0
M3 F6000.0
G01 X65.41 Y111.3 F6000.0
M5
G00 X64.94 Y111.49 F6000.0
M3 F6000.0
G01 X65.04 Y111.4 F6000.0
M5
G00 X64.85 Y110.84 F6000.0
M3 F6000.0
G01 X65.13 Y110.93 F6000.0
M5
G00 X64.48 Y110.84 F6000.0
M3 F6000.0
G01 Y110.75 F6000.0
M5
G00 X63.92 Y110.66 F6000.0
M3 F6000.0
G01 X64.29 Y110.75 F6000.0
M5
G00 X64.29 Y111.3 F6000.0
M3 F6000.0
G01 X64.76 Y111.4 F6000.0
M5
G00 X63.74 Y110.66 F6000.0
M3 F6000.0
G01 Y110.56 F6000.0
M5
G00 X63.46 Y111.21 F6000.0
M3 F6000.0
G01 X63.64 Y111.3 F6000.0
M5
G00 X62.53 Y110.66 F6000.0
M3 F6000.0
G01 X62.9 Y110.84 F6000.0
M5
G00 X62.72 Y110.38 F6000.0
M3 F6000.0
G01 X63.27 Y110.47 F6000.0
M5
G00 X62.25 Y110.28 F6000.0
M3 F6000.0
G01 X61.33 Y110.0 F6000.0
M5
G00 X60.67 Y110.1 F6000.0
M3 F6000.0
G01 Y110.0 F6000.0
M5
G00 X60.4 Y109.73 F6000.0
M3 F6000.0
G01 X60.49 F6000.0
M5
G00 X60.12 Y110.47 F6000.0
M3 F6000.0
G01 X60.21 F6000.0
M5
G00 X61.14 Y110.75 F6000.0
M3 F6000.0
G01 X60.67 Y110.56 F6000.0
M5
G00 X61.42 Y110.84 F6000.0
M3 F6000.0
G01 X61.51 Y110.75 F6000.0
M5
G00 X61.42 Y108.52 F6000.0
M3 F6000.0
G01 X60.81 Y108.12 F6000.0
G01 X60.18 Y107.5 F6000.0
G01 X60.14 Y107.43 F6000.0
G01 X59.55 Y106.52 F6000.0
G01 X59.52 Y106.44 F6000.0
G01 X59.06 Y105.46 F6000.0
G01 X59.0 Y105.27 F6000.0
G01 X58.68 Y104.32 F6000.0
G01 X58.31 Y103.17 F6000.0
G01 X58.27 Y102.98 F6000.0
G01 X58.06 Y102.0 F6000.0
G01 X57.81 Y100.82 F6000.0
G01 X57.79 Y100.65 F6000.0
G01 X57.67 Y99.66 F6000.0
G01 X57.53 Y98.5 F6000.0
G01 X57.34 Y97.57 F6000.0
G01 X57.31 Y97.64 F6000.0
G01 X56.98 Y98.65 F6000.0
G01 X56.96 Y98.82 F6000.0
G01 X56.79 Y99.99 F6000.0
G01 X56.76 Y100.29 F6000.0
G01 X56.65 Y101.28 F6000.0
G01 X56.51 Y102.58 F6000.0
G01 X56.5 Y102.88 F6000.0
G01 X56.46 Y103.88 F6000.0
G01 X56.41 Y105.18 F6000.0
M5
G00 X60.12 Y105.46 F6000.0
M3 F6000.0
G01 X60.13 Y105.32 F6000.0
G01 X60.19 Y104.17 F6000.0
G01 X60.18 Y104.03 F6000.0
G01 X60.11 Y102.88 F6000.0
G01 X60.05 Y102.56 F6000.0
G01 X59.86 Y101.58 F6000.0
G01 X59.61 Y100.28 F6000.0
G01 X59.57 Y100.16 F6000.0
G01 X59.28 Y99.21 F6000.0
G01 X59.0 Y98.25 F6000.0
G01 X58.43 Y96.33 F6000.0
G01 X58.1 Y95.25 F6000.0
G01 X57.95 Y94.69 F6000.0
G01 X57.71 Y94.23 F6000.0
G01 X57.63 Y94.01 F6000.0
G01 X57.19 Y92.84 F6000.0
G01 X57.09 Y92.62 F6000.0
G01 X56.68 Y91.71 F6000.0
G01 X56.28 Y90.79 F6000.0
G01 X55.77 Y89.66 F6000.0
G01 X55.64 Y89.46 F6000.0
G01 X55.1 Y88.61 F6000.0
G01 X54.57 Y87.77 F6000.0
G01 X53.9 Y86.72 F6000.0
M5
G00 X52.51 Y88.76 F6000.0
M3 F6000.0
G01 X52.5 Y88.61 F6000.0
G01 X52.43 Y87.61 F6000.0
G01 X52.36 Y86.62 F6000.0
G01 X52.29 Y85.62 F6000.0
G01 X52.22 Y84.62 F6000.0
G01 X52.14 Y83.47 F6000.0
M5
G00 X52.05 Y82.92 F6000.0
M3 F6000.0
G01 Y82.82 F6000.0
M5
G00 X52.05 Y82.36 F6000.0
M3 F6000.0
G01 Y81.99 F6000.0
M5
G00 X52.14 Y81.8 F6000.0
M3 F6000.0
G01 X52.17 Y81.81 F6000.0
G01 X53.16 Y81.98 F6000.0
G01 X54.18 Y82.15 F6000.0
G01 X54.62 Y82.27 F6000.0
G01 X56.04 Y82.64 F6000.0
M5
G00 X57.15 Y83.66 F6000.0
M3 F6000.0
G01 X56.52 Y83.09 F6000.0
G01 X56.23 Y82.79 F6000.0
G01 X56.1 Y82.45 F6000.0
G01 X56.38 Y81.64 F6000.0
G01 X56.87 Y80.88 F6000.0
G01 X56.98 Y80.64 F6000.0
G01 X57.49 Y79.48 F6000.0
G01 X57.55 Y79.23 F6000.0
G01 X57.8 Y78.0 F6000.0
M5
G00 X59.56 Y77.81 F6000.0
M3 F6000.0
G01 X59.58 Y77.73 F6000.0
G01 X59.85 Y76.77 F6000.0
G01 X60.13 Y75.73 F6000.0
G01 X60.16 Y75.63 F6000.0
G01 X60.48 Y74.68 F6000.0
G01 X60.83 Y73.64 F6000.0
G01 X60.85 Y73.53 F6000.0
G01 X61.07 Y72.56 F6000.0
G01 X61.74 Y69.63 F6000.0
G01 X61.99 Y68.55 F6000.0
G01 X62.01 Y68.44 F6000.0
G01 X62.21 Y67.46 F6000.0
G01 X62.41 Y66.48 F6000.0
G01 X62.61 Y65.5 F6000.0
G01 X62.81 Y64.52 F6000.0
G01 X63.03 Y63.43 F6000.0
G01 X63.09 Y63.1 F6000.0
G01 X63.44 Y61.13 F6000.0
G01 X63.67 Y59.81 F6000.0
G01 X63.74 Y59.47 F6000.0
G01 X64.02 Y58.14 F6000.0
M5
G00 X63.55 Y57.03 F6000.0
M3 F6000.0
G01 X63.92 Y56.94 F6000.0
G01 X63.74 Y56.75 F6000.0
M5
G00 X63.92 Y56.94 F6000.0
M3 F6000.0
G01 X64.26 Y56.92 F6000.0
G01 X65.59 Y56.85 F6000.0
G01 X65.22 Y56.57 F6000.0
G01 X65.31 Y56.47 F6000.0
G01 X65.41 F6000.0
G01 X65.5 F6000.0
G01 Y56.66 F6000.0
M5
G00 X65.59 Y56.85 F6000.0
M3 F6000.0
G01 X65.87 F6000.0
M5
G00 X65.69 Y56.57 F6000.0
M3 F6000.0
G01 X65.78 Y56.47 F6000.0
M5
G00 X65.69 Y56.29 F6000.0
M3 F6000.0
G01 X65.75 Y56.01 F6000.0
G01 X65.67 Y55.86 F6000.0
G01 X65.22 Y55.92 F6000.0
G01 X65.26 Y55.96 F6000.0
G01 X65.96 Y56.75 F6000.0
G01 X66.8 Y56.38 F6000.0
G01 X66.52 Y57.03 F6000.0
M5
G00 X66.71 Y57.03 F6000.0
M3 F6000.0
G01 X66.89 F6000.0
M5
G00 X66.98 Y57.12 F6000.0
M3 F6000.0
G01 X67.45 Y56.57 F6000.0
M5
G00 X67.45 Y56.29 F6000.0
M3 F6000.0
G01 X66.8 Y55.83 F6000.0
G01 X67.02 Y55.59 F6000.0
G01 X67.91 Y54.62 F6000.0
G01 X67.82 Y54.53 F6000.0
G01 X67.66 Y54.68 F6000.0
G01 X66.8 Y55.55 F6000.0
G01 X67.03 Y55.77 F6000.0
G01 X68.0 Y56.66 F6000.0
G01 X68.1 Y56.57 F6000.0
G01 X67.54 F6000.0
G01 Y57.12 F6000.0
G01 X68.0 Y57.59 F6000.0
G01 X67.45 Y58.24 F6000.0
G01 X68.0 Y58.05 F6000.0
G01 X68.75 Y58.7 F6000.0
M5
G00 X68.84 Y58.8 F6000.0
M3 F6000.0
G01 X69.03 F6000.0
M5
G00 X69.03 Y58.98 F6000.0
M3 F6000.0
G01 X69.13 Y58.82 F6000.0
G01 X69.03 Y58.8 F6000.0
M5
G00 X69.4 Y58.42 F6000.0
M3 F6000.0
G01 X69.27 Y58.32 F6000.0
G01 X68.38 Y57.59 F6000.0
G01 X68.84 Y57.96 F6000.0
M5
G00 X68.65 Y58.14 F6000.0
M3 F6000.0
G01 X68.66 Y57.63 F6000.0
G01 X69.03 Y57.22 F6000.0
M5
G00 X68.65 Y57.03 F6000.0
M3 F6000.0
G01 X69.03 Y56.85 F6000.0
M5
G00 X68.93 Y56.75 F6000.0
M3 F6000.0
G01 X68.75 Y56.57 F6000.0
M5
G00 X68.65 Y56.75 F6000.0
M3 F6000.0
G01 X68.56 Y56.6 F6000.0
G01 X68.65 Y56.57 F6000.0
M5
G00 X68.47 Y56.29 F6000.0
M3 F6000.0
G01 X68.75 Y56.2 F6000.0
M5
G00 X68.56 Y56.2 F6000.0
M3 F6000.0
G01 Y55.83 F6000.0
M5
G00 X68.28 Y56.1 F6000.0
M3 F6000.0
G01 X68.38 Y55.92 F6000.0
M5
G00 X68.1 Y55.92 F6000.0
M3 F6000.0
G01 X67.54 Y55.64 F6000.0
M5
G00 X67.73 Y55.83 F6000.0
M3 F6000.0
G01 X68.1 Y55.64 F6000.0
G01 X68.38 Y55.92 F6000.0
M5
G00 X68.28 Y56.2 F6000.0
M3 F6000.0
G01 X68.0 Y56.1 F6000.0
G01 X68.19 Y55.36 F6000.0
M5
G00 X68.1 Y55.36 F6000.0
M3 F6000.0
G01 X67.94 Y55.2 F6000.0
G01 X67.08 Y54.34 F6000.0
G01 X67.36 Y54.06 F6000.0
G01 X67.25 Y53.95 F6000.0
G01 X66.43 Y53.14 F6000.0
G01 X66.15 Y53.32 F6000.0
M5
G00 X66.24 Y53.6 F6000.0
M3 F6000.0
G01 X66.15 Y53.51 F6000.0
M5
G00 X66.06 Y53.78 F6000.0
M3 F6000.0
G01 X65.78 Y53.51 F6000.0
M5
G00 X65.69 Y53.51 F6000.0
M3 F6000.0
G01 X65.73 Y53.71 F6000.0
G01 X65.89 Y53.85 F6000.0
G01 X66.33 Y53.97 F6000.0
M5
G00 X66.33 Y53.97 F6000.0
M3 F6000.0
G01 Y53.78 F6000.0
M5
G00 X66.33 Y53.78 F6000.0
M3 F6000.0
G01 X66.61 Y53.6 F6000.0
M5
G00 X66.61 Y53.6 F6000.0
M3 F6000.0
G01 X66.89 Y53.32 F6000.0
G01 X67.17 Y53.6 F6000.0
M5
G00 X67.36 Y53.51 F6000.0
M3 F6000.0
G01 X67.54 Y53.88 F6000.0
G01 X67.73 Y53.69 F6000.0
G01 Y53.51 F6000.0
M5
G00 X67.91 Y53.32 F6000.0
M3 F6000.0
G01 X68.0 Y53.14 F6000.0
M5
G00 X68.19 Y53.04 F6000.0
M3 F6000.0
G01 X67.72 Y52.53 F6000.0
G01 X67.17 Y52.17 F6000.0
G01 X66.7 Y52.3 F6000.0
G01 X66.24 Y52.51 F6000.0
G01 X65.82 Y52.5 F6000.0
G01 X65.44 Y52.34 F6000.0
G01 X64.76 Y51.84 F6000.0
M5
G00 X65.03 Y51.56 F6000.0
M3 F6000.0
G01 X65.13 Y51.47 F6000.0
M5
G00 X64.94 Y50.63 F6000.0
M3 F6000.0
G01 X65.7 Y50.31 F6000.0
G01 X65.74 Y50.29 F6000.0
G01 X66.61 Y49.7 F6000.0
G01 X66.59 Y49.69 F6000.0
G01 X65.78 Y49.05 F6000.0
G01 X65.72 Y49.41 F6000.0
G01 X65.52 Y49.57 F6000.0
G01 X65.25 Y49.54 F6000.0
G01 X65.0 Y49.3 F6000.0
G01 X65.06 Y49.07 F6000.0
G01 X65.36 Y48.95 F6000.0
G01 X65.78 Y49.05 F6000.0
M5
G00 X65.87 Y49.61 F6000.0
M3 F6000.0
G01 X65.96 F6000.0
M5
G00 X66.15 Y50.07 F6000.0
M3 F6000.0
G01 X66.05 Y49.72 F6000.0
G01 X66.15 Y49.42 F6000.0
M5
G00 X66.61 Y49.7 F6000.0
M3 F6000.0
G01 X66.98 Y49.42 F6000.0
M5
G00 X67.26 Y48.78 F6000.0
M3 F6000.0
G01 X68.0 Y48.87 F6000.0
M5
G00 X67.91 Y48.59 F6000.0
M3 F6000.0
G01 X68.75 Y48.31 F6000.0
M5
G00 X69.21 Y48.78 F6000.0
M3 F6000.0
G01 Y48.68 F6000.0
M5
G00 X69.58 Y48.5 F6000.0
M3 F6000.0
G01 Y48.31 F6000.0
M5
G00 X69.67 Y48.5 F6000.0
M3 F6000.0
G01 X69.95 Y49.05 F6000.0
M5
G00 X70.05 Y48.68 F6000.0
M3 F6000.0
G01 X70.23 F6000.0
M5
G00 X70.32 Y48.59 F6000.0
M3 F6000.0
G01 X70.05 Y48.31 F6000.0
M5
G00 X69.95 Y48.5 F6000.0
M3 F6000.0
G01 X69.67 Y48.22 F6000.0
M5
G00 X69.86 Y47.85 F6000.0
M3 F6000.0
G01 X70.05 Y47.75 F6000.0
M5
G00 X70.05 Y47.66 F6000.0
M3 F6000.0
G01 X70.32 Y47.48 F6000.0
M5
G00 X70.32 Y47.38 F6000.0
M3 F6000.0
G01 X70.88 Y47.29 F6000.0
G01 X70.97 Y47.38 F6000.0
M5
G00 X70.97 Y47.48 F6000.0
M3 F6000.0
G01 X71.16 Y47.57 F6000.0
M5
G00 X71.44 Y47.57 F6000.0
M3 F6000.0
G01 X71.72 Y47.38 F6000.0
M5
G00 X71.62 Y47.48 F6000.0
M3 F6000.0
G01 X71.25 Y47.11 F6000.0
G01 X71.53 Y46.83 F6000.0
G01 X71.92 Y47.19 F6000.0
G01 X72.46 Y47.48 F6000.0
M5
G00 X72.36 Y47.38 F6000.0
M3 F6000.0
G01 X72.33 Y47.35 F6000.0
G01 X71.62 Y46.64 F6000.0
G01 X70.88 Y45.9 F6000.0
G01 X70.86 Y45.92 F6000.0
G01 X70.23 Y46.73 F6000.0
G01 X70.6 Y47.2 F6000.0
M5
G00 X70.51 Y47.29 F6000.0
M3 F6000.0
G01 X70.32 Y47.11 F6000.0
M5
G00 X70.14 Y47.29 F6000.0
M3 F6000.0
G01 X70.42 Y47.01 F6000.0
M5
G00 X70.79 Y47.01 F6000.0
M3 F6000.0
G01 X70.51 Y46.73 F6000.0
M5
G00 X70.69 Y46.27 F6000.0
M3 F6000.0
G01 X71.07 Y46.64 F6000.0
G01 X71.08 Y46.63 F6000.0
G01 X71.76 Y45.9 F6000.0
G01 X72.46 Y45.16 F6000.0
G01 X72.69 Y45.43 F6000.0
G01 X72.55 Y45.44 F6000.0
M5
G00 X72.55 Y45.53 F6000.0
M3 F6000.0
G01 X72.43 Y45.43 F6000.0
G01 X71.53 Y44.69 F6000.0
G01 X71.81 Y45.06 F6000.0
M5
G00 X71.9 Y45.16 F6000.0
M3 F6000.0
G01 X72.09 F6000.0
M5
G00 X72.09 Y45.34 F6000.0
M3 F6000.0
G01 X72.2 Y45.07 F6000.0
G01 X72.46 Y44.88 F6000.0
M5
G00 X72.36 Y45.06 F6000.0
M3 F6000.0
G01 Y44.97 F6000.0
M5
G00 X72.27 Y44.79 F6000.0
M3 F6000.0
G01 X72.18 Y44.6 F6000.0
M5
G00 X72.18 Y44.51 F6000.0
M3 F6000.0
G01 X72.36 Y44.32 F6000.0
M5
G00 X72.18 Y44.23 F6000.0
M3 F6000.0
G01 X72.06 Y44.07 F6000.0
G01 X71.34 Y43.12 F6000.0
M5
G00 X71.34 Y43.02 F6000.0
M3 F6000.0
G01 X71.44 Y42.56 F6000.0
G01 X71.9 Y43.02 F6000.0
G01 X72.0 Y42.92 F6000.0
G01 X72.69 Y42.19 F6000.0
G01 X73.48 Y41.35 F6000.0
G01 X73.39 Y41.26 F6000.0
G01 Y42.09 F6000.0
G01 X73.66 Y41.82 F6000.0
G01 X73.39 Y41.91 F6000.0
M5
G00 X72.92 Y42. F6000.0
M3 F6000.0
G01 X72.71 Y41.4 F6000.0
G01 X72.92 Y40.8 F6000.0
M5
G00 X72.83 Y40.61 F6000.0
M3 F6000.0
G01 X73.11 Y40.05 F6000.0
M5
G00 X73.01 Y39.87 F6000.0
M3 F6000.0
G01 X73.29 Y39.59 F6000.0
G01 X73.57 Y39.87 F6000.0
M5
G00 X73.48 Y39.78 F6000.0
M3 F6000.0
G01 X73.66 Y39.59 F6000.0
G01 X73.48 Y39.41 F6000.0
G01 X73.76 Y39.13 F6000.0
M5
G00 X73.76 Y38.85 F6000.0
M3 F6000.0
G01 X73.72 Y38.07 F6000.0
G01 X73.48 Y37.36 F6000.0
G01 X73.16 Y37.72 F6000.0
G01 X72.99 Y37.73 F6000.0
G01 X72.83 Y37.55 F6000.0
G01 X73.13 Y37.77 F6000.0
G01 X73.29 Y38.04 F6000.0
G01 X73.57 Y38.66 F6000.0
M5
G00 X73.48 Y39.13 F6000.0
M3 F6000.0
G01 X73.39 Y38.85 F6000.0
M5
G00 X73.29 Y39.22 F6000.0
M3 F6000.0
G01 X73.48 Y39.13 F6000.0
M5
G00 X73.66 Y39.41 F6000.0
M3 F6000.0
G01 X73.57 Y39.22 F6000.0
M5
G00 X73.2 Y39.41 F6000.0
M3 F6000.0
G01 X73.39 F6000.0
M5
G00 X73.01 Y39.13 F6000.0
M3 F6000.0
G01 Y39.03 F6000.0
M5
G00 X72.83 Y39.03 F6000.0
M3 F6000.0
G01 X72.84 Y38.59 F6000.0
G01 X72.36 Y38.66 F6000.0
G01 X72.43 Y38.74 F6000.0
G01 X73.1 Y39.62 F6000.0
G01 X73.53 Y40.1 F6000.0
G01 X73.85 Y40.24 F6000.0
M5
G00 X73.85 Y40.24 F6000.0
M3 F6000.0
G01 Y40.05 F6000.0
G01 X73.48 F6000.0
M5
G00 X73.94 Y39.96 F6000.0
M3 F6000.0
G01 Y39.87 F6000.0
M5
G00 X74.13 Y40.15 F6000.0
M3 F6000.0
G01 X74.59 Y40.05 F6000.0
M5
G00 X74.41 Y39.87 F6000.0
M3 F6000.0
G01 X74.03 Y39.5 F6000.0
G01 X74.2 Y39.92 F6000.0
G01 X74.5 Y40.15 F6000.0
M5
G00 X74.31 Y39.68 F6000.0
M3 F6000.0
G01 X74.5 Y39.5 F6000.0
M5
G00 X74.41 Y39.22 F6000.0
M3 F6000.0
G01 X74.5 F6000.0
M5
G00 X74.13 Y39.22 F6000.0
M3 F6000.0
G01 X74.5 Y39.5 F6000.0
M5
G00 X74.03 Y39.5 F6000.0
M3 F6000.0
G01 X74.13 Y39.22 F6000.0
M5
G00 X74.22 Y38.94 F6000.0
M3 F6000.0
G01 X73.95 Y39.05 F6000.0
G01 X73.73 Y39.0 F6000.0
G01 X73.2 Y38.75 F6000.0
G01 X72.81 Y38.76 F6000.0
G01 X72.48 Y38.9 F6000.0
G01 X71.9 Y39.41 F6000.0
G01 X72.36 Y39.87 F6000.0
G01 X72.49 Y39.58 F6000.0
G01 X72.36 Y39.31 F6000.0
G01 X72.27 Y39.41 F6000.0
G01 X72.36 Y39.5 F6000.0
M5
G00 X72.36 Y39.59 F6000.0
M3 F6000.0
G01 Y39.5 F6000.0
M5
G00 X72.92 Y39.5 F6000.0
M3 F6000.0
G01 X72.42 Y38.81 F6000.0
G01 X72.27 Y38.01 F6000.0
G01 X72.18 Y37.92 F6000.0
G01 Y38.11 F6000.0
M5
G00 X72.36 Y38.01 F6000.0
M3 F6000.0
G01 X72.27 Y37.18 F6000.0
M5
G00 X72.36 Y37.46 F6000.0
M3 F6000.0
G01 X72.74 Y37.08 F6000.0
G01 X72.55 Y36.9 F6000.0
G01 X72.27 Y37.18 F6000.0
M5
G00 X72.09 Y36.9 F6000.0
M3 F6000.0
G01 X72.92 Y36.62 F6000.0
M5
G00 X73.11 Y36.53 F6000.0
M3 F6000.0
G01 X73.29 Y36.34 F6000.0
M5
G00 X73.39 Y36.81 F6000.0
M3 F6000.0
G01 X73.3 Y36.62 F6000.0
G01 X72.83 Y35.51 F6000.0
G01 X72.29 Y35.98 F6000.0
G01 X72.09 Y36.53 F6000.0
M5
G00 X72.18 Y36.72 F6000.0
M3 F6000.0
G01 X72.55 Y36.34 F6000.0
M5
G00 X72.46 Y36.62 F6000.0
M3 F6000.0
G01 X72.36 Y36.53 F6000.0
M5
G00 X71.99 Y36.25 F6000.0
M3 F6000.0
G01 X72.46 F6000.0
M5
G00 X72.27 Y36.06 F6000.0
M3 F6000.0
G01 X72.74 F6000.0
M5
G00 X72.83 Y36.16 F6000.0
M3 F6000.0
G01 X73.11 Y35.88 F6000.0
M5
G00 X73.01 Y35.69 F6000.0
M3 F6000.0
G01 X72.55 F6000.0
M5
G00 X72.27 Y35.79 F6000.0
M3 F6000.0
G01 Y35.32 F6000.0
G01 X72.83 Y35.42 F6000.0
M5
G00 X72.74 Y35.32 F6000.0
M3 F6000.0
G01 X72.46 Y34.67 F6000.0
M5
G00 X72.36 Y35.04 F6000.0
M3 F6000.0
G01 X72.23 Y34.85 F6000.0
G01 X71.53 Y33.84 F6000.0
M5
G00 X70.97 Y33.84 F6000.0
M3 F6000.0
G01 X70.54 Y33.92 F6000.0
G01 X70.32 Y34.21 F6000.0
G01 X70.6 F6000.0
M5
G00 X70.51 Y34.39 F6000.0
M3 F6000.0
G01 X71.16 Y33.93 F6000.0
M5
G00 X70.69 Y33.47 F6000.0
M3 F6000.0
G01 X70.42 Y33.19 F6000.0
M5
G00 X70.32 Y32.82 F6000.0
M3 F6000.0
G01 X70.05 Y32.54 F6000.0
M5
G00 X69.58 Y32.63 F6000.0
M3 F6000.0
G01 X69.86 Y32.72 F6000.0
M5
G00 X69.49 Y33.1 F6000.0
M3 F6000.0
G01 X69.3 Y32.54 F6000.0
M5
G00 X69.49 Y32.08 F6000.0
M3 F6000.0
G01 X69.21 Y31.98 F6000.0
G01 X69.58 Y32.17 F6000.0
M5
G00 X69.12 Y31.89 F6000.0
M3 F6000.0
G01 X69.3 Y31.8 F6000.0
M5
G00 X69.03 Y31.61 F6000.0
M3 F6000.0
G01 X68.56 Y30.87 F6000.0
M5
G00 X68.1 Y31.33 F6000.0
M3 F6000.0
G01 X67.91 Y31.15 F6000.0
M5
G00 X67.82 Y31.43 F6000.0
M3 F6000.0
G01 X67.36 Y31.8 F6000.0
G01 X67.45 Y31.89 F6000.0
G01 X67.83 Y31.56 F6000.0
G01 X68.28 Y31.52 F6000.0
G01 Y31.61 F6000.0
G01 Y31.7 F6000.0
M5
G00 X67.91 Y31.7 F6000.0
M3 F6000.0
G01 X68.19 Y31.43 F6000.0
M5
G00 X67.73 Y31.89 F6000.0
M3 F6000.0
G01 X67.45 Y31.61 F6000.0
M5
G00 X67.26 Y31.61 F6000.0
M3 F6000.0
G01 X67.45 Y30.68 F6000.0
G01 X67.82 Y31.15 F6000.0
M5
G00 X67.17 Y30.96 F6000.0
M3 F6000.0
G01 X67.54 Y30.87 F6000.0
M5
G00 X67.08 Y30.87 F6000.0
M3 F6000.0
G01 X67.11 Y30.52 F6000.0
G01 X67.36 Y30.31 F6000.0
M5
G00 X66.98 Y30.31 F6000.0
M3 F6000.0
G01 Y29.66 F6000.0
G01 X67.26 Y30.22 F6000.0
M5
G00 X66.89 Y29.48 F6000.0
M3 F6000.0
G01 Y29.29 F6000.0
M5
G00 X67.17 Y31.33 F6000.0
M3 F6000.0
G01 X67.26 Y31.24 F6000.0
M5
G00 X66.52 Y31.8 F6000.0
M3 F6000.0
G01 X66.33 Y31.52 F6000.0
M5
G00 X66.06 Y32.08 F6000.0
M3 F6000.0
G01 X66.02 Y32.0 F6000.0
G01 X65.62 Y31.08 F6000.0
G01 X65.19 Y30.09 F6000.0
G01 X65.17 Y30.01 F6000.0
G01 X64.93 Y29.04 F6000.0
G01 X64.66 Y27.99 F6000.0
M5
G00 X66.24 Y24.93 F6000.0
M3 F6000.0
G01 X66.21 Y24.85 F6000.0
G01 X65.87 Y23.91 F6000.0
G01 X65.5 Y22.89 F6000.0
M5
G00 X65.41 Y22.71 F6000.0
M3 F6000.0
G01 Y22.49 F6000.0
G01 X65.4 Y21.28 F6000.0
G01 X65.59 Y20.39 F6000.0
M5
G00 X65.59 Y20.2 F6000.0
M3 F6000.0
G01 Y20.02 F6000.0
M5
G00 X65.31 Y20.29 F6000.0
M3 F6000.0
G01 X65.69 F6000.0
M5
G00 X65.78 Y21.78 F6000.0
M3 F6000.0
G01 Y21.13 F6000.0
M5
G00 X65.59 Y21.96 F6000.0
M3 F6000.0
G01 Y21.87 F6000.0
M5
G00 X66.61 Y21.96 F6000.0
M3 F6000.0
G01 X66.59 Y21.92 F6000.0
G01 X66.2 Y20.94 F6000.0
G01 X65.78 Y20.29 F6000.0
M5
G00 X66.33 Y22.98 F6000.0
M3 F6000.0
G01 X66.31 Y22.93 F6000.0
G01 X65.87 Y21.96 F6000.0
M5
G00 X66.24 Y23.82 F6000.0
M3 F6000.0
G01 X66.12 Y23.46 F6000.0
G01 X65.69 Y22.15 F6000.0
M5
G00 X63.74 Y22.98 F6000.0
M3 F6000.0
G01 X63.76 Y22.87 F6000.0
G01 X64.02 Y21.78 F6000.0
M5
G00 X63.46 Y23.36 F6000.0
M3 F6000.0
G01 X63.47 Y23.33 F6000.0
G01 X63.68 Y22.32 F6000.0
G01 X64.11 Y21.59 F6000.0
G01 Y21.5 F6000.0
G01 X63.92 Y21.59 F6000.0
M5
G00 X63.37 Y23.63 F6000.0
M3 F6000.0
G01 Y23.54 F6000.0
M5
G00 X62.34 Y24.84 F6000.0
M3 F6000.0
G01 X62.41 Y24.6 F6000.0
G01 X62.73 Y23.4 F6000.0
G01 X62.83 Y23.17 F6000.0
G01 X63.33 Y22.02 F6000.0
G01 X63.41 Y21.8 F6000.0
G01 X63.87 Y20.64 F6000.0
G01 X63.91 Y20.41 F6000.0
G01 X64.11 Y19.18 F6000.0
M5
G00 X61.88 Y18.81 F6000.0
M3 F6000.0
G01 X61.97 Y18.72 F6000.0
M5
G00 X61.33 Y18.72 F6000.0
M3 F6000.0
G01 X61.79 Y18.25 F6000.0
M5
G00 X62.16 Y17.97 F6000.0
M3 F6000.0
G01 X62.25 Y17.88 F6000.0
M5
G00 X61.23 Y17.14 F6000.0
M3 F6000.0
G01 X61.33 Y16.86 F6000.0
M5
G00 X60.21 Y17.05 F6000.0
M3 F6000.0
G01 X60.4 Y16.86 F6000.0
M5
G00 X60.03 Y16.95 F6000.0
M3 F6000.0
G01 X60.21 Y16.77 F6000.0
M5
G00 X59.84 Y17.42 F6000.0
M3 F6000.0
G01 X59.93 Y17.32 F6000.0
M5
G00 X59.47 Y16.86 F6000.0
M3 F6000.0
G01 Y16.77 F6000.0
M5
G00 X59.28 Y17.88 F6000.0
M3 F6000.0
G01 X59.38 F6000.0
M5
G00 X58.63 Y19.09 F6000.0
M3 F6000.0
G01 X58.73 F6000.0
M5
G00 X58.91 Y19.27 F6000.0
M3 F6000.0
G01 X59.01 Y19.09 F6000.0
M5
G00 X59.47 Y19.83 F6000.0
M3 F6000.0
G01 X59.38 Y19.74 F6000.0
M5
G00 X59.1 Y20.02 F6000.0
M3 F6000.0
G01 X59.19 Y19.83 F6000.0
M5
G00 X59.01 Y20.39 F6000.0
M3 F6000.0
G01 Y20.29 F6000.0
M5
G00 X58.26 Y20.2 F6000.0
M3 F6000.0
G01 X58.36 F6000.0
M5
G00 X58.26 Y19.92 F6000.0
M3 F6000.0
G01 X58.36 F6000.0
M5
G00 X57.98 Y20.11 F6000.0
M3 F6000.0
G01 X58.08 Y20.02 F6000.0
M5
G00 X57.8 Y19.92 F6000.0
M3 F6000.0
G01 X58.08 Y19.74 F6000.0
M5
G00 X57.98 Y20.29 F6000.0
M3 F6000.0
G01 X58.08 F6000.0
M5
G00 X58.08 Y20.94 F6000.0
M3 F6000.0
G01 X57.43 Y20.39 F6000.0
M5
G00 X57.24 Y20.2 F6000.0
M3 F6000.0
G01 Y20.11 F6000.0
M5
G00 X57.06 Y20.02 F6000.0
M3 F6000.0
G01 X56.69 Y19.83 F6000.0
M5
G00 X56.13 Y19.55 F6000.0
M3 F6000.0
G01 X55.76 Y19.27 F6000.0
M5
G00 X55.39 Y19.18 F6000.0
M3 F6000.0
G01 X55.29 Y19.09 F6000.0
M5
G00 X56.04 Y18.9 F6000.0
M3 F6000.0
G01 X55.94 Y18.81 F6000.0
M5
G00 X56.5 Y18.81 F6000.0
M3 F6000.0
G01 X56.59 F6000.0
M5
G00 X57.06 Y18.9 F6000.0
M3 F6000.0
G01 X57.52 Y19.0 F6000.0
M5
G00 X56.96 Y18.34 F6000.0
M3 F6000.0
G01 X57.06 F6000.0
M5
G00 X56.41 Y18.07 F6000.0
M3 F6000.0
G01 X56.78 Y18.34 F6000.0
M5
G00 X56.13 Y18.07 F6000.0
M3 F6000.0
G01 X56.22 Y17.97 F6000.0
M5
G00 X55.94 Y17.88 F6000.0
M3 F6000.0
G01 X55.76 Y17.7 F6000.0
M5
G00 X56.22 Y17.32 F6000.0
M3 F6000.0
G01 X56.31 F6000.0
M5
G00 X56.59 Y17.6 F6000.0
M3 F6000.0
G01 X56.78 Y17.7 F6000.0
M5
G00 X56.69 Y17.14 F6000.0
M3 F6000.0
G01 X56.59 Y17.05 F6000.0
M5
G00 X56.31 Y16.86 F6000.0
M3 F6000.0
G01 X56.22 Y16.77 F6000.0
M5
G00 X56.5 Y16.4 F6000.0
M3 F6000.0
G01 X56.31 Y16.3 F6000.0
M5
G00 X55.76 Y16.3 F6000.0
M3 F6000.0
G01 X55.85 F6000.0
M5
G00 X55.11 Y15.93 F6000.0
M3 F6000.0
G01 X55.02 Y15.84 F6000.0
M5
G00 X54.18 Y15.66 F6000.0
M3 F6000.0
G01 Y15.56 F6000.0
M5
G00 X53.9 Y16.3 F6000.0
M3 F6000.0
G01 Y16.21 F6000.0
M5
G00 X54.27 Y16.68 F6000.0
M3 F6000.0
G01 Y16.58 F6000.0
M5
G00 X54.55 Y16.95 F6000.0
M3 F6000.0
G01 X54.46 Y16.86 F6000.0
M5
G00 X54.74 Y16.77 F6000.0
M3 F6000.0
G01 Y16.68 F6000.0
M5
G00 X55.02 Y17.32 F6000.0
M3 F6000.0
G01 X54.74 Y17.05 F6000.0
M5
G00 X54.74 Y17.51 F6000.0
M3 F6000.0
G01 Y17.42 F6000.0
M5
G00 X54.09 Y17.14 F6000.0
M3 F6000.0
G01 X54.18 F6000.0
M5
G00 X53.9 Y17.79 F6000.0
M3 F6000.0
G01 X53.72 Y17.6 F6000.0
M5
G00 X53.35 Y17.23 F6000.0
M3 F6000.0
G01 X53.53 Y17.14 F6000.0
M5
G00 X53.53 Y16.77 F6000.0
M3 F6000.0
G01 X53.62 F6000.0
M5
G00 X52.79 Y16.95 F6000.0
M3 F6000.0
G01 X52.7 Y16.86 F6000.0
M5
G00 X52.51 Y16.68 F6000.0
M3 F6000.0
G01 X52.42 Y16.58 F6000.0
M5
G00 X52.23 Y16.86 F6000.0
M3 F6000.0
G01 X52.33 F6000.0
M5
G00 X51.58 Y17.79 F6000.0
M3 F6000.0
G01 Y17.6 F6000.0
M5
G00 X51.4 Y17.88 F6000.0
M3 F6000.0
G01 X51.49 F6000.0
M5
G00 X51.58 Y18.34 F6000.0
M3 F6000.0
G01 X51.49 Y17.88 F6000.0
M5
G00 X50.84 Y17.88 F6000.0
M3 F6000.0
G01 X50.93 F6000.0
M5
G00 X50.66 Y17.79 F6000.0
M3 F6000.0
G01 X51.19 Y17.53 F6000.0
G01 X51.86 Y17.51 F6000.0
M5
G00 X52.42 Y18.16 F6000.0
M3 F6000.0
G01 X52.88 Y17.88 F6000.0
M5
G00 X52.42 Y18.16 F6000.0
M3 F6000.0
G01 X51.95 Y17.88 F6000.0
M5
G00 X52.14 Y18.34 F6000.0
M3 F6000.0
G01 X52.33 F6000.0
M5
G00 X52.05 Y18.44 F6000.0
M3 F6000.0
G01 X52.51 Y17.7 F6000.0
G01 X52.04 Y17.67 F6000.0
G01 X51.95 Y18.07 F6000.0
M5
G00 X51.86 Y18.72 F6000.0
M3 F6000.0
G01 X52.14 Y18.62 F6000.0
M5
G00 X52.23 Y19. F6000.0
M3 F6000.0
G01 X52.05 Y18.81 F6000.0
M5
G00 X52.51 Y18.9 F6000.0
M3 F6000.0
G01 X52.7 Y18.72 F6000.0
M5
G00 X52.98 Y18.72 F6000.0
M3 F6000.0
G01 X52.7 F6000.0
G01 X52.9 Y18.9 F6000.0
G01 X53.16 F6000.0
M5
G00 X53.35 Y18.9 F6000.0
M3 F6000.0
G01 X53.44 F6000.0
M5
G00 X53.44 Y18.62 F6000.0
M3 F6000.0
G01 X53.25 Y18.44 F6000.0
M5
G00 X53.62 Y19.46 F6000.0
M3 F6000.0
G01 X53.9 Y19.37 F6000.0
M5
G00 X54.09 Y19.55 F6000.0
M3 F6000.0
G01 X53.9 Y19.74 F6000.0
G01 X54.18 Y20.02 F6000.0
G01 X54.37 Y19.83 F6000.0
M5
G00 X53.81 Y19.74 F6000.0
M3 F6000.0
G01 X53.9 F6000.0
M5
G00 X53.25 Y19.74 F6000.0
M3 F6000.0
G01 X52.88 Y19.55 F6000.0
M5
G00 X52.51 Y19.27 F6000.0
M3 F6000.0
G01 Y19.83 F6000.0
G01 Y19.27 F6000.0
G01 X53.07 Y18.72 F6000.0
M5
G00 X53.25 Y20.02 F6000.0
M3 F6000.0
G01 X52.98 Y19.74 F6000.0
M5
G00 X52.7 Y20.02 F6000.0
M3 F6000.0
G01 X52.76 Y19.95 F6000.0
G01 X53.53 Y19.18 F6000.0
M5
G00 X53.62 Y20.39 F6000.0
M3 F6000.0
G01 X53.99 Y20.2 F6000.0
G01 X53.16 F6000.0
G01 X53.44 Y19.64 F6000.0
M5
G00 X52.98 Y20.29 F6000.0
M3 F6000.0
G01 X53.16 Y20.11 F6000.0
M5
G00 X53.44 Y20.48 F6000.0
M3 F6000.0
G01 X53.5 Y20.42 F6000.0
G01 X54.27 Y19.64 F6000.0
M5
G00 X53.99 Y20.48 F6000.0
M3 F6000.0
G01 X53.72 Y20.2 F6000.0
M5
G00 X53.72 Y20.94 F6000.0
M3 F6000.0
G01 X53.9 F6000.0
M5
G00 X53.9 Y21.31 F6000.0
M3 F6000.0
G01 X54.18 F6000.0
M5
G00 X54.37 Y21.41 F6000.0
M3 F6000.0
G01 X54.74 Y21.22 F6000.0
G01 Y21.31 F6000.0
G01 X54.65 Y21.41 F6000.0
G01 X54.22 Y20.95 F6000.0
G01 X54.12 Y20.69 F6000.0
G01 X54.18 Y20.39 F6000.0
G01 X54.27 Y20.48 F6000.0
G01 X53.9 Y20.94 F6000.0
G01 X54.65 Y21.04 F6000.0
M5
G00 X54.65 Y20.85 F6000.0
M3 F6000.0
G01 Y20.76 F6000.0
M5
G00 X54.55 Y20.67 F6000.0
M3 F6000.0
G01 Y20.02 F6000.0
M5
G00 X55.02 Y20.39 F6000.0
M3 F6000.0
G01 X55.2 F6000.0
M5
G00 X55.29 Y20.76 F6000.0
M3 F6000.0
G01 X55.09 Y19.96 F6000.0
G01 X54.64 Y19.27 F6000.0
G01 X54.57 Y19.22 F6000.0
G01 X53.81 Y18.58 F6000.0
G01 X52.98 Y17.88 F6000.0
G01 X52.78 Y18.22 F6000.0
G01 X52.79 Y18.44 F6000.0
G01 X53.16 Y18.07 F6000.0
M5
G00 X51.4 Y19.18 F6000.0
M3 F6000.0
G01 X52.0 Y18.81 F6000.0
G01 X52.42 Y18.44 F6000.0
G01 X52.33 Y18.81 F6000.0
M5
G00 X51.03 Y19. F6000.0
M3 F6000.0
G01 X51.3 Y18.72 F6000.0
M5
G00 X50.84 Y18.16 F6000.0
M3 F6000.0
G01 X51.12 Y18.07 F6000.0
M5
G00 X50.56 Y18.16 F6000.0
M3 F6000.0
G01 X50.66 Y18.07 F6000.0
M5
G00 X50.56 Y17.88 F6000.0
M3 F6000.0
G01 X50.1 Y17.7 F6000.0
M5
G00 X50.47 Y17.6 F6000.0
M3 F6000.0
G01 X50.56 F6000.0
M5
G00 X50.01 Y18.16 F6000.0
M3 F6000.0
G01 X50.32 Y18.39 F6000.0
G01 X50.66 Y18.34 F6000.0
M5
G00 X50.1 Y18.62 F6000.0
M3 F6000.0
G01 X50.38 Y18.34 F6000.0
G01 X50.66 Y18.62 F6000.0
M5
G00 X50.47 Y19. F6000.0
M3 F6000.0
G01 Y18.81 F6000.0
M5
G00 X50.19 Y18.81 F6000.0
M3 F6000.0
G01 X49.54 Y18.62 F6000.0
M5
G00 X49.63 Y18.81 F6000.0
M3 F6000.0
G01 X49.54 Y18.47 F6000.0
G01 X49.62 Y18.19 F6000.0
G01 X50.01 Y17.7 F6000.0
G01 X50.75 Y18.34 F6000.0
M5
G00 X49.91 Y18.16 F6000.0
M3 F6000.0
G01 X50.01 F6000.0
M5
G00 X49.82 Y18.07 F6000.0
M3 F6000.0
G01 X49.54 Y17.88 F6000.0
G01 X49.7 Y18.16 F6000.0
G01 X50.1 Y18.25 F6000.0
M5
G00 X50.19 Y19.09 F6000.0
M3 F6000.0
G01 X49.82 Y19.55 F6000.0
G01 X50.1 Y19.83 F6000.0
G01 X50.56 Y19.37 F6000.0
M5
G00 X50.38 Y19.55 F6000.0
M3 F6000.0
G01 X50.1 Y19.27 F6000.0
M5
G00 X50.1 Y19.55 F6000.0
M3 F6000.0
G01 X49.73 Y19.18 F6000.0
M5
G00 X49.63 Y19.46 F6000.0
M3 F6000.0
G01 Y19.27 F6000.0
M5
G00 X49.45 Y19.55 F6000.0
M3 F6000.0
G01 X49.63 Y19.46 F6000.0
M5
G00 X49.26 Y19.55 F6000.0
M3 F6000.0
G01 X48.99 Y19.37 F6000.0
M5
G00 X48.8 Y19.55 F6000.0
M3 F6000.0
G01 X48.99 Y19.09 F6000.0
G01 X49.17 Y19.27 F6000.0
G01 X48.89 Y19.37 F6000.0
M5
G00 X48.8 Y19.09 F6000.0
M3 F6000.0
G01 X48.89 Y18.62 F6000.0
G01 X49.36 Y19.09 F6000.0
M5
G00 X49.26 Y19.27 F6000.0
M3 F6000.0
G01 X49.54 Y19.02 F6000.0
G01 X49.91 Y19.09 F6000.0
G01 F6000.0
M5
G00 X50.28 Y19.74 F6000.0
M3 F6000.0
G01 X50.56 Y19.64 F6000.0
M5
G00 X50.84 Y19.37 F6000.0
M3 F6000.0
G01 X50.93 Y19.27 F6000.0
M5
G00 X51.3 Y19.83 F6000.0
M3 F6000.0
G01 X52.05 Y19.18 F6000.0
M5
G00 X52.14 Y20.2 F6000.0
M3 F6000.0
G01 X51.77 Y20.02 F6000.0
G01 X52.51 Y19.92 F6000.0
M5
G00 X52.7 Y20.67 F6000.0
M3 F6000.0
G01 X52.59 Y20.56 F6000.0
G01 X51.77 Y19.74 F6000.0
M5
G00 X51.95 Y20.48 F6000.0
M3 F6000.0
G01 X52.23 F6000.0
M5
G00 X51.86 Y20.76 F6000.0
M3 F6000.0
G01 X51.21 Y20.02 F6000.0
M5
G00 X51.12 Y20.29 F6000.0
M3 F6000.0
G01 X51.3 Y20.11 F6000.0
M5
G00 X51.21 Y20.39 F6000.0
M3 F6000.0
G01 X50.8 Y19.79 F6000.0
G01 Y19.29 F6000.0
G01 X51.1 Y18.84 F6000.0
G01 X51.58 Y18.34 F6000.0
G01 X51.6 Y18.36 F6000.0
G01 X52.33 Y19.09 F6000.0
M5
G00 X51.21 Y20.39 F6000.0
M3 F6000.0
G01 F6000.0
G01 X51.77 Y21.22 F6000.0
G01 X52.04 Y20.95 F6000.0
G01 X52.74 Y20.25 F6000.0
G01 X53.72 Y19.27 F6000.0
M5
G00 X53.07 Y20.76 F6000.0
M3 F6000.0
G01 X53.25 F6000.0
M5
G00 X53.35 Y20.94 F6000.0
M3 F6000.0
G01 X53.25 Y20.39 F6000.0
G01 X53.24 F6000.0
G01 X52.23 Y20.48 F6000.0
G01 X52.79 Y20.85 F6000.0
M5
G00 X52.98 Y20.94 F6000.0
M3 F6000.0
G01 X53.25 Y20.67 F6000.0
G01 X52.79 Y20.11 F6000.0
M5
G00 X52.51 Y21.41 F6000.0
M3 F6000.0
G01 X52.7 Y20.94 F6000.0
M5
G00 X52.23 Y21.41 F6000.0
M3 F6000.0
G01 X52.51 Y21.13 F6000.0
G01 X52.79 Y21.41 F6000.0
M5
G00 X52.79 Y21.69 F6000.0
M3 F6000.0
G01 X52.7 Y21.59 F6000.0
M5
G00 X52.7 Y21.87 F6000.0
M3 F6000.0
G01 X52.98 F6000.0
M5
G00 X52.88 Y22.06 F6000.0
M3 F6000.0
G01 X53.07 F6000.0
M5
G00 X53.25 Y22.15 F6000.0
M3 F6000.0
G01 X53.38 Y22.0 F6000.0
G01 X54.16 Y21.1 F6000.0
G01 X54.2 Y21.06 F6000.0
G01 X55.02 Y20.39 F6000.0
G01 X54.96 Y20.33 F6000.0
G01 X54.2 Y19.55 F6000.0
G01 X53.71 Y19.19 F6000.0
G01 X53.16 Y19.0 F6000.0
G01 X53.44 Y18.62 F6000.0
G01 X53.53 Y18.9 F6000.0
M5
G00 X54.46 Y20.94 F6000.0
M3 F6000.0
G01 X54.18 Y20.67 F6000.0
M5
G00 X54.92 Y20.76 F6000.0
M3 F6000.0
G01 X54.83 Y20.29 F6000.0
M5
G00 X55.11 Y20.94 F6000.0
M3 F6000.0
G01 X55.2 Y20.81 F6000.0
G01 X55.39 Y20.85 F6000.0
M5
G00 X55.2 Y21.22 F6000.0
M3 F6000.0
G01 Y21.13 F6000.0
M5
G00 X55.29 Y21.41 F6000.0
M3 F6000.0
G01 X55.39 Y21.5 F6000.0
G01 X55.57 Y21.31 F6000.0
M5
G00 X55.48 Y21.69 F6000.0
M3 F6000.0
G01 X55.66 F6000.0
M5
G00 X55.39 Y22.15 F6000.0
M3 F6000.0
G01 X55.76 Y21.78 F6000.0
M5
G00 X55.48 Y22.24 F6000.0
M3 F6000.0
G01 X55.39 Y21.87 F6000.0
G01 X55.66 Y22.15 F6000.0
M5
G00 X55.57 Y22.33 F6000.0
M3 F6000.0
G01 X55.66 Y22.15 F6000.0
M5
G00 X55.57 Y22.61 F6000.0
M3 F6000.0
G01 X55.66 Y22.52 F6000.0
M5
G00 X56.22 Y22.8 F6000.0
M3 F6000.0
G01 X56.13 Y22.71 F6000.0
M5
G00 X56.31 Y23.08 F6000.0
M3 F6000.0
G01 X56.71 Y23.27 F6000.0
G01 X56.87 Y23.63 F6000.0
G01 X56.96 Y23.73 F6000.0
G01 X57.06 Y23.63 F6000.0
G01 X57.15 Y23.54 F6000.0
M5
G00 X56.69 Y23.26 F6000.0
M3 F6000.0
G01 X56.59 Y22.89 F6000.0
M5
G00 X56.59 Y22.8 F6000.0
M3 F6000.0
G01 X56.22 Y22.61 F6000.0
M5
G00 X56.87 Y22.33 F6000.0
M3 F6000.0
G01 X56.96 Y22.24 F6000.0
M5
G00 X57.15 Y21.5 F6000.0
M3 F6000.0
G01 X57.24 F6000.0
M5
G00 X56.96 Y21.31 F6000.0
M3 F6000.0
G01 X57.06 F6000.0
M5
G00 X57.24 Y21.13 F6000.0
M3 F6000.0
G01 X57.06 Y20.94 F6000.0
M5
G00 X56.87 Y20.85 F6000.0
M3 F6000.0
G01 X56.78 Y20.76 F6000.0
M5
G00 X56.41 Y21.31 F6000.0
M3 F6000.0
G01 X56.78 Y21.59 F6000.0
M5
G00 X57.61 Y21.13 F6000.0
M3 F6000.0
G01 X57.43 Y21.04 F6000.0
M5
G00 X57.89 Y21.96 F6000.0
M3 F6000.0
G01 X57.71 Y21.78 F6000.0
M5
G00 X58.17 Y21.96 F6000.0
M3 F6000.0
G01 Y21.87 F6000.0
M5
G00 X57.89 Y22.24 F6000.0
M3 F6000.0
G01 X57.8 Y22.15 F6000.0
M5
G00 X58.26 Y22.43 F6000.0
M3 F6000.0
G01 X58.17 Y22.24 F6000.0
M5
G00 X58.45 Y22.24 F6000.0
M3 F6000.0
G01 X58.36 Y22.15 F6000.0
M5
G00 X58.63 Y22.06 F6000.0
M3 F6000.0
G01 X58.91 Y22.24 F6000.0
M5
G00 X58.63 Y22.43 F6000.0
M3 F6000.0
G01 Y22.33 F6000.0
M5
G00 X57.8 Y22.71 F6000.0
M3 F6000.0
G01 X57.61 Y22.43 F6000.0
M5
G00 X56.59 Y23.73 F6000.0
M3 F6000.0
G01 X56.5 Y23.54 F6000.0
M5
G00 X56.22 Y23.82 F6000.0
M3 F6000.0
G01 X56.04 Y23.54 F6000.0
M5
G00 X55.94 Y23.45 F6000.0
M3 F6000.0
G01 X56.13 Y23.26 F6000.0
G01 X56.5 Y23.54 F6000.0
M5
G00 X56.59 Y24. F6000.0
M3 F6000.0
G01 X57.06 Y23.82 F6000.0
M5
G00 X56.96 Y24.47 F6000.0
M3 F6000.0
G01 X56.87 Y24.38 F6000.0
M5
G00 X56.22 Y24.56 F6000.0
M3 F6000.0
G01 X56.59 Y24.75 F6000.0
M5
G00 X56.31 Y24.93 F6000.0
M3 F6000.0
G01 X56.5 Y24.47 F6000.0
M5
G00 X56.13 Y24.1 F6000.0
M3 F6000.0
G01 X56.41 Y24.28 F6000.0
G01 X56.31 Y23.73 F6000.0
G01 Y24.0 F6000.0
M5
G00 X55.94 Y24.56 F6000.0
M3 F6000.0
G01 Y24.38 F6000.0
M5
G00 X55.57 Y24.47 F6000.0
M3 F6000.0
G01 X55.76 F6000.0
G01 X55.85 Y24.75 F6000.0
M5
G00 X55.85 Y24.75 F6000.0
M3 F6000.0
G01 X56.5 Y25.4 F6000.0
M5
G00 X56.59 Y25.21 F6000.0
M3 F6000.0
G01 X56.13 Y24.75 F6000.0
M5
G00 X56.5 Y25.12 F6000.0
M3 F6000.0
G01 X56.78 Y25.03 F6000.0
M5
G00 X56.78 Y25.12 F6000.0
M3 F6000.0
G01 Y25.03 F6000.0
M5
G00 X56.78 Y25.3 F6000.0
M3 F6000.0
G01 X56.72 Y25.51 F6000.0
G01 X56.87 Y25.77 F6000.0
M5
G00 X56.78 Y26.05 F6000.0
M3 F6000.0
G01 X56.72 Y25.98 F6000.0
G01 X56.04 Y25.26 F6000.0
G01 X55.29 Y24.47 F6000.0
M5
G00 X55.29 Y24.19 F6000.0
M3 F6000.0
G01 X55.37 Y23.93 F6000.0
G01 X55.66 Y24.0 F6000.0
G01 F6000.0
M5
G00 X55.57 Y24.19 F6000.0
M3 F6000.0
G01 X54.92 Y23.54 F6000.0
G01 X54.65 Y23.82 F6000.0
G01 X54.18 Y23.45 F6000.0
G01 X53.9 Y24.0 F6000.0
G01 X54.27 Y24.28 F6000.0
M5
G00 X54.27 Y24.1 F6000.0
M3 F6000.0
G01 X54.46 Y23.91 F6000.0
M5
G00 X54.65 Y24.19 F6000.0
M3 F6000.0
G01 X54.74 Y24.0 F6000.0
G01 X54.46 Y23.73 F6000.0
M5
G00 X54.37 Y23.54 F6000.0
M3 F6000.0
G01 X54.65 Y23.26 F6000.0
G01 X54.92 Y23.54 F6000.0
M5
G00 X54.65 Y23.54 F6000.0
M3 F6000.0
G01 X54.92 Y23.26 F6000.0
M5
G00 X54.65 Y23.26 F6000.0
M3 F6000.0
G01 X54.49 Y23.06 F6000.0
G01 X53.72 Y22.06 F6000.0
G01 X53.32 Y22.11 F6000.0
G01 X52.98 Y21.87 F6000.0
G01 X53.52 Y21.31 F6000.0
G01 X53.69 Y20.98 F6000.0
G01 X53.62 Y20.66 F6000.0
M5
G00 X53.25 Y21.87 F6000.0
M3 F6000.0
G01 X53.44 Y21.13 F6000.0
G01 X53.72 Y21.41 F6000.0
M5
G00 X53.53 Y22.15 F6000.0
M3 F6000.0
G01 X53.07 Y21.41 F6000.0
M5
G00 X53.07 Y22.33 F6000.0
M3 F6000.0
G01 X53.16 F6000.0
M5
G00 X53.25 Y22.52 F6000.0
M3 F6000.0
G01 X53.35 Y22.33 F6000.0
M5
G00 X53.44 Y22.61 F6000.0
M3 F6000.0
G01 X53.72 Y22.89 F6000.0
G01 X53.81 Y22.8 F6000.0
M5
G00 X53.62 Y22.52 F6000.0
M3 F6000.0
G01 X53.44 Y22.33 F6000.0
M5
G00 X53.72 Y22.33 F6000.0
M3 F6000.0
G01 X53.73 Y22.32 F6000.0
G01 X54.46 Y21.59 F6000.0
M5
G00 X54.92 Y21.41 F6000.0
M3 F6000.0
G01 X55.05 Y21.09 F6000.0
G01 X55.29 Y21.04 F6000.0
G01 X55.39 Y20.94 F6000.0
G01 X55.48 Y21.04 F6000.0
M5
G00 X54.92 Y21.78 F6000.0
M3 F6000.0
G01 X55.11 Y21.87 F6000.0
G01 X55.39 Y21.78 F6000.0
M5
G00 X55.11 Y21.96 F6000.0
M3 F6000.0
G01 X55.14 Y22.06 F6000.0
G01 X55.29 Y21.96 F6000.0
M5
G00 X54.83 Y22.52 F6000.0
M3 F6000.0
G01 X54.73 Y22.44 F6000.0
G01 X53.95 Y21.82 F6000.0
G01 X53.07 Y21.13 F6000.0
G01 X52.7 Y21.59 F6000.0
G01 X52.45 Y21.29 F6000.0
G01 X51.58 Y20.2 F6000.0
G01 X51.03 Y20.76 F6000.0
G01 X51.58 F6000.0
G01 X52.05 Y21.22 F6000.0
G01 X51.95 Y20.76 F6000.0
M5
G00 X51.58 Y20.76 F6000.0
M3 F6000.0
G01 X51.3 Y20.48 F6000.0
M5
G00 X50.84 Y20.39 F6000.0
M3 F6000.0
G01 Y20.57 F6000.0
G01 X50.47 Y20.29 F6000.0
M5
G00 X50.84 Y20.29 F6000.0
M3 F6000.0
G01 X51.12 Y20.02 F6000.0
G01 X50.84 Y19.74 F6000.0
G01 X50.56 Y20.02 F6000.0
G01 X50.84 Y20.29 F6000.0
M5
G00 X50.66 Y20.85 F6000.0
M3 F6000.0
G01 X50.84 F6000.0
M5
G00 X51.03 Y21.04 F6000.0
M3 F6000.0
G01 X51.16 Y20.91 F6000.0
G01 X52.04 Y20.11 F6000.0
G01 X52.47 Y19.54 F6000.0
G01 X52.51 Y19.0 F6000.0
G01 Y19.55 F6000.0
M5
G00 X51.49 Y21.22 F6000.0
M3 F6000.0
G01 X51.77 Y20.85 F6000.0
M5
G00 X51.4 Y21.59 F6000.0
M3 F6000.0
G01 X51.58 Y21.41 F6000.0
G01 X51.3 Y21.13 F6000.0
G01 Y21.31 F6000.0
M5
G00 X51.03 Y21.69 F6000.0
M3 F6000.0
G01 X51.4 Y21.5 F6000.0
G01 Y21.59 F6000.0
G01 X51.3 Y21.69 F6000.0
G01 X51.12 Y21.47 F6000.0
G01 X50.47 Y20.71 F6000.0
G01 X49.63 Y19.74 F6000.0
G01 X49.15 Y19.97 F6000.0
G01 X48.89 Y19.64 F6000.0
G01 X49.02 Y19.75 F6000.0
G01 X48.99 Y20.02 F6000.0
M5
G00 X49.17 Y20.11 F6000.0
M3 F6000.0
G01 X49.69 Y19.92 F6000.0
G01 X50.3 Y19.42 F6000.0
G01 X50.8 Y18.8 F6000.0
G01 X51.03 Y18.25 F6000.0
G01 X51.95 F6000.0
G01 X51.67 Y18.42 F6000.0
G01 X51.3 Y18.34 F6000.0
M5
G00 X49.17 Y18.62 F6000.0
M3 F6000.0
G01 X49.08 Y18.49 F6000.0
G01 X48.89 Y18.53 F6000.0
M5
G00 X48.99 Y18.34 F6000.0
M3 F6000.0
G01 X49.36 Y17.97 F6000.0
M5
G00 X49.08 Y18.72 F6000.0
M3 F6000.0
G01 X49.36 Y18.25 F6000.0
M5
G00 X49.08 Y19.09 F6000.0
M3 F6000.0
G01 X49.45 Y18.9 F6000.0
M5
G00 X49.08 Y19.64 F6000.0
M3 F6000.0
G01 X49.17 Y19.56 F6000.0
G01 X50.01 Y18.81 F6000.0
G01 X49.63 Y19.27 F6000.0
M5
G00 X49.63 Y20.02 F6000.0
M3 F6000.0
G01 X49.26 Y19.83 F6000.0
M5
G00 X49.36 Y20.02 F6000.0
M3 F6000.0
G01 X49.82 Y20.11 F6000.0
M5
G00 X50.1 Y20.48 F6000.0
M3 F6000.0
G01 X50.38 Y20.2 F6000.0
M5
G00 X50.1 Y20.76 F6000.0
M3 F6000.0
G01 X50.36 Y20.42 F6000.0
G01 X51.21 Y19.27 F6000.0
G01 X50.56 Y18.81 F6000.0
G01 X50.84 Y18.53 F6000.0
G01 X50.96 Y18.75 F6000.0
G01 X51.58 Y19.83 F6000.0
G01 X51.86 Y19.55 F6000.0
G01 X51.4 Y19.46 F6000.0
M5
G00 X50.47 Y20.94 F6000.0
M3 F6000.0
G01 X49.82 Y20.48 F6000.0
G01 X50.1 Y20.2 F6000.0
G01 X50.66 Y20.85 F6000.0
M5
G00 X50.56 Y21.22 F6000.0
M3 F6000.0
G01 X50.84 Y21.12 F6000.0
G01 X51.12 Y21.22 F6000.0
G01 X50.53 Y21.62 F6000.0
G01 X50.41 Y21.84 F6000.0
G01 X50.47 Y22.15 F6000.0
G01 X50.75 Y21.96 F6000.0
M5
G00 X50.84 Y21.87 F6000.0
M3 F6000.0
G01 X50.75 Y21.69 F6000.0
M5
G00 X50.56 Y21.78 F6000.0
M3 F6000.0
G01 Y21.59 F6000.0
M5
G00 X50.28 Y21.41 F6000.0
M3 F6000.0
G01 Y21.22 F6000.0
M5
G00 X49.91 Y21.31 F6000.0
M3 F6000.0
G01 X50.19 Y21.22 F6000.0
M5
G00 X50.01 Y21.5 F6000.0
M3 F6000.0
G01 X49.82 Y21.13 F6000.0
G01 X50.38 Y20.76 F6000.0
M5
G00 X49.63 Y20.67 F6000.0
M3 F6000.0
G01 X49.54 Y21.04 F6000.0
G01 X50.01 Y20.94 F6000.0
M5
G00 X49.45 Y20.85 F6000.0
M3 F6000.0
G01 X49.36 Y20.39 F6000.0
G01 X49.45 Y20.55 F6000.0
G01 X49.36 Y20.67 F6000.0
M5
G00 X49.57 Y20.57 F6000.0
M3 F6000.0
G01 X49.6 Y20.48 F6000.0
G01 X49.57 Y20.57 F6000.0
M5
G00 X49.08 Y20.39 F6000.0
M3 F6000.0
G01 X48.99 Y20.2 F6000.0
M5
G00 X48.71 Y20.94 F6000.0
M3 F6000.0
G01 Y20.85 F6000.0
M5
G00 X48.89 Y21.04 F6000.0
M3 F6000.0
G01 Y20.94 F6000.0
M5
G00 X49.17 Y21.22 F6000.0
M3 F6000.0
G01 X49.08 Y21.13 F6000.0
M5
G00 X48.8 Y21.41 F6000.0
M3 F6000.0
G01 X48.24 Y20.85 F6000.0
M5
G00 X48.34 Y20.67 F6000.0
M3 F6000.0
G01 Y20.57 F6000.0
M5
G00 X47.87 Y20.2 F6000.0
M3 F6000.0
G01 Y20.11 F6000.0
M5
G00 X47.22 Y20.11 F6000.0
M3 F6000.0
G01 X47.78 Y19.64 F6000.0
M5
G00 X48.06 Y19. F6000.0
M3 F6000.0
G01 X48.15 Y18.9 F6000.0
M5
G00 X48.34 Y18.81 F6000.0
M3 F6000.0
G01 X48.43 Y18.72 F6000.0
M5
G00 X48.06 Y18.72 F6000.0
M3 F6000.0
G01 X48.34 Y18.44 F6000.0
M5
G00 X47.5 Y18.07 F6000.0
M3 F6000.0
G01 Y17.97 F6000.0
M5
G00 X47.5 Y17.79 F6000.0
M3 F6000.0
G01 Y17.7 F6000.0
M5
G00 X46.85 Y17.97 F6000.0
M3 F6000.0
G01 X46.39 Y17.6 F6000.0
M5
G00 X46.2 Y17.42 F6000.0
M3 F6000.0
G01 X46.57 F6000.0
M5
G00 X47.41 Y16.95 F6000.0
M3 F6000.0
G01 X47.59 Y17.05 F6000.0
M5
G00 X47.22 Y16.21 F6000.0
M3 F6000.0
G01 X47.32 Y16.12 F6000.0
M5
G00 X47.04 Y16.03 F6000.0
M3 F6000.0
G01 X47.13 F6000.0
M5
G00 X46.48 Y16.4 F6000.0
M3 F6000.0
G01 Y16.3 F6000.0
M5
G00 X46.57 Y15.19 F6000.0
M3 F6000.0
G01 X46.48 Y15.1 F6000.0
M5
G00 X46.67 Y14.91 F6000.0
M3 F6000.0
G01 X46.76 F6000.0
M5
G00 X47.04 Y14.54 F6000.0
M3 F6000.0
G01 X47.13 F6000.0
M5
G00 X47.32 Y14.82 F6000.0
M3 F6000.0
G01 X47.22 Y14.73 F6000.0
M5
G00 X47.69 Y14.45 F6000.0
M3 F6000.0
G01 X47.22 Y13.99 F6000.0
M5
G00 X46.85 Y14.26 F6000.0
M3 F6000.0
G01 X46.76 Y14.17 F6000.0
M5
G00 X46.57 Y13.99 F6000.0
M3 F6000.0
G01 X46.2 Y13.71 F6000.0
M5
G00 X45.83 Y13.52 F6000.0
M3 F6000.0
G01 X45.74 Y13.43 F6000.0
M5
G00 X45.27 Y13.71 F6000.0
M3 F6000.0
G01 X45.18 Y13.61 F6000.0
M5
G00 X45.27 Y14.08 F6000.0
M3 F6000.0
G01 X45.0 Y13.8 F6000.0
M5
G00 X44.62 Y13.99 F6000.0
M3 F6000.0
G01 X44.25 Y13.61 F6000.0
M5
G00 X44.44 Y13.43 F6000.0
M3 F6000.0
G01 X44.35 Y13.34 F6000.0
M5
G00 X44.16 Y13.15 F6000.0
M3 F6000.0
G01 X44.25 F6000.0
M5
G00 X43.6 Y12.13 F6000.0
M3 F6000.0
G01 Y12.04 F6000.0
M5
G00 X42.86 Y12.59 F6000.0
M3 F6000.0
G01 X43.05 Y12.41 F6000.0
M5
G00 X42.58 Y12.13 F6000.0
M3 F6000.0
G01 X42.96 Y12.31 F6000.0
M5
G00 X42.58 Y12.04 F6000.0
M3 F6000.0
G01 X42.96 Y11.57 F6000.0
M5
G00 X42.68 Y11.29 F6000.0
M3 F6000.0
G01 X42.86 F6000.0
M5
G00 X42.4 Y11.29 F6000.0
M3 F6000.0
G01 X42.12 Y10.74 F6000.0
M5
G00 X41.94 Y10.55 F6000.0
M3 F6000.0
G01 Y10.54 F6000.0
G01 X42.4 Y9.62 F6000.0
M5
G00 X42.31 Y9.72 F6000.0
M3 F6000.0
G01 X42.12 Y9.53 F6000.0
G01 X42.31 Y9.35 F6000.0
G01 X42.4 Y9.62 F6000.0
M5
G00 X42.31 Y9.25 F6000.0
M3 F6000.0
G01 X42.21 Y9.16 F6000.0
M5
G00 X42.03 Y9.16 F6000.0
M3 F6000.0
G01 X42.12 F6000.0
M5
G00 X42.12 Y8.88 F6000.0
M3 F6000.0
G01 X42.4 Y8.6 F6000.0
M5
G00 X42.03 Y8.51 F6000.0
M3 F6000.0
G01 X41.94 Y8.42 F6000.0
M5
G00 X41.75 Y8.14 F6000.0
M3 F6000.0
G01 X41.56 Y7.96 F6000.0
M5
G00 X41.19 Y8.05 F6000.0
M3 F6000.0
G01 X41.28 Y8.14 F6000.0
G01 X41.47 Y7.96 F6000.0
G01 X41.34 Y7.78 F6000.0
G01 X41.19 Y7.86 F6000.0
M5
G00 X41.01 Y8.23 F6000.0
M3 F6000.0
G01 X40.36 Y7.86 F6000.0
M5
G00 X40.73 Y7.86 F6000.0
M3 F6000.0
G01 X41.01 Y8.14 F6000.0
G01 X41.1 Y7.86 F6000.0
M5
G00 X40.73 Y8.14 F6000.0
M3 F6000.0
G01 X41.01 Y7.86 F6000.0
G01 X40.54 Y7.68 F6000.0
M5
G00 X39.8 Y7.86 F6000.0
M3 F6000.0
G01 X39.62 Y7.68 F6000.0
M5
G00 X39.52 Y7.96 F6000.0
M3 F6000.0
G01 Y7.77 F6000.0
M5
G00 X39.24 Y8.05 F6000.0
M3 F6000.0
G01 X38.87 Y7.86 F6000.0
M5
G00 X38.97 Y7.77 F6000.0
M3 F6000.0
G01 X39.15 F6000.0
M5
G00 X39.06 Y8.33 F6000.0
M3 F6000.0
G01 X38.78 Y7.58 F6000.0
G01 X38.76 Y7.59 F6000.0
G01 X37.85 Y8.05 F6000.0
G01 X37.76 Y7.96 F6000.0
G01 X37.67 Y7.86 F6000.0
G01 X37.58 Y7.77 F6000.0
M5
G00 X37.67 Y7.58 F6000.0
M3 F6000.0
G01 X37.3 Y7.21 F6000.0
M5
G00 X37.67 Y7.21 F6000.0
M3 F6000.0
G01 X37.48 Y7.12 F6000.0
M5
G00 X37.85 Y6.93 F6000.0
M3 F6000.0
G01 X37.76 Y6.84 F6000.0
M5
G00 X38.04 Y7.12 F6000.0
M3 F6000.0
G01 Y7.03 F6000.0
M5
G00 X38.13 Y6.66 F6000.0
M3 F6000.0
G01 X38.69 Y6.84 F6000.0
M5
G00 X37.85 Y7.4 F6000.0
M3 F6000.0
G01 X38.04 Y7.49 F6000.0
M5
G00 X38.13 Y7.96 F6000.0
M3 F6000.0
G01 X38.5 F6000.0
M5
G00 X38.5 Y8.05 F6000.0
M3 F6000.0
G01 X38.59 Y7.77 F6000.0
M5
G00 X37.67 Y8.23 F6000.0
M3 F6000.0
G01 X37.76 F6000.0
M5
G00 X38.04 Y8.79 F6000.0
M3 F6000.0
G01 X38.27 Y8.6 F6000.0
G01 X38.22 Y8.33 F6000.0
M5
G00 X38.41 Y9.07 F6000.0
M3 F6000.0
G01 X38.55 Y8.75 F6000.0
G01 X38.87 Y8.79 F6000.0
G01 X38.78 Y8.88 F6000.0
G01 X38.69 F6000.0
G01 X39.15 Y8.42 F6000.0
M5
G00 X39.34 Y8.6 F6000.0
M3 F6000.0
G01 X39.15 Y8.42 F6000.0
M5
G00 X39.15 Y8.79 F6000.0
M3 F6000.0
G01 Y8.7 F6000.0
M5
G00 X39.24 Y8.79 F6000.0
M3 F6000.0
G01 X39.71 Y8.33 F6000.0
M5
G00 X39.8 Y8.42 F6000.0
M3 F6000.0
G01 X39.99 F6000.0
M5
G00 X40.08 Y8.33 F6000.0
M3 F6000.0
G01 X39.8 Y8.14 F6000.0
M5
G00 X40.27 Y8.6 F6000.0
M3 F6000.0
G01 X40.54 Y8.33 F6000.0
G01 X40.27 Y8.23 F6000.0
M5
G00 X40.45 Y8.79 F6000.0
M3 F6000.0
G01 X40.54 Y8.6 F6000.0
M5
G00 X40.73 Y8.79 F6000.0
M3 F6000.0
G01 X41.01 Y8.51 F6000.0
G01 X41.28 Y8.79 F6000.0
M5
G00 X41.38 Y8.51 F6000.0
M3 F6000.0
G01 X41.28 Y8.35 F6000.0
G01 X41.38 Y8.33 F6000.0
M5
G00 X41.84 Y8.79 F6000.0
M3 F6000.0
G01 X42.03 Y8.6 F6000.0
M5
G00 X41.47 Y9.16 F6000.0
M3 F6000.0
G01 X41.75 Y8.88 F6000.0
M5
G00 X41.47 Y9.16 F6000.0
M3 F6000.0
G01 F6000.0
G01 X40.64 Y8.6 F6000.0
M5
G00 X40.64 Y9.07 F6000.0
M3 F6000.0
G01 Y8.88 F6000.0
M5
G00 X40.73 Y9.07 F6000.0
M3 F6000.0
G01 X41.38 Y8.51 F6000.0
M5
G00 X41.01 Y9.07 F6000.0
M3 F6000.0
G01 X41.28 Y8.79 F6000.0
G01 X41.66 Y9.07 F6000.0
M5
G00 X41.47 Y9.53 F6000.0
M3 F6000.0
G01 X41.17 Y9.24 F6000.0
G01 X40.17 Y8.23 F6000.0
G01 X39.99 Y8.42 F6000.0
G01 X40.36 Y8.79 F6000.0
G01 X39.86 Y8.76 F6000.0
G01 X39.34 Y8.33 F6000.0
G01 X39.43 Y8.27 F6000.0
G01 X40.36 Y7.68 F6000.0
G01 X40.25 Y7.81 F6000.0
G01 X40.08 Y7.77 F6000.0
M5
G00 X39.99 Y8.79 F6000.0
M3 F6000.0
G01 X40.27 Y8.6 F6000.0
M5
G00 X40.36 Y9.07 F6000.0
M3 F6000.0
G01 X40.17 Y8.88 F6000.0
M5
G00 X40.08 Y9.16 F6000.0
M3 F6000.0
G01 Y8.97 F6000.0
M5
G00 X39.8 Y9.07 F6000.0
M3 F6000.0
G01 X39.52 Y8.79 F6000.0
M5
G00 X39.34 Y8.88 F6000.0
M3 F6000.0
G01 X38.78 Y8.33 F6000.0
G01 X39.34 Y7.68 F6000.0
G01 X39.71 Y8.42 F6000.0
M5
G00 X39.52 Y9.07 F6000.0
M3 F6000.0
G01 X39.8 Y8.79 F6000.0
M5
G00 X39.8 Y9.16 F6000.0
M3 F6000.0
G01 X39.99 Y8.79 F6000.0
M5
G00 X40.27 Y9.44 F6000.0
M3 F6000.0
G01 X40.45 Y9.25 F6000.0
M5
G00 X40.82 Y9.35 F6000.0
M3 F6000.0
G01 X40.91 Y9.16 F6000.0
M5
G00 X40.73 Y9.62 F6000.0
M3 F6000.0
G01 X40.45 Y9.25 F6000.0
M5
G00 X40.64 Y9.72 F6000.0
M3 F6000.0
G01 X40.82 Y9.53 F6000.0
M5
G00 X40.82 Y9.9 F6000.0
M3 F6000.0
G01 X40.91 Y9.53 F6000.0
M5
G00 X41.19 Y9.72 F6000.0
M3 F6000.0
G01 X41.38 F6000.0
M5
G00 X41.38 Y9.72 F6000.0
M3 F6000.0
G01 X41.86 Y9.42 F6000.0
G01 X42.21 Y8.97 F6000.0
G01 X41.84 Y8.79 F6000.0
M5
G00 X42.86 Y8.97 F6000.0
M3 F6000.0
G01 X42.68 Y8.79 F6000.0
M5
G00 X42.4 Y10.09 F6000.0
M3 F6000.0
G01 X42.58 F6000.0
M5
G00 X42.4 Y10.46 F6000.0
M3 F6000.0
G01 X42.58 Y10.27 F6000.0
M5
G00 X42.49 Y10.55 F6000.0
M3 F6000.0
G01 X41.94 Y10.18 F6000.0
G01 X42.12 Y10.14 F6000.0
G01 X42.21 Y10.27 F6000.0
M5
G00 X42.4 Y10.74 F6000.0
M3 F6000.0
G01 X42.58 Y10.55 F6000.0
M5
G00 X41.75 Y11.02 F6000.0
M3 F6000.0
G01 X42.03 Y10.74 F6000.0
G01 X41.75 Y10.65 F6000.0
M5
G00 X41.47 Y10.37 F6000.0
M3 F6000.0
G01 X41.38 Y10.27 F6000.0
M5
G00 X41.47 Y10.09 F6000.0
M3 F6000.0
G01 X41.94 Y10.18 F6000.0
M5
G00 X41.75 Y9.9 F6000.0
M3 F6000.0
G01 Y9.72 F6000.0
M5
G00 X41.47 Y9.9 F6000.0
M3 F6000.0
G01 X41.63 Y9.5 F6000.0
G01 X41.77 Y9.46 F6000.0
G01 X41.94 Y9.62 F6000.0
M5
G00 X41.1 Y9.9 F6000.0
M3 F6000.0
G01 X41.38 Y10.0 F6000.0
M5
G00 X40.54 Y9.9 F6000.0
M3 F6000.0
G01 X40.82 F6000.0
M5
G00 X40.27 Y10.09 F6000.0
M3 F6000.0
G01 X40.28 Y10.11 F6000.0
G01 X41.01 Y10.83 F6000.0
G01 X41.28 Y10.55 F6000.0
G01 X40.82 Y10.09 F6000.0
G01 X40.84 Y10.07 F6000.0
G01 X41.47 Y9.25 F6000.0
G01 X42.12 Y9.9 F6000.0
G01 X41.66 Y10.0 F6000.0
M5
G00 X41.47 Y11.02 F6000.0
M3 F6000.0
G01 X41.75 Y10.74 F6000.0
G01 X41.94 Y11.11 F6000.0
M5
G00 X41.84 Y11.39 F6000.0
M3 F6000.0
G01 X41.83 Y11.37 F6000.0
G01 X41.13 Y10.62 F6000.0
G01 X40.71 Y10.36 F6000.0
G01 X40.27 Y10.37 F6000.0
G01 X40.54 Y10.0 F6000.0
M5
G00 X39.99 Y10.09 F6000.0
M3 F6000.0
G01 X40.36 Y9.9 F6000.0
M5
G00 X39.8 Y9.9 F6000.0
M3 F6000.0
G01 X39.98 Y9.53 F6000.0
G01 X40.27 Y9.44 F6000.0
G01 X40.5 Y9.35 F6000.0
G01 X40.45 Y8.97 F6000.0
G01 X40.54 Y8.88 F6000.0
G01 X41.01 Y9.35 F6000.0
G01 X41.12 Y9.19 F6000.0
G01 X41.84 Y8.23 F6000.0
G01 X41.94 Y8.33 F6000.0
G01 Y8.42 F6000.0
G01 X41.69 F6000.0
G01 X41.56 Y8.23 F6000.0
G01 X41.66 Y8.14 F6000.0
G01 X41.75 F6000.0
M5
G00 X42.96 Y5.73 F6000.0
M3 F6000.0
G01 Y5.64 F6000.0
M5
G00 X43.88 Y10. F6000.0
M3 F6000.0
G01 X43.7 Y9.81 F6000.0
M5
G00 X43.98 Y10.46 F6000.0
M3 F6000.0
G01 X43.7 Y10.27 F6000.0
M5
G00 X43.6 Y10.65 F6000.0
M3 F6000.0
G01 X43.51 Y10.55 F6000.0
M5
G00 X44.35 Y10.55 F6000.0
M3 F6000.0
G01 Y10.46 F6000.0
M5
G00 X44.53 Y10.74 F6000.0
M3 F6000.0
G01 Y10.65 F6000.0
M5
G00 X44.81 Y9.81 F6000.0
M3 F6000.0
G01 Y9.72 F6000.0
M5
G00 X45.37 Y9.9 F6000.0
M3 F6000.0
G01 X45.18 Y9.72 F6000.0
M5
G00 X45.65 Y10.18 F6000.0
M3 F6000.0
G01 Y10.09 F6000.0
M5
G00 X45.46 Y10.65 F6000.0
M3 F6000.0
G01 Y10.55 F6000.0
M5
G00 X45.37 Y11.11 F6000.0
M3 F6000.0
G01 X45.0 Y10.74 F6000.0
M5
