
;Inkscape Lasertools G-code
;https://github.com/ChrisWag91/Inkscape-Lasertools-Plugin

G90	;Absolute programming
G21	;Programming in millimeters (mm)
M5
M03 S1 ;Activate laser and set power to 0 (CUSTOM)

; START perimeter strategy
G01 F5000.0
M5
G00 X0. Y2.82 F5000.0
M3 F5000.0
G01 Y3.23 F5000.0
G01 Y4.23 F5000.0
G01 Y5.63 F5000.0
G01 X0.45 Y6.34 F5000.0
G01 X0.97 Y7.13 F5000.0
G01 X1.07 Y7.26 F5000.0
G01 X1.68 Y8.05 F5000.0
G01 X2.29 Y8.84 F5000.0
G01 X3.0 Y9.77 F5000.0
G01 X3.17 Y9.96 F5000.0
G01 X3.82 Y10.72 F5000.0
G01 X4.47 Y11.48 F5000.0
G01 X5.3 Y12.43 F5000.0
G01 X5.34 Y12.48 F5000.0
G01 X6.04 Y13.29 F5000.0
G01 X6.67 Y13.9 F5000.0
G01 X7.39 Y14.4 F5000.0
G01 X8.08 Y14.71 F5000.0
G01 X8.64 Y14.77 F5000.0
G01 X9.01 Y14.82 F5000.0
G01 X9.48 Y15.16 F5000.0
G01 X9.58 Y15.22 F5000.0
G01 X10.55 Y15.78 F5000.0
G01 X10.89 Y15.86 F5000.0
G01 X11.86 Y16.11 F5000.0
G01 X13.8 Y16.6 F5000.0
G01 X14.77 Y16.84 F5000.0
G01 X15.74 Y17.08 F5000.0
G01 X16.71 Y17.33 F5000.0
G01 X18.02 Y17.66 F5000.0
G01 X18.36 Y17.75 F5000.0
G01 X19.32 Y18.01 F5000.0
G01 X20.29 Y18.27 F5000.0
G01 X21.58 Y18.62 F5000.0
G01 X21.59 Y18.63 F5000.0
G01 X23.49 Y19.25 F5000.0
G01 X24.45 Y19.56 F5000.0
G01 X24.65 Y19.62 F5000.0
G01 X25.6 Y19.93 F5000.0
G01 X26.75 Y20.31 F5000.0
G01 X27.01 Y20.45 F5000.0
G01 X26.94 Y20.55 F5000.0
G01 X26.82 Y20.65 F5000.0
G01 X26.9 Y20.74 F5000.0
G01 X26.91 Y20.75 F5000.0
G01 X27.87 Y21.02 F5000.0
G01 X28.13 Y21.1 F5000.0
G01 X29.36 Y21.47 F5000.0
G01 X29.8 Y21.76 F5000.0
G01 X29.95 Y22.47 F5000.0
G01 X29.97 Y23.22 F5000.0
G01 X29.52 Y23.71 F5000.0
G01 X29.05 Y24.04 F5000.0
G01 X28.71 Y24.08 F5000.0
G01 X27.76 Y24.04 F5000.0
G01 X27.73 Y24.05 F5000.0
G01 X26.87 Y24.61 F5000.0
G01 X26.23 Y25.12 F5000.0
G01 X25.41 Y25.3 F5000.0
G01 X24.52 Y25.52 F5000.0
G01 X23.85 Y25.97 F5000.0
G01 X23.36 Y26.66 F5000.0
G01 F5000.0
M5
;END perimeter

G00 X0 Y0

M5 ;Deactivate laser and set power to 0 (CUSTOM)
G1 X0 Y0
