
;Inkscape Lasertools G-code
;https://github.com/ChrisWag91/Inkscape-Lasertools-Plugin

G28
G90 ;Absolute programming
G21 ;Programming in millimeters (mm)
M5
M03 S1 ;Activate laser and set power to 0 (CUSTOM)

; START perimeter strategy
G01 F6000.0
M5
G00 X90.61 Y72.67 F6000.0
M3 F6000.0
G01 X90.84 Y71.84 F6000.0
G01 Y71.83 F6000.0
G01 X90.94 Y70.82 F6000.0
G01 Y70.79 F6000.0
G01 X90.77 Y69.77 F6000.0
G01 X90.28 Y68.98 F6000.0
G01 X89.51 Y68.5 F6000.0
G01 X89.5 F6000.0
G01 X88.5 Y68.35 F6000.0
G01 X87.53 Y68.53 F6000.0
G01 X86.77 Y69.05 F6000.0
G01 X86.29 Y69.86 F6000.0
G01 Y69.9 F6000.0
G01 X86.14 Y70.93 F6000.0
G01 X86.24 Y71.8 F6000.0
G01 X86.58 Y72.71 F6000.0
G01 X86.62 F6000.0
G01 X87.66 Y72.69 F6000.0
G01 Y72.56 F6000.0
G01 X87.47 Y72.31 F6000.0
G01 X87.26 Y71.99 F6000.0
G01 X87.09 Y71.57 F6000.0
G01 X87.01 Y71.06 F6000.0
G01 X87.09 Y70.49 F6000.0
G01 X87.37 Y70.02 F6000.0
G01 X87.84 Y69.7 F6000.0
G01 X88.5 Y69.58 F6000.0
G01 X89.17 Y69.67 F6000.0
G01 X89.67 Y69.97 F6000.0
G01 X89.99 Y70.47 F6000.0
G01 X90.1 Y71.16 F6000.0
G01 Y71.31 F6000.0
G01 X90.09 Y71.47 F6000.0
G01 X89.19 Y71.48 F6000.0
G01 X89.17 Y70.56 F6000.0
G01 X88.3 Y70.57 F6000.0
G01 Y70.64 F6000.0
G01 X88.32 Y71.64 F6000.0
G01 X88.33 Y72.7 F6000.0
G01 X88.47 F6000.0
G01 X89.47 Y72.68 F6000.0
G01 X90.61 Y72.67 F6000.0
M5
G00 X90.95 Y77.06 F6000.0
M3 F6000.0
G01 X90.94 Y76.89 F6000.0
G01 X90.93 Y75.89 F6000.0
G01 X90.91 Y74.89 F6000.0
G01 X90.89 Y73.73 F6000.0
G01 X90.59 F6000.0
G01 X89.59 Y73.75 F6000.0
G01 X87.59 Y73.78 F6000.0
G01 X86.28 Y73.8 F6000.0
G01 Y73.9 F6000.0
G01 X86.3 Y74.99 F6000.0
G01 X86.66 F6000.0
G01 X87.66 Y74.97 F6000.0
G01 X88.66 Y74.95 F6000.0
G01 X90.02 Y74.93 F6000.0
G01 Y75.0 F6000.0
G01 X90.04 Y76.0 F6000.0
G01 X90.05 Y77.07 F6000.0
G01 X90.95 Y77.06 F6000.0
M5
G00 X90.98 Y79.04 F6000.0
M3 F6000.0
G01 Y78.96 F6000.0
G01 X90.96 Y77.88 F6000.0
G01 X90.85 Y77.89 F6000.0
G01 X89.74 Y77.9 F6000.0
G01 Y77.98 F6000.0
G01 X89.76 Y79.06 F6000.0
G01 X89.87 F6000.0
G01 X90.98 Y79.04 F6000.0
M5
G00 X88.71 Y79.08 F6000.0
M3 F6000.0
G01 Y79.0 F6000.0
G01 X88.7 Y77.92 F6000.0
G01 X88.59 F6000.0
G01 X87.48 Y77.94 F6000.0
G01 Y78.02 F6000.0
G01 X87.5 Y79.1 F6000.0
G01 X87.61 Y79.09 F6000.0
G01 X88.71 Y79.08 F6000.0
M5
G00 X87.91 Y82.96 F6000.0
M3 F6000.0
G01 X87.57 Y82.86 F6000.0
G01 X87.37 Y82.62 F6000.0
G01 X87.28 Y82.25 F6000.0
G01 X87.27 Y81.78 F6000.0
G01 X87.26 Y81.58 F6000.0
G01 X87.45 F6000.0
G01 X88.64 Y81.56 F6000.0
G01 X88.65 Y81.9 F6000.0
G01 X88.62 Y82.4 F6000.0
G01 X88.48 Y82.73 F6000.0
G01 X88.24 Y82.9 F6000.0
G01 X87.91 Y82.96 F6000.0
G01 F6000.0
M5
G00 X87.9 Y84.19 F6000.0
M3 F6000.0
G01 X88.5 Y84.07 F6000.0
G01 X89.0 Y83.75 F6000.0
G01 X89.4 Y83.13 F6000.0
G01 X89.52 Y82.28 F6000.0
G01 X89.51 Y81.54 F6000.0
G01 X89.77 F6000.0
G01 X91.02 Y81.52 F6000.0
G01 Y81.42 F6000.0
G01 X91.0 Y80.33 F6000.0
G01 X90.69 F6000.0
G01 X89.69 Y80.35 F6000.0
G01 X88.69 Y80.36 F6000.0
G01 X87.69 Y80.38 F6000.0
G01 X86.38 Y80.4 F6000.0
G01 X86.39 Y80.88 F6000.0
G01 X86.41 Y82.36 F6000.0
G01 X86.5 Y83.1 F6000.0
G01 X86.74 Y83.63 F6000.0
G01 X87.21 Y84.05 F6000.0
G01 X87.9 Y84.19 F6000.0
G01 F6000.0
M5
G00 X91.15 Y89.82 F6000.0
M3 F6000.0
G01 X91.14 Y89.73 F6000.0
G01 X91.13 Y88.64 F6000.0
G01 X91.08 F6000.0
G01 X89.08 Y88.67 F6000.0
G01 X88.04 Y88.69 F6000.0
G01 X88.12 Y88.65 F6000.0
G01 X89.03 Y88.24 F6000.0
G01 X90.03 Y87.8 F6000.0
G01 X90.02 Y86.98 F6000.0
G01 X89.93 Y86.94 F6000.0
G01 X89.01 Y86.56 F6000.0
G01 X88.0 Y86.15 F6000.0
G01 X88.04 F6000.0
G01 X90.04 Y86.12 F6000.0
G01 X91.09 Y86.1 F6000.0
G01 Y86.04 F6000.0
G01 X91.07 Y84.98 F6000.0
G01 X90.76 Y84.99 F6000.0
G01 X89.76 Y85.0 F6000.0
G01 X88.76 Y85.02 F6000.0
G01 X87.76 Y85.03 F6000.0
G01 X86.45 Y85.06 F6000.0
G01 X86.46 Y85.25 F6000.0
G01 X86.48 Y86.44 F6000.0
G01 X86.72 Y86.54 F6000.0
G01 X87.64 Y86.94 F6000.0
G01 X88.81 Y87.44 F6000.0
G01 X88.56 Y87.55 F6000.0
G01 X87.66 Y87.98 F6000.0
G01 X86.51 Y88.51 F6000.0
G01 Y88.7 F6000.0
G01 X86.53 Y89.89 F6000.0
G01 X86.84 F6000.0
G01 X89.84 Y89.84 F6000.0
G01 X91.15 Y89.82 F6000.0
M5
G00 X93.26 Y89.09 F6000.0
M3 F6000.0
G01 X93.57 Y89.0 F6000.0
G01 X95.48 Y88.39 F6000.0
G01 X96.74 Y87.99 F6000.0
G01 Y87.9 F6000.0
G01 X96.73 Y86.81 F6000.0
G01 X96.52 Y86.74 F6000.0
G01 X95.56 Y86.46 F6000.0
G01 X94.38 Y86.11 F6000.0
G01 X94.59 Y86.05 F6000.0
G01 X95.55 Y85.76 F6000.0
G01 X96.72 Y85.4 F6000.0
G01 Y85.3 F6000.0
G01 Y84.2 F6000.0
G01 X96.41 Y84.11 F6000.0
G01 X95.45 Y83.82 F6000.0
G01 X94.49 Y83.53 F6000.0
G01 X93.23 Y83.15 F6000.0
G01 Y83.24 F6000.0
G01 Y84.33 F6000.0
G01 X93.46 Y84.38 F6000.0
G01 X94.44 Y84.62 F6000.0
G01 X95.64 Y84.91 F6000.0
G01 X95.39 Y84.98 F6000.0
G01 X94.44 Y85.28 F6000.0
G01 X93.24 Y85.66 F6000.0
G01 X93.25 Y86.65 F6000.0
G01 X93.49 Y86.72 F6000.0
G01 X94.45 Y87.0 F6000.0
G01 X95.65 Y87.34 F6000.0
G01 X95.42 Y87.4 F6000.0
G01 X94.45 Y87.65 F6000.0
G01 X93.26 Y87.95 F6000.0
G01 Y88.02 F6000.0
G01 Y89.09 F6000.0
M5
G00 X95.86 Y91.85 F6000.0
M3 F6000.0
G01 X95.13 Y91.86 F6000.0
G01 X95.18 Y91.37 F6000.0
G01 X95.25 Y90.97 F6000.0
G01 X95.41 Y90.71 F6000.0
G01 X95.67 Y90.62 F6000.0
G01 X95.84 Y90.64 F6000.0
G01 X95.98 Y90.73 F6000.0
G01 X96.07 Y90.9 F6000.0
G01 X96.1 Y91.21 F6000.0
G01 X96.03 Y91.55 F6000.0
G01 X95.86 Y91.85 F6000.0
G01 F6000.0
M5
G00 X96.39 Y91.85 F6000.0
M3 F6000.0
G01 X96.56 Y91.62 F6000.0
G01 X96.71 Y91.37 F6000.0
G01 X96.81 Y91.03 F6000.0
G01 X96.85 Y90.64 F6000.0
G01 X96.77 Y90.19 F6000.0
G01 X96.54 Y89.81 F6000.0
G01 X96.19 Y89.56 F6000.0
G01 X95.75 Y89.48 F6000.0
G01 X95.13 Y89.66 F6000.0
G01 X94.75 Y90.14 F6000.0
G01 X94.56 Y90.91 F6000.0
G01 X94.48 Y91.87 F6000.0
G01 X94.46 F6000.0
G01 X94.06 Y91.63 F6000.0
G01 X93.94 Y90.94 F6000.0
G01 X94.04 Y90.35 F6000.0
G01 X94.18 Y89.9 F6000.0
G01 Y89.8 F6000.0
G01 X93.34 F6000.0
G01 X93.24 Y90.38 F6000.0
G01 X93.18 Y91.18 F6000.0
G01 X93.26 Y92.0 F6000.0
G01 X93.48 Y92.55 F6000.0
G01 X93.86 Y92.87 F6000.0
G01 X94.4 Y92.97 F6000.0
G01 X94.59 F6000.0
G01 X95.59 Y92.96 F6000.0
G01 X96.77 Y92.95 F6000.0
G01 Y92.9 F6000.0
G01 X96.76 Y91.85 F6000.0
G01 X96.39 F6000.0
M5
G00 X95.45 Y98.63 F6000.0
M3 F6000.0
G01 X96.02 Y98.51 F6000.0
G01 X96.47 Y98.19 F6000.0
G01 X96.77 Y97.64 F6000.0
G01 X96.87 Y96.85 F6000.0
G01 X96.84 Y96.25 F6000.0
G01 X96.77 Y95.75 F6000.0
G01 X95.83 Y95.76 F6000.0
G01 X95.84 Y95.87 F6000.0
G01 X95.94 Y96.18 F6000.0
G01 X95.99 Y96.59 F6000.0
G01 X95.91 Y97.09 F6000.0
G01 X95.67 Y97.34 F6000.0
G01 X95.34 Y97.43 F6000.0
G01 X94.87 Y97.44 F6000.0
G01 X94.45 F6000.0
G01 X93.03 Y97.45 F6000.0
G01 Y97.42 F6000.0
G01 Y96.39 F6000.0
G01 X92.18 Y96.4 F6000.0
G01 Y96.52 F6000.0
G01 Y97.52 F6000.0
G01 X92.19 Y98.65 F6000.0
G01 X92.32 F6000.0
G01 X93.32 Y98.64 F6000.0
G01 X94.32 Y98.63 F6000.0
G01 X95.45 F6000.0
M5
G00 X95.92 Y101.79 F6000.0
M3 F6000.0
G01 X95.19 F6000.0
G01 X95.25 Y101.3 F6000.0
G01 X95.32 Y100.9 F6000.0
G01 X95.47 Y100.65 F6000.0
G01 X95.73 Y100.56 F6000.0
G01 X95.91 Y100.57 F6000.0
G01 X96.04 Y100.67 F6000.0
G01 X96.14 Y100.84 F6000.0
G01 X96.17 Y101.15 F6000.0
G01 X96.1 Y101.48 F6000.0
G01 X95.92 Y101.79 F6000.0
G01 F6000.0
M5
G00 X96.46 Y101.79 F6000.0
M3 F6000.0
G01 X96.62 Y101.56 F6000.0
G01 X96.77 Y101.31 F6000.0
G01 X96.88 Y100.97 F6000.0
G01 X96.91 Y100.58 F6000.0
G01 X96.83 Y100.12 F6000.0
G01 X96.6 Y99.75 F6000.0
G01 X96.25 Y99.5 F6000.0
G01 X95.81 Y99.42 F6000.0
G01 X95.19 Y99.59 F6000.0
G01 X94.81 Y100.08 F6000.0
G01 X94.62 Y100.85 F6000.0
G01 X94.54 Y101.8 F6000.0
G01 X94.52 F6000.0
G01 X94.12 Y101.57 F6000.0
G01 X94.01 Y100.88 F6000.0
G01 X94.1 Y100.29 F6000.0
G01 X94.25 Y99.84 F6000.0
G01 Y99.73 F6000.0
G01 X93.41 Y99.74 F6000.0
G01 X93.3 Y100.31 F6000.0
G01 X93.24 Y101.12 F6000.0
G01 X93.32 Y101.93 F6000.0
G01 X93.55 Y102.49 F6000.0
G01 X93.92 Y102.8 F6000.0
G01 X94.47 Y102.91 F6000.0
G01 X94.65 Y102.9 F6000.0
G01 X95.65 F6000.0
G01 X96.84 Y102.89 F6000.0
G01 Y102.84 F6000.0
G01 X96.83 Y101.78 F6000.0
G01 X96.46 Y101.79 F6000.0
M5
G00 X95.09 Y106.41 F6000.0
M3 F6000.0
G01 X94.35 Y106.24 F6000.0
G01 X94.12 Y105.69 F6000.0
G01 X94.17 Y105.37 F6000.0
G01 X94.3 Y105.05 F6000.0
G01 X94.68 F6000.0
G01 X96.05 Y105.04 F6000.0
G01 X96.11 Y105.28 F6000.0
G01 X96.12 Y105.53 F6000.0
G01 X96.06 Y105.91 F6000.0
G01 X95.87 Y106.19 F6000.0
G01 X95.09 Y106.41 F6000.0
G01 F6000.0
M5
G00 X95.08 Y107.56 F6000.0
M3 F6000.0
G01 X95.86 Y107.42 F6000.0
G01 X96.44 Y107.08 F6000.0
G01 X96.8 Y106.57 F6000.0
G01 X96.92 Y105.96 F6000.0
G01 X96.86 Y105.46 F6000.0
G01 X96.68 Y105.03 F6000.0
G01 X96.9 F6000.0
G01 X98.13 Y105.02 F6000.0
G01 Y104.97 F6000.0
G01 X98.12 Y103.91 F6000.0
G01 X97.74 F6000.0
G01 X95.74 Y103.92 F6000.0
G01 X94.74 Y103.93 F6000.0
G01 X93.36 Y103.94 F6000.0
G01 Y104.0 F6000.0
G01 X93.37 Y105.06 F6000.0
G01 X93.73 Y105.05 F6000.0
G01 X93.4 Y105.58 F6000.0
G01 X93.28 Y106.2 F6000.0
G01 X93.4 Y106.78 F6000.0
G01 X93.76 Y107.21 F6000.0
G01 X94.33 Y107.48 F6000.0
G01 X95.08 Y107.56 F6000.0
G01 F6000.0
M5
G00 X95.98 Y110.47 F6000.0
M3 F6000.0
G01 X95.25 F6000.0
G01 X95.3 Y109.98 F6000.0
G01 X95.37 Y109.59 F6000.0
G01 X95.53 Y109.33 F6000.0
G01 X95.79 Y109.24 F6000.0
G01 X95.97 Y109.25 F6000.0
G01 X96.1 Y109.35 F6000.0
G01 X96.19 Y109.52 F6000.0
G01 X96.22 Y109.83 F6000.0
G01 X96.16 Y110.17 F6000.0
G01 X95.98 Y110.47 F6000.0
G01 F6000.0
M5
G00 X96.52 Y110.47 F6000.0
M3 F6000.0
G01 X96.68 Y110.24 F6000.0
G01 X96.83 Y109.99 F6000.0
G01 X96.94 Y109.65 F6000.0
G01 X96.97 Y109.26 F6000.0
G01 X96.89 Y108.81 F6000.0
G01 X96.66 Y108.43 F6000.0
G01 X96.31 Y108.18 F6000.0
G01 X95.87 Y108.1 F6000.0
G01 X95.25 Y108.28 F6000.0
G01 X94.87 Y108.76 F6000.0
G01 X94.68 Y109.53 F6000.0
G01 X94.6 Y110.49 F6000.0
G01 X94.58 F6000.0
G01 X94.18 Y110.25 F6000.0
G01 X94.06 Y109.56 F6000.0
G01 X94.16 Y108.97 F6000.0
G01 X94.31 Y108.52 F6000.0
G01 Y108.42 F6000.0
G01 X93.47 F6000.0
G01 X93.36 Y109.0 F6000.0
G01 X93.3 Y109.8 F6000.0
G01 X93.38 Y110.62 F6000.0
G01 X93.6 Y111.17 F6000.0
G01 X93.98 Y111.48 F6000.0
G01 X94.52 Y111.59 F6000.0
G01 X94.71 F6000.0
G01 X95.71 Y111.58 F6000.0
G01 X96.89 Y111.57 F6000.0
G01 Y111.52 F6000.0
G01 Y110.47 F6000.0
G01 X96.52 F6000.0
M5
G00 X91.46 Y109.83 F6000.0
M3 F6000.0
G01 Y109.74 F6000.0
G01 X91.44 Y108.65 F6000.0
G01 X91.4 F6000.0
G01 X89.4 Y108.68 F6000.0
G01 X88.35 Y108.7 F6000.0
G01 X88.43 Y108.66 F6000.0
G01 X89.35 Y108.25 F6000.0
G01 X90.34 Y107.81 F6000.0
G01 X90.33 Y106.99 F6000.0
G01 X90.25 Y106.95 F6000.0
G01 X89.32 Y106.58 F6000.0
G01 X88.31 Y106.16 F6000.0
G01 X88.36 F6000.0
G01 X89.36 Y106.15 F6000.0
G01 X90.36 Y106.13 F6000.0
G01 X91.4 Y106.12 F6000.0
G01 Y106.06 F6000.0
G01 X91.39 Y104.99 F6000.0
G01 X91.08 Y105.0 F6000.0
G01 X89.08 Y105.03 F6000.0
G01 X88.08 Y105.05 F6000.0
G01 X86.77 Y105.07 F6000.0
G01 Y105.26 F6000.0
G01 X86.79 Y106.45 F6000.0
G01 X87.04 Y106.56 F6000.0
G01 X87.96 Y106.95 F6000.0
G01 X89.12 Y107.45 F6000.0
G01 X88.88 Y107.56 F6000.0
G01 X87.97 Y107.99 F6000.0
G01 X86.82 Y108.52 F6000.0
G01 X86.83 Y108.72 F6000.0
G01 X86.84 Y109.91 F6000.0
G01 X87.15 Y109.9 F6000.0
G01 X88.15 Y109.89 F6000.0
G01 X90.15 Y109.85 F6000.0
G01 X91.46 Y109.83 F6000.0
M5
G00 X91.38 Y104.47 F6000.0
M3 F6000.0
G01 X91.37 Y104.25 F6000.0
G01 X91.35 Y103.02 F6000.0
G01 X91.31 Y102.99 F6000.0
G01 X90.5 Y102.4 F6000.0
G01 X89.64 Y101.79 F6000.0
G01 X89.63 Y101.24 F6000.0
G01 X89.98 Y101.23 F6000.0
G01 X91.33 Y101.21 F6000.0
G01 X91.32 Y101.12 F6000.0
G01 X91.31 Y100.03 F6000.0
G01 X91.0 F6000.0
G01 X90.0 Y100.05 F6000.0
G01 X88.0 Y100.08 F6000.0
G01 X86.69 Y100.1 F6000.0
G01 X86.7 Y100.6 F6000.0
G01 X86.72 Y102.1 F6000.0
G01 X86.78 Y102.8 F6000.0
G01 X86.99 Y103.35 F6000.0
G01 X87.4 Y103.75 F6000.0
G01 X88.02 Y103.9 F6000.0
G01 X88.85 Y103.65 F6000.0
G01 X89.38 Y102.96 F6000.0
G01 X89.58 Y103.12 F6000.0
G01 X90.38 Y103.72 F6000.0
G01 X91.38 Y104.47 F6000.0
M5
G00 X88.14 Y102.67 F6000.0
M3 F6000.0
G01 X87.85 Y102.6 F6000.0
G01 X87.65 Y102.36 F6000.0
G01 X87.58 Y102.08 F6000.0
G01 X87.57 Y101.7 F6000.0
G01 X87.56 Y101.27 F6000.0
G01 X87.68 F6000.0
G01 X88.8 Y101.25 F6000.0
G01 X88.81 Y101.62 F6000.0
G01 X88.79 Y102.09 F6000.0
G01 X88.67 Y102.42 F6000.0
G01 X88.46 Y102.6 F6000.0
G01 X88.14 Y102.67 F6000.0
G01 F6000.0
M5
G00 X89.73 Y99.05 F6000.0
M3 F6000.0
G01 X90.4 Y98.9 F6000.0
G01 X90.92 Y98.5 F6000.0
G01 X91.26 Y97.84 F6000.0
G01 X91.36 Y96.99 F6000.0
G01 X91.25 Y96.06 F6000.0
G01 X91.05 Y95.44 F6000.0
G01 X91.04 F6000.0
G01 X90.03 Y95.45 F6000.0
G01 Y95.58 F6000.0
G01 X90.32 Y96.19 F6000.0
G01 X90.44 Y96.83 F6000.0
G01 X90.41 Y97.25 F6000.0
G01 X90.25 Y97.62 F6000.0
G01 X90.06 Y97.78 F6000.0
G01 X89.75 Y97.84 F6000.0
G01 X89.47 Y97.77 F6000.0
G01 X89.28 Y97.59 F6000.0
G01 X89.14 Y97.19 F6000.0
G01 X89.1 Y96.76 F6000.0
G01 X89.14 Y96.22 F6000.0
G01 X89.23 Y95.78 F6000.0
G01 Y95.64 F6000.0
G01 X88.92 F6000.0
G01 X87.92 Y95.66 F6000.0
G01 X86.62 Y95.68 F6000.0
G01 Y95.82 F6000.0
G01 X86.64 Y96.82 F6000.0
G01 X86.66 Y97.82 F6000.0
G01 X86.67 Y98.96 F6000.0
G01 X87.56 Y98.95 F6000.0
G01 Y98.87 F6000.0
G01 X87.54 Y97.87 F6000.0
G01 X87.52 Y96.78 F6000.0
G01 X88.28 Y96.77 F6000.0
G01 X88.27 Y97.02 F6000.0
G01 Y97.28 F6000.0
G01 X88.35 Y97.95 F6000.0
G01 X88.56 Y98.47 F6000.0
G01 X89.02 Y98.9 F6000.0
G01 X89.73 Y99.05 F6000.0
G01 F6000.0
M5
G00 X88.65 Y94.55 F6000.0
M3 F6000.0
G01 X88.7 Y94.54 F6000.0
G01 X89.73 Y94.38 F6000.0
G01 X90.56 Y93.92 F6000.0
G01 X91.11 Y93.09 F6000.0
G01 X91.12 Y93.02 F6000.0
G01 X91.27 Y91.96 F6000.0
G01 X91.23 Y91.46 F6000.0
G01 X91.18 Y91.11 F6000.0
G01 X90.27 Y91.13 F6000.0
G01 Y91.25 F6000.0
G01 X90.37 Y91.51 F6000.0
G01 X90.43 Y91.98 F6000.0
G01 X90.38 Y92.46 F6000.0
G01 X90.19 Y92.86 F6000.0
G01 X89.85 Y93.17 F6000.0
G01 X89.34 Y93.33 F6000.0
G01 X89.58 Y92.83 F6000.0
G01 X89.65 Y92.25 F6000.0
G01 X89.58 Y91.75 F6000.0
G01 X89.37 Y91.33 F6000.0
G01 X88.89 Y90.92 F6000.0
G01 X88.13 Y90.78 F6000.0
G01 X87.46 Y90.92 F6000.0
G01 X86.93 Y91.31 F6000.0
G01 X86.59 Y91.92 F6000.0
G01 X86.48 Y92.68 F6000.0
G01 X86.61 Y93.44 F6000.0
G01 X86.96 Y94.01 F6000.0
G01 X87.65 Y94.42 F6000.0
G01 F6000.0
G01 X88.65 Y94.55 F6000.0
G01 F6000.0
M5
G00 X88.46 Y93.37 F6000.0
M3 F6000.0
G01 X87.84 Y93.3 F6000.0
G01 X87.46 Y93.11 F6000.0
G01 X87.31 Y92.9 F6000.0
G01 X87.27 Y92.66 F6000.0
G01 X87.31 Y92.42 F6000.0
G01 X87.44 Y92.21 F6000.0
G01 X87.7 Y92.05 F6000.0
G01 X88.09 Y91.98 F6000.0
G01 X88.45 Y92.04 F6000.0
G01 X88.69 Y92.22 F6000.0
G01 X88.81 Y92.47 F6000.0
G01 X88.85 Y92.79 F6000.0
G01 X88.82 Y93.1 F6000.0
G01 X88.75 Y93.35 F6000.0
G01 X88.65 Y93.36 F6000.0
G01 X88.46 Y93.37 F6000.0
G01 F6000.0
M5
G00 X95.79 Y81.39 F6000.0
M3 F6000.0
G01 X95.06 F6000.0
G01 X95.11 Y80.91 F6000.0
G01 X95.18 Y80.5 F6000.0
G01 X95.34 Y80.25 F6000.0
G01 X95.6 Y80.16 F6000.0
G01 X95.78 Y80.17 F6000.0
G01 X95.91 Y80.27 F6000.0
G01 X96.0 Y80.44 F6000.0
G01 X96.03 Y80.75 F6000.0
G01 X95.97 Y81.09 F6000.0
G01 X95.79 Y81.39 F6000.0
G01 F6000.0
M5
G00 X96.33 Y81.39 F6000.0
M3 F6000.0
G01 X96.49 Y81.16 F6000.0
G01 X96.64 Y80.91 F6000.0
G01 X96.75 Y80.57 F6000.0
G01 X96.78 Y80.18 F6000.0
G01 X96.7 Y79.73 F6000.0
G01 X96.47 Y79.35 F6000.0
G01 X96.12 Y79.1 F6000.0
G01 X95.68 Y79.02 F6000.0
G01 X95.06 Y79.2 F6000.0
G01 X94.68 Y79.68 F6000.0
G01 X94.49 Y80.45 F6000.0
G01 X94.41 Y81.41 F6000.0
G01 X94.39 F6000.0
G01 X93.99 Y81.17 F6000.0
G01 X93.88 Y80.48 F6000.0
G01 X93.97 Y79.89 F6000.0
G01 X94.12 Y79.44 F6000.0
G01 Y79.34 F6000.0
G01 X93.28 F6000.0
G01 X93.17 Y79.92 F6000.0
G01 X93.11 Y80.72 F6000.0
G01 X93.19 Y81.54 F6000.0
G01 X93.41 Y82.09 F6000.0
G01 X93.79 Y82.4 F6000.0
G01 X94.33 Y82.51 F6000.0
G01 X94.52 F6000.0
G01 X95.52 Y82.5 F6000.0
G01 X96.7 Y82.49 F6000.0
G01 Y82.44 F6000.0
G01 Y81.39 F6000.0
G01 X96.33 F6000.0
M5
G00 X96.28 Y78.22 F6000.0
M3 F6000.0
G01 X97.1 Y78.08 F6000.0
G01 X97.62 Y77.69 F6000.0
G01 X97.89 Y77.08 F6000.0
G01 X97.97 Y76.28 F6000.0
G01 X97.93 Y75.56 F6000.0
G01 X97.82 Y74.95 F6000.0
G01 X96.95 Y74.96 F6000.0
G01 Y75.09 F6000.0
G01 X97.1 Y75.59 F6000.0
G01 X97.17 Y76.12 F6000.0
G01 X97.11 Y76.62 F6000.0
G01 X96.95 Y76.92 F6000.0
G01 X96.7 Y77.06 F6000.0
G01 X96.33 Y77.11 F6000.0
G01 X96.26 F6000.0
G01 X96.52 Y76.66 F6000.0
G01 X96.61 Y76.11 F6000.0
G01 X96.5 Y75.47 F6000.0
G01 X96.17 Y74.99 F6000.0
G01 X95.61 Y74.69 F6000.0
G01 X94.82 Y74.6 F6000.0
G01 X94.08 Y74.73 F6000.0
G01 X93.54 Y75.07 F6000.0
G01 X93.2 Y75.58 F6000.0
G01 X93.08 Y76.19 F6000.0
G01 X93.16 Y76.7 F6000.0
G01 X93.34 Y77.12 F6000.0
G01 X93.19 Y77.16 F6000.0
G01 Y77.2 F6000.0
G01 Y78.25 F6000.0
G01 X93.23 F6000.0
G01 X94.23 Y78.24 F6000.0
G01 X95.23 Y78.23 F6000.0
G01 X96.28 Y78.22 F6000.0
M5
G00 X95.57 Y77.11 F6000.0
M3 F6000.0
G01 X95.28 F6000.0
G01 X93.99 Y77.12 F6000.0
G01 X93.93 Y76.89 F6000.0
G01 X93.9 Y76.64 F6000.0
G01 X93.96 Y76.25 F6000.0
G01 X94.15 Y75.97 F6000.0
G01 X94.86 Y75.75 F6000.0
G01 X95.56 Y75.93 F6000.0
G01 X95.76 Y76.49 F6000.0
G01 X95.71 Y76.82 F6000.0
G01 X95.57 Y77.11 F6000.0
G01 F6000.0
M5
G00 X95.73 Y72.71 F6000.0
M3 F6000.0
G01 X95.01 F6000.0
G01 X95.06 Y72.22 F6000.0
G01 X95.13 Y71.82 F6000.0
G01 X95.28 Y71.56 F6000.0
G01 X95.54 Y71.48 F6000.0
G01 X95.72 Y71.49 F6000.0
G01 X95.85 Y71.59 F6000.0
G01 X95.94 Y71.76 F6000.0
G01 X95.97 Y72.07 F6000.0
G01 X95.91 Y72.4 F6000.0
G01 X95.73 Y72.71 F6000.0
G01 F6000.0
M5
G00 X96.27 Y72.71 F6000.0
M3 F6000.0
G01 X96.43 Y72.48 F6000.0
G01 X96.58 Y72.23 F6000.0
G01 X96.69 Y71.89 F6000.0
G01 X96.72 Y71.5 F6000.0
G01 X96.64 Y71.04 F6000.0
G01 X96.41 Y70.67 F6000.0
G01 X96.06 Y70.42 F6000.0
G01 X95.63 Y70.34 F6000.0
G01 X95.0 Y70.52 F6000.0
G01 X94.63 Y71.0 F6000.0
G01 X94.43 Y71.77 F6000.0
G01 X94.35 Y72.72 F6000.0
G01 X94.33 F6000.0
G01 X93.94 Y72.49 F6000.0
G01 X93.82 Y71.8 F6000.0
G01 X93.91 Y71.21 F6000.0
G01 X94.06 Y70.76 F6000.0
G01 Y70.66 F6000.0
G01 X93.22 F6000.0
G01 X93.11 Y71.23 F6000.0
G01 X93.05 Y72.03 F6000.0
G01 X93.13 Y72.85 F6000.0
G01 X93.36 Y73.41 F6000.0
G01 X93.73 Y73.72 F6000.0
G01 X94.28 Y73.83 F6000.0
G01 X94.46 F6000.0
G01 X95.46 Y73.82 F6000.0
G01 X96.65 Y73.81 F6000.0
G01 Y73.76 F6000.0
G01 X96.64 Y72.7 F6000.0
G01 X96.27 Y72.71 F6000.0
M5
G00 X96.62 Y69.57 F6000.0
M3 F6000.0
G01 Y69.51 F6000.0
G01 X96.61 Y68.45 F6000.0
G01 X96.25 F6000.0
G01 X94.89 Y68.46 F6000.0
G01 X94.47 Y68.44 F6000.0
G01 X94.16 Y68.37 F6000.0
G01 X93.99 Y68.18 F6000.0
G01 X93.93 Y67.85 F6000.0
G01 X93.98 Y67.54 F6000.0
G01 X94.14 Y67.2 F6000.0
G01 X94.37 F6000.0
G01 X95.37 F6000.0
G01 X96.6 Y67.19 F6000.0
G01 Y67.13 F6000.0
G01 Y66.07 F6000.0
G01 X96.36 F6000.0
G01 X95.36 Y66.08 F6000.0
G01 X94.36 Y66.09 F6000.0
G01 X93.11 F6000.0
G01 Y66.15 F6000.0
G01 X93.12 Y67.21 F6000.0
G01 X93.51 F6000.0
G01 X93.15 Y67.78 F6000.0
G01 X93.03 Y68.39 F6000.0
G01 X93.12 Y68.89 F6000.0
G01 X93.37 Y69.27 F6000.0
G01 X93.78 Y69.51 F6000.0
G01 X94.35 Y69.58 F6000.0
G01 X94.49 F6000.0
G01 X95.49 F6000.0
G01 X96.62 Y69.57 F6000.0
M5
G00 X96.21 Y63.94 F6000.0
M3 F6000.0
G01 X96.38 Y63.72 F6000.0
G01 X96.53 Y63.46 F6000.0
G01 X96.63 Y63.12 F6000.0
G01 X96.67 Y62.73 F6000.0
G01 X96.59 Y62.28 F6000.0
G01 X96.36 Y61.91 F6000.0
G01 X96.0 Y61.66 F6000.0
G01 X95.57 Y61.58 F6000.0
G01 X94.95 Y61.75 F6000.0
G01 X94.57 Y62.24 F6000.0
G01 X94.38 Y63.01 F6000.0
G01 X94.29 Y63.96 F6000.0
G01 X94.28 F6000.0
G01 X93.88 Y63.73 F6000.0
G01 X93.76 Y63.03 F6000.0
G01 X93.86 Y62.44 F6000.0
G01 X94.0 Y61.99 F6000.0
G01 Y61.89 F6000.0
G01 X93.16 F6000.0
G01 X93.06 Y62.47 F6000.0
G01 X93.0 Y63.27 F6000.0
G01 X93.08 Y64.09 F6000.0
G01 X93.3 Y64.64 F6000.0
G01 X93.68 Y64.96 F6000.0
G01 X94.22 Y65.06 F6000.0
G01 X94.41 F6000.0
G01 X95.41 Y65.05 F6000.0
G01 X96.59 F6000.0
G01 Y64.99 F6000.0
G01 X96.58 Y63.94 F6000.0
G01 X96.21 F6000.0
M5
G00 X95.67 Y63.94 F6000.0
M3 F6000.0
G01 X94.95 Y63.95 F6000.0
G01 X95.0 Y63.46 F6000.0
G01 X95.07 Y63.06 F6000.0
G01 X95.22 Y62.8 F6000.0
G01 X95.49 Y62.71 F6000.0
G01 X95.66 Y62.73 F6000.0
G01 X95.79 Y62.82 F6000.0
G01 X95.89 Y62.99 F6000.0
G01 X95.92 Y63.3 F6000.0
G01 X95.85 Y63.64 F6000.0
G01 X95.67 Y63.94 F6000.0
G01 F6000.0
M5
G00 X96.57 Y61.31 F6000.0
M3 F6000.0
G01 X96.56 Y61.08 F6000.0
G01 Y59.85 F6000.0
G01 X96.43 Y59.75 F6000.0
G01 X95.63 Y59.16 F6000.0
G01 X94.7 Y58.48 F6000.0
G01 X95.03 Y58.2 F6000.0
G01 X95.29 Y58.19 F6000.0
G01 X96.55 F6000.0
G01 Y58.09 F6000.0
G01 X96.54 Y57.0 F6000.0
G01 X96.23 F6000.0
G01 X95.23 F6000.0
G01 X94.23 Y57.01 F6000.0
G01 X93.23 Y57.02 F6000.0
G01 X91.92 Y57.03 F6000.0
G01 Y57.12 F6000.0
G01 X91.93 Y58.22 F6000.0
G01 X91.97 F6000.0
G01 X92.97 Y58.21 F6000.0
G01 X94.02 Y58.2 F6000.0
G01 X93.76 Y58.41 F6000.0
G01 X92.98 Y59.03 F6000.0
G01 X91.94 Y59.87 F6000.0
G01 Y60.06 F6000.0
G01 X91.95 Y61.25 F6000.0
G01 X92.25 Y60.99 F6000.0
G01 X93.01 Y60.34 F6000.0
G01 X94.07 Y59.43 F6000.0
G01 X94.12 Y59.46 F6000.0
G01 X94.92 Y60.07 F6000.0
G01 X95.72 Y60.67 F6000.0
G01 X96.57 Y61.31 F6000.0
M5
G00 X89.14 Y59.31 F6000.0
M3 F6000.0
G01 X89.46 Y59.56 F6000.0
G01 X89.95 Y59.66 F6000.0
G01 X90.59 Y59.51 F6000.0
G01 X91.1 Y59.09 F6000.0
G01 X91.41 Y58.44 F6000.0
G01 X91.51 Y57.54 F6000.0
G01 Y57.52 F6000.0
G01 X91.41 Y56.5 F6000.0
G01 X91.19 Y55.8 F6000.0
G01 X91.15 F6000.0
G01 X90.12 Y55.81 F6000.0
G01 Y55.94 F6000.0
G01 X90.42 Y56.6 F6000.0
G01 X90.55 Y57.32 F6000.0
G01 X90.52 Y57.73 F6000.0
G01 X90.39 Y58.11 F6000.0
G01 X90.19 Y58.31 F6000.0
G01 X89.86 Y58.38 F6000.0
G01 X89.53 Y58.28 F6000.0
G01 X89.36 Y58.03 F6000.0
G01 X89.3 Y57.64 F6000.0
G01 X89.29 Y57.22 F6000.0
G01 Y56.95 F6000.0
G01 X88.42 Y56.96 F6000.0
G01 Y57.24 F6000.0
G01 X88.41 Y57.69 F6000.0
G01 X88.33 Y58.03 F6000.0
G01 X88.17 Y58.24 F6000.0
G01 X87.87 Y58.32 F6000.0
G01 X87.63 Y58.24 F6000.0
G01 X87.49 Y58.06 F6000.0
G01 X87.41 Y57.75 F6000.0
G01 X87.38 Y57.46 F6000.0
G01 X87.49 Y56.79 F6000.0
G01 X87.78 Y56.09 F6000.0
G01 Y55.97 F6000.0
G01 X87.76 F6000.0
G01 X86.73 Y55.98 F6000.0
G01 X86.53 Y56.71 F6000.0
G01 X86.43 Y57.64 F6000.0
G01 X86.52 Y58.45 F6000.0
G01 X86.74 Y59.02 F6000.0
G01 X87.13 Y59.42 F6000.0
G01 X87.67 Y59.55 F6000.0
G01 X88.39 Y59.29 F6000.0
G01 X88.79 Y58.62 F6000.0
G01 X88.84 F6000.0
G01 X88.94 Y58.97 F6000.0
G01 X89.14 Y59.31 F6000.0
G01 F6000.0
M5
G00 X88.95 Y54.99 F6000.0
M3 F6000.0
G01 X89.0 F6000.0
G01 X90.05 Y54.87 F6000.0
G01 X90.84 Y54.52 F6000.0
G01 X91.32 Y53.89 F6000.0
G01 X91.47 Y52.96 F6000.0
G01 X91.3 Y52.03 F6000.0
G01 X90.81 Y51.4 F6000.0
G01 X90.01 Y51.06 F6000.0
G01 X89.96 F6000.0
G01 X88.92 Y50.96 F6000.0
G01 X88.86 Y50.97 F6000.0
G01 X87.82 Y51.08 F6000.0
G01 X87.03 Y51.44 F6000.0
G01 X86.55 Y52.07 F6000.0
G01 X86.4 Y53.0 F6000.0
G01 X86.57 Y53.94 F6000.0
G01 X87.07 Y54.55 F6000.0
G01 X87.86 Y54.89 F6000.0
G01 X87.91 Y54.9 F6000.0
G01 X88.95 Y54.99 F6000.0
G01 F6000.0
M5
G00 X88.94 Y53.73 F6000.0
M3 F6000.0
G01 X88.8 Y53.71 F6000.0
G01 X87.68 Y53.56 F6000.0
G01 X87.39 Y53.33 F6000.0
G01 X87.3 Y52.99 F6000.0
G01 X87.39 Y52.64 F6000.0
G01 X87.67 Y52.41 F6000.0
G01 X87.81 Y52.39 F6000.0
G01 X88.93 Y52.23 F6000.0
G01 X89.06 Y52.25 F6000.0
G01 X90.18 Y52.39 F6000.0
G01 X90.47 Y52.62 F6000.0
G01 X90.57 Y52.96 F6000.0
G01 X90.48 Y53.31 F6000.0
G01 X90.19 Y53.54 F6000.0
G01 X90.06 Y53.56 F6000.0
G01 X88.94 Y53.73 F6000.0
G01 F6000.0
M5
G00 X88.91 Y50.23 F6000.0
M3 F6000.0
G01 X88.96 Y50.22 F6000.0
G01 X90.01 Y50.11 F6000.0
G01 X90.8 Y49.75 F6000.0
G01 X91.28 Y49.13 F6000.0
G01 X91.43 Y48.19 F6000.0
G01 X91.26 Y47.26 F6000.0
G01 X90.77 Y46.64 F6000.0
G01 X89.97 Y46.3 F6000.0
G01 X89.92 Y46.29 F6000.0
G01 X88.88 Y46.2 F6000.0
G01 X88.83 F6000.0
G01 X87.78 Y46.32 F6000.0
G01 X86.99 Y46.68 F6000.0
G01 X86.51 Y47.31 F6000.0
G01 X86.36 Y48.23 F6000.0
G01 X86.53 Y49.17 F6000.0
G01 X87.03 Y49.79 F6000.0
G01 X87.83 Y50.13 F6000.0
G01 X87.87 F6000.0
G01 X88.91 Y50.23 F6000.0
G01 F6000.0
M5
G00 X88.9 Y48.96 F6000.0
M3 F6000.0
G01 X88.77 Y48.94 F6000.0
G01 X87.64 Y48.8 F6000.0
G01 X87.36 Y48.57 F6000.0
G01 X87.26 Y48.22 F6000.0
G01 X87.35 Y47.88 F6000.0
G01 X87.63 Y47.65 F6000.0
G01 X87.77 Y47.63 F6000.0
G01 X88.89 Y47.46 F6000.0
G01 X89.02 Y47.48 F6000.0
G01 X90.14 Y47.63 F6000.0
G01 X90.43 Y47.86 F6000.0
G01 X90.53 Y48.2 F6000.0
G01 X90.44 Y48.54 F6000.0
G01 X90.15 Y48.77 F6000.0
G01 X90.02 Y48.79 F6000.0
G01 X88.9 Y48.96 F6000.0
G01 F6000.0
M5
G00 X91.31 Y45.17 F6000.0
M3 F6000.0
G01 Y45.04 F6000.0
G01 X91.3 Y44.04 F6000.0
G01 X91.29 Y43.04 F6000.0
G01 X91.28 Y41.92 F6000.0
G01 X90.43 F6000.0
G01 Y41.94 F6000.0
G01 X90.44 Y42.95 F6000.0
G01 X90.15 F6000.0
G01 X89.15 Y42.96 F6000.0
G01 X87.86 Y42.97 F6000.0
G01 Y42.96 F6000.0
G01 X87.85 Y41.94 F6000.0
G01 X87.06 Y41.95 F6000.0
G01 X87.03 Y42.4 F6000.0
G01 X86.94 Y42.76 F6000.0
G01 X86.73 Y43.02 F6000.0
G01 X86.4 Y43.12 F6000.0
G01 Y43.16 F6000.0
G01 X86.41 Y44.2 F6000.0
G01 X86.43 F6000.0
G01 X87.43 Y44.19 F6000.0
G01 X88.43 F6000.0
G01 X89.43 Y44.18 F6000.0
G01 X90.45 Y44.17 F6000.0
G01 F6000.0
G01 Y45.17 F6000.0
G01 X91.31 F6000.0
M5
G00 X95.55 Y45.24 F6000.0
M3 F6000.0
G01 X94.83 F6000.0
G01 X94.88 Y44.75 F6000.0
G01 X94.95 Y44.35 F6000.0
G01 X95.1 Y44.09 F6000.0
G01 X95.36 Y44.01 F6000.0
G01 X95.54 Y44.02 F6000.0
G01 X95.67 Y44.11 F6000.0
G01 X95.77 Y44.28 F6000.0
G01 X95.8 Y44.59 F6000.0
G01 X95.73 Y44.93 F6000.0
G01 X95.55 Y45.24 F6000.0
G01 F6000.0
M5
G00 X96.09 Y45.23 F6000.0
M3 F6000.0
G01 X96.25 Y45.01 F6000.0
G01 X96.41 Y44.76 F6000.0
G01 X96.51 Y44.42 F6000.0
G01 X96.55 Y44.03 F6000.0
G01 X96.47 Y43.57 F6000.0
G01 X96.23 Y43.2 F6000.0
G01 X95.88 Y42.95 F6000.0
G01 X95.45 Y42.87 F6000.0
G01 X94.83 Y43.05 F6000.0
G01 X94.45 Y43.53 F6000.0
G01 X94.25 Y44.3 F6000.0
G01 X94.17 Y45.25 F6000.0
G01 X94.15 F6000.0
G01 X93.76 Y45.02 F6000.0
G01 X93.64 Y44.33 F6000.0
G01 X93.73 Y43.74 F6000.0
G01 X93.88 Y43.29 F6000.0
G01 Y43.19 F6000.0
G01 X93.04 F6000.0
G01 X92.94 Y43.76 F6000.0
G01 X92.88 Y44.56 F6000.0
G01 X92.95 Y45.38 F6000.0
G01 X93.18 Y45.94 F6000.0
G01 X93.56 Y46.25 F6000.0
G01 X94.1 Y46.36 F6000.0
G01 X94.28 Y46.35 F6000.0
G01 X95.28 F6000.0
G01 X96.47 Y46.34 F6000.0
G01 Y46.29 F6000.0
G01 X96.46 Y45.23 F6000.0
G01 X96.09 F6000.0
M5
G00 X96.44 Y42.1 F6000.0
M3 F6000.0
G01 Y42.04 F6000.0
G01 X96.43 Y40.98 F6000.0
G01 X96.07 F6000.0
G01 X94.71 Y40.99 F6000.0
G01 X94.29 Y40.97 F6000.0
G01 X93.98 Y40.9 F6000.0
G01 X93.81 Y40.71 F6000.0
G01 X93.75 Y40.38 F6000.0
G01 X93.8 Y40.07 F6000.0
G01 X93.96 Y39.73 F6000.0
G01 X94.19 F6000.0
G01 X95.19 Y39.72 F6000.0
G01 X96.42 F6000.0
G01 Y39.66 F6000.0
G01 Y38.6 F6000.0
G01 X96.0 F6000.0
G01 X95.0 Y38.61 F6000.0
G01 X94.0 Y38.62 F6000.0
G01 X93.0 F6000.0
G01 X91.59 Y38.63 F6000.0
G01 Y38.69 F6000.0
G01 X91.6 Y39.75 F6000.0
G01 X91.96 F6000.0
G01 X93.33 Y39.74 F6000.0
G01 X92.97 Y40.31 F6000.0
G01 X92.86 Y40.92 F6000.0
G01 X92.94 Y41.42 F6000.0
G01 X93.19 Y41.8 F6000.0
G01 X93.6 Y42.04 F6000.0
G01 X94.17 Y42.11 F6000.0
G01 X94.31 F6000.0
G01 X95.31 F6000.0
G01 X96.44 Y42.1 F6000.0
M5
G00 X96.41 Y37.55 F6000.0
M3 F6000.0
G01 Y37.49 F6000.0
G01 X96.4 Y36.43 F6000.0
G01 X96.16 F6000.0
G01 X95.16 Y36.44 F6000.0
G01 X94.16 F6000.0
G01 X92.92 Y36.45 F6000.0
G01 Y36.51 F6000.0
G01 X92.93 Y37.57 F6000.0
G01 X93.17 F6000.0
G01 X95.17 Y37.56 F6000.0
G01 X96.41 Y37.55 F6000.0
M5
G00 X92.43 Y37.6 F6000.0
M3 F6000.0
G01 Y37.51 F6000.0
G01 X92.42 Y36.42 F6000.0
G01 X91.58 Y36.43 F6000.0
G01 Y36.52 F6000.0
G01 X91.59 Y37.61 F6000.0
G01 X92.43 Y37.6 F6000.0
M5
G00 X91.23 Y35.64 F6000.0
M3 F6000.0
G01 Y35.51 F6000.0
G01 X91.22 Y34.51 F6000.0
G01 X91.21 Y33.51 F6000.0
G01 X91.2 Y32.39 F6000.0
G01 X90.35 F6000.0
G01 Y32.41 F6000.0
G01 X90.36 Y33.42 F6000.0
G01 X90.07 F6000.0
G01 X89.07 Y33.43 F6000.0
G01 X87.78 Y33.44 F6000.0
G01 Y33.43 F6000.0
G01 Y32.41 F6000.0
G01 X86.98 Y32.42 F6000.0
G01 X86.96 Y32.87 F6000.0
G01 X86.86 Y33.23 F6000.0
G01 X86.65 Y33.49 F6000.0
G01 X86.33 Y33.59 F6000.0
G01 Y33.63 F6000.0
G01 Y34.67 F6000.0
G01 X86.35 F6000.0
G01 X87.35 F6000.0
G01 X88.35 Y34.66 F6000.0
G01 X89.35 Y34.65 F6000.0
G01 X90.37 Y34.64 F6000.0
G01 F6000.0
G01 X90.38 Y35.64 F6000.0
G01 X91.23 F6000.0
M5
G00 X93.91 Y33.13 F6000.0
M3 F6000.0
G01 X94.15 F6000.0
G01 X95.15 Y33.12 F6000.0
G01 X96.38 F6000.0
G01 Y33.06 F6000.0
G01 Y31.99 F6000.0
G01 X96.0 Y32.0 F6000.0
G01 X94.64 F6000.0
G01 X94.2 F6000.0
G01 X93.91 Y31.93 F6000.0
G01 X93.75 Y31.76 F6000.0
G01 X93.69 Y31.44 F6000.0
G01 X93.76 Y31.12 F6000.0
G01 X93.9 Y30.84 F6000.0
G01 X94.13 F6000.0
G01 X95.13 F6000.0
G01 X96.37 Y30.83 F6000.0
G01 Y30.77 F6000.0
G01 X96.36 Y29.71 F6000.0
G01 X96.12 F6000.0
G01 X94.12 Y29.73 F6000.0
G01 X92.88 F6000.0
G01 Y29.79 F6000.0
G01 X92.89 Y30.85 F6000.0
G01 X93.27 F6000.0
G01 X92.92 Y31.4 F6000.0
G01 X92.8 Y31.99 F6000.0
G01 X92.95 Y32.59 F6000.0
G01 X93.41 Y33.0 F6000.0
G01 X92.97 Y33.66 F6000.0
G01 X92.81 Y34.28 F6000.0
G01 X92.9 Y34.77 F6000.0
G01 X93.16 Y35.13 F6000.0
G01 X93.57 Y35.35 F6000.0
G01 X94.13 Y35.42 F6000.0
G01 X94.26 F6000.0
G01 X95.26 Y35.41 F6000.0
G01 X96.4 Y35.4 F6000.0
G01 Y35.34 F6000.0
G01 X96.39 Y34.28 F6000.0
G01 X96.02 F6000.0
G01 X94.65 Y34.29 F6000.0
G01 X94.22 Y34.28 F6000.0
G01 X93.93 Y34.22 F6000.0
G01 X93.77 Y34.05 F6000.0
G01 X93.71 Y33.73 F6000.0
G01 X93.76 Y33.46 F6000.0
G01 X93.91 Y33.13 F6000.0
G01 F6000.0
M5
G00 X95.44 Y27.58 F6000.0
M3 F6000.0
G01 X94.71 Y27.59 F6000.0
G01 X94.76 Y27.1 F6000.0
G01 X94.83 Y26.7 F6000.0
G01 X94.99 Y26.44 F6000.0
G01 X95.25 Y26.35 F6000.0
G01 X95.43 Y26.37 F6000.0
G01 X95.56 Y26.46 F6000.0
G01 X95.65 Y26.63 F6000.0
G01 X95.68 Y26.94 F6000.0
G01 X95.61 Y27.28 F6000.0
G01 X95.44 Y27.58 F6000.0
G01 F6000.0
M5
G00 X95.98 Y27.58 F6000.0
M3 F6000.0
G01 X96.14 Y27.36 F6000.0
G01 X96.29 Y27.1 F6000.0
G01 X96.4 Y26.76 F6000.0
G01 X96.43 Y26.38 F6000.0
G01 X96.35 Y25.92 F6000.0
G01 X96.12 Y25.55 F6000.0
G01 X95.77 Y25.3 F6000.0
G01 X95.33 Y25.22 F6000.0
G01 X94.71 Y25.39 F6000.0
G01 X94.33 Y25.88 F6000.0
G01 X94.14 Y26.65 F6000.0
G01 X94.06 Y27.6 F6000.0
G01 X94.04 F6000.0
G01 X93.64 Y27.37 F6000.0
G01 X93.53 Y26.67 F6000.0
G01 X93.62 Y26.08 F6000.0
G01 X93.77 Y25.63 F6000.0
G01 Y25.53 F6000.0
G01 X92.92 Y25.54 F6000.0
G01 X92.82 Y26.11 F6000.0
G01 X92.76 Y26.91 F6000.0
G01 X92.84 Y27.73 F6000.0
G01 X93.06 Y28.28 F6000.0
G01 X93.44 Y28.6 F6000.0
G01 X93.98 Y28.7 F6000.0
G01 X94.17 F6000.0
G01 X95.17 Y28.69 F6000.0
G01 X96.35 F6000.0
G01 Y28.63 F6000.0
G01 Y27.58 F6000.0
G01 X95.98 F6000.0
M5
G00 X95.92 Y24.42 F6000.0
M3 F6000.0
G01 X96.75 Y24.27 F6000.0
G01 X97.27 Y23.88 F6000.0
G01 X97.54 Y23.27 F6000.0
G01 X97.62 Y22.47 F6000.0
G01 X97.58 Y21.75 F6000.0
G01 X97.47 Y21.15 F6000.0
G01 X96.6 F6000.0
G01 Y21.29 F6000.0
G01 X96.75 Y21.79 F6000.0
G01 X96.82 Y22.31 F6000.0
G01 X96.76 Y22.82 F6000.0
G01 X96.6 Y23.11 F6000.0
G01 X96.35 Y23.26 F6000.0
G01 X95.98 Y23.3 F6000.0
G01 X95.91 F6000.0
G01 X96.17 Y22.85 F6000.0
G01 X96.26 Y22.31 F6000.0
G01 X96.15 Y21.66 F6000.0
G01 X95.81 Y21.18 F6000.0
G01 X95.26 Y20.89 F6000.0
G01 X94.47 Y20.79 F6000.0
G01 X93.73 Y20.92 F6000.0
G01 X93.19 Y21.26 F6000.0
G01 X92.85 Y21.77 F6000.0
G01 X92.73 Y22.38 F6000.0
G01 X92.81 Y22.89 F6000.0
G01 X92.99 Y23.31 F6000.0
G01 X92.84 Y23.36 F6000.0
G01 Y23.4 F6000.0
G01 Y24.44 F6000.0
G01 X92.88 F6000.0
G01 X94.88 Y24.42 F6000.0
G01 X95.92 F6000.0
M5
G00 X95.22 Y23.31 F6000.0
M3 F6000.0
G01 X94.93 F6000.0
G01 X93.64 Y23.32 F6000.0
G01 X93.58 Y23.08 F6000.0
G01 X93.55 Y22.83 F6000.0
G01 X93.61 Y22.44 F6000.0
G01 X93.8 Y22.17 F6000.0
G01 X94.5 Y21.94 F6000.0
G01 X95.21 Y22.13 F6000.0
G01 X95.41 Y22.68 F6000.0
G01 X95.36 Y23.01 F6000.0
G01 X95.22 Y23.31 F6000.0
G01 F6000.0
M5
G00 X91.23 Y23.67 F6000.0
M3 F6000.0
G01 X91.22 F6000.0
G01 X91.06 Y22.67 F6000.0
G01 X90.57 Y21.89 F6000.0
G01 X89.78 Y21.38 F6000.0
G01 X89.72 Y21.37 F6000.0
G01 X88.68 Y21.21 F6000.0
G01 X88.65 F6000.0
G01 X87.63 Y21.39 F6000.0
G01 X86.83 Y21.9 F6000.0
G01 X86.33 Y22.69 F6000.0
G01 Y22.71 F6000.0
G01 X86.16 Y23.72 F6000.0
G01 X86.2 Y24.27 F6000.0
G01 X86.3 Y24.73 F6000.0
G01 X86.44 Y25.12 F6000.0
G01 X86.58 Y25.44 F6000.0
G01 X86.67 F6000.0
G01 X87.76 Y25.43 F6000.0
G01 Y25.28 F6000.0
G01 X87.58 Y25.05 F6000.0
G01 X87.36 Y24.74 F6000.0
G01 X87.18 Y24.35 F6000.0
G01 X87.1 Y23.91 F6000.0
G01 X87.19 Y23.4 F6000.0
G01 X87.46 Y22.96 F6000.0
G01 X87.95 Y22.64 F6000.0
G01 X88.69 Y22.51 F6000.0
G01 X89.46 Y22.64 F6000.0
G01 X89.95 Y22.96 F6000.0
G01 X90.21 Y23.4 F6000.0
G01 X90.29 Y23.89 F6000.0
G01 X90.22 Y24.34 F6000.0
G01 X90.04 Y24.75 F6000.0
G01 X89.84 Y25.05 F6000.0
G01 X89.66 Y25.28 F6000.0
G01 Y25.41 F6000.0
G01 X89.74 F6000.0
G01 X90.82 Y25.4 F6000.0
G01 X90.97 Y25.05 F6000.0
G01 X91.09 Y24.7 F6000.0
G01 X91.19 Y24.25 F6000.0
G01 X91.23 Y23.67 F6000.0
G01 F6000.0
M5
G00 X91.19 Y18.82 F6000.0
M3 F6000.0
G01 F6000.0
G01 X91.02 Y17.82 F6000.0
G01 X90.53 Y17.04 F6000.0
G01 X89.74 Y16.53 F6000.0
G01 X89.68 Y16.52 F6000.0
G01 X88.64 Y16.36 F6000.0
G01 X88.61 F6000.0
G01 X87.59 Y16.54 F6000.0
G01 X86.79 Y17.05 F6000.0
G01 X86.29 Y17.84 F6000.0
G01 Y17.86 F6000.0
G01 X86.12 Y18.87 F6000.0
G01 X86.16 Y19.42 F6000.0
G01 X86.26 Y19.88 F6000.0
G01 X86.4 Y20.28 F6000.0
G01 X86.54 Y20.59 F6000.0
G01 X86.63 F6000.0
G01 X87.72 Y20.58 F6000.0
G01 Y20.43 F6000.0
G01 X87.53 Y20.2 F6000.0
G01 X87.32 Y19.89 F6000.0
G01 X87.14 Y19.5 F6000.0
G01 X87.06 Y19.06 F6000.0
G01 X87.14 Y18.55 F6000.0
G01 X87.42 Y18.11 F6000.0
G01 X87.91 Y17.79 F6000.0
G01 X88.65 Y17.66 F6000.0
G01 X89.42 Y17.78 F6000.0
G01 X89.91 Y18.11 F6000.0
G01 X90.17 Y18.55 F6000.0
G01 X90.25 Y19.03 F6000.0
G01 X90.18 Y19.49 F6000.0
G01 X90.0 Y19.91 F6000.0
G01 X89.8 Y20.2 F6000.0
G01 X89.61 Y20.43 F6000.0
G01 X89.62 Y20.56 F6000.0
G01 X89.7 F6000.0
G01 X90.78 Y20.55 F6000.0
G01 X90.93 Y20.2 F6000.0
G01 X91.05 Y19.85 F6000.0
G01 X91.16 Y19.4 F6000.0
G01 X91.19 Y18.82 F6000.0
G01 F6000.0
M5
G00 X89.63 Y15.45 F6000.0
M3 F6000.0
G01 X90.23 Y15.33 F6000.0
G01 X90.7 Y14.99 F6000.0
G01 X91.02 Y14.41 F6000.0
G01 X91.12 Y13.58 F6000.0
G01 X91.09 Y12.94 F6000.0
G01 X91.02 Y12.42 F6000.0
G01 X90.03 Y12.43 F6000.0
G01 Y12.54 F6000.0
G01 X90.15 Y12.87 F6000.0
G01 X90.2 Y13.31 F6000.0
G01 X90.11 Y13.83 F6000.0
G01 X89.86 Y14.1 F6000.0
G01 X89.51 Y14.19 F6000.0
G01 X89.02 Y14.2 F6000.0
G01 X88.55 Y14.21 F6000.0
G01 X87.08 Y14.22 F6000.0
G01 Y14.16 F6000.0
G01 X87.07 Y13.1 F6000.0
G01 X86.17 Y13.11 F6000.0
G01 Y13.3 F6000.0
G01 X86.18 Y14.3 F6000.0
G01 X86.19 Y15.48 F6000.0
G01 X86.41 F6000.0
G01 X87.41 Y15.47 F6000.0
G01 X88.41 Y15.46 F6000.0
G01 X89.63 Y15.45 F6000.0
M5
G00 X94.82 Y16.04 F6000.0
M3 F6000.0
G01 X95.44 Y15.9 F6000.0
G01 X95.93 Y15.46 F6000.0
G01 X96.24 Y14.78 F6000.0
G01 X96.34 Y13.89 F6000.0
G01 Y13.88 F6000.0
G01 X96.23 Y12.88 F6000.0
G01 X95.97 Y12.09 F6000.0
G01 X95.92 F6000.0
G01 X94.86 Y12.1 F6000.0
G01 X94.87 Y12.23 F6000.0
G01 X95.32 Y13.05 F6000.0
G01 X95.49 Y13.93 F6000.0
G01 X95.47 Y14.21 F6000.0
G01 X95.41 Y14.5 F6000.0
G01 X95.27 Y14.73 F6000.0
G01 X95.03 Y14.82 F6000.0
G01 X94.76 Y14.69 F6000.0
G01 X94.59 Y14.32 F6000.0
G01 X94.47 Y13.76 F6000.0
G01 X94.33 Y13.22 F6000.0
G01 X93.81 Y12.39 F6000.0
G01 X93.0 Y12.14 F6000.0
G01 X92.42 Y12.28 F6000.0
G01 X91.96 Y12.72 F6000.0
G01 X91.66 Y13.38 F6000.0
G01 X91.56 Y14.21 F6000.0
G01 X91.65 Y15.11 F6000.0
G01 X91.88 Y15.88 F6000.0
G01 X91.91 F6000.0
G01 X92.94 Y15.87 F6000.0
G01 Y15.75 F6000.0
G01 X92.56 Y15.06 F6000.0
G01 X92.41 Y14.24 F6000.0
G01 X92.43 Y13.94 F6000.0
G01 X92.5 Y13.66 F6000.0
G01 X92.64 Y13.45 F6000.0
G01 X92.86 Y13.36 F6000.0
G01 X93.14 Y13.5 F6000.0
G01 X93.32 Y14.03 F6000.0
G01 X93.42 Y14.51 F6000.0
G01 X93.56 Y15.02 F6000.0
G01 X94.04 Y15.79 F6000.0
G01 X94.82 Y16.04 F6000.0
G01 F6000.0
M5
G00 X95.38 Y18.9 F6000.0
M3 F6000.0
G01 X94.66 Y18.91 F6000.0
G01 X94.7 Y18.42 F6000.0
G01 X94.78 Y18.02 F6000.0
G01 X94.93 Y17.76 F6000.0
G01 X95.19 Y17.67 F6000.0
G01 X95.37 Y17.69 F6000.0
G01 X95.5 Y17.78 F6000.0
G01 X95.59 Y17.95 F6000.0
G01 X95.62 Y18.26 F6000.0
G01 X95.56 Y18.6 F6000.0
G01 X95.38 Y18.9 F6000.0
G01 F6000.0
M5
G00 X95.92 Y18.9 F6000.0
M3 F6000.0
G01 X96.08 Y18.68 F6000.0
G01 X96.23 Y18.42 F6000.0
G01 X96.34 Y18.08 F6000.0
G01 X96.37 Y17.69 F6000.0
G01 X96.3 Y17.24 F6000.0
G01 X96.06 Y16.86 F6000.0
G01 X95.71 Y16.62 F6000.0
G01 X95.28 Y16.53 F6000.0
G01 X94.65 Y16.71 F6000.0
G01 X94.28 Y17.19 F6000.0
G01 X94.08 Y17.97 F6000.0
G01 X94.0 Y18.92 F6000.0
G01 X93.98 F6000.0
G01 X93.58 Y18.69 F6000.0
G01 X93.47 Y17.99 F6000.0
G01 X93.56 Y17.4 F6000.0
G01 X93.71 Y16.95 F6000.0
G01 Y16.85 F6000.0
G01 X92.87 F6000.0
G01 X92.76 Y17.43 F6000.0
G01 X92.7 Y18.23 F6000.0
G01 X92.78 Y19.05 F6000.0
G01 X93.01 Y19.6 F6000.0
G01 X93.39 Y19.92 F6000.0
G01 X93.93 Y20.02 F6000.0
G01 X94.11 F6000.0
G01 X95.11 Y20.01 F6000.0
G01 X96.3 Y20.0 F6000.0
G01 Y19.95 F6000.0
G01 X96.29 Y18.9 F6000.0
G01 X95.92 F6000.0
M5
G00 X88.21 Y29.22 F6000.0
M3 F6000.0
G01 X88.2 Y28.34 F6000.0
G01 X88.23 F6000.0
G01 X89.23 Y28.07 F6000.0
G01 X89.24 Y28.95 F6000.0
G01 X89.21 Y28.96 F6000.0
G01 X88.21 Y29.22 F6000.0
M5
G00 X88.23 Y31.04 F6000.0
M3 F6000.0
G01 Y31.02 F6000.0
G01 X88.22 Y30.01 F6000.0
G01 X88.24 Y30.0 F6000.0
G01 X89.24 Y29.74 F6000.0
G01 Y30.67 F6000.0
G01 X90.03 Y30.66 F6000.0
G01 Y30.6 F6000.0
G01 X90.02 Y29.54 F6000.0
G01 X90.11 Y29.52 F6000.0
G01 X91.18 Y29.23 F6000.0
G01 X91.17 Y28.44 F6000.0
G01 X91.08 Y28.47 F6000.0
G01 X90.01 Y28.75 F6000.0
G01 Y27.88 F6000.0
G01 X90.1 Y27.86 F6000.0
G01 X91.16 Y27.58 F6000.0
G01 Y26.78 F6000.0
G01 X91.06 Y26.8 F6000.0
G01 X90.0 Y27.08 F6000.0
G01 X89.99 Y26.2 F6000.0
G01 X89.21 F6000.0
G01 Y26.25 F6000.0
G01 X89.22 Y27.28 F6000.0
G01 X89.19 Y27.29 F6000.0
G01 X88.2 Y27.55 F6000.0
G01 X88.19 Y26.59 F6000.0
G01 X87.41 F6000.0
G01 Y26.67 F6000.0
G01 X87.42 Y27.75 F6000.0
G01 X87.34 Y27.77 F6000.0
G01 X86.29 Y28.04 F6000.0
G01 X86.3 Y28.84 F6000.0
G01 X86.38 Y28.82 F6000.0
G01 X87.43 Y28.55 F6000.0
G01 Y29.41 F6000.0
G01 X87.35 Y29.43 F6000.0
G01 X86.31 Y29.7 F6000.0
G01 Y30.51 F6000.0
G01 X86.39 Y30.48 F6000.0
G01 X87.44 Y30.21 F6000.0
G01 X87.45 Y31.05 F6000.0
G01 X88.23 Y31.04 F6000.0
M5
G00 X91.27 Y40.4 F6000.0
M3 F6000.0
G01 Y40.28 F6000.0
G01 X91.26 Y39.28 F6000.0
G01 X91.25 Y38.28 F6000.0
G01 X91.24 Y37.15 F6000.0
G01 X90.39 Y37.16 F6000.0
G01 Y37.17 F6000.0
G01 X90.4 Y38.18 F6000.0
G01 X90.11 Y38.19 F6000.0
G01 X89.11 F6000.0
G01 X87.82 Y38.2 F6000.0
G01 Y38.19 F6000.0
G01 X87.81 Y37.18 F6000.0
G01 X87.02 F6000.0
G01 X87.0 Y37.64 F6000.0
G01 X86.9 Y38.0 F6000.0
G01 X86.69 Y38.25 F6000.0
G01 X86.36 Y38.36 F6000.0
G01 Y38.4 F6000.0
G01 X86.37 Y39.44 F6000.0
G01 X86.39 F6000.0
G01 X88.39 Y39.42 F6000.0
G01 X89.39 Y39.41 F6000.0
G01 X90.41 F6000.0
G01 F6000.0
G01 X90.42 Y40.41 F6000.0
G01 X91.27 Y40.4 F6000.0
M5
G00 X94.07 Y49.91 F6000.0
M3 F6000.0
G01 Y49.81 F6000.0
G01 X94.03 Y49.58 F6000.0
G01 X94.02 Y49.31 F6000.0
G01 X94.05 Y48.89 F6000.0
G01 X94.15 Y48.5 F6000.0
G01 X94.32 F6000.0
G01 X95.32 Y48.49 F6000.0
G01 X96.48 Y48.48 F6000.0
G01 Y48.42 F6000.0
G01 X96.47 Y47.37 F6000.0
G01 X96.23 F6000.0
G01 X95.23 F6000.0
G01 X94.23 Y47.38 F6000.0
G01 X92.99 Y47.39 F6000.0
G01 Y47.45 F6000.0
G01 X93.0 Y48.5 F6000.0
G01 X93.51 F6000.0
G01 X93.1 Y49.15 F6000.0
G01 X93.0 Y49.65 F6000.0
G01 Y49.78 F6000.0
G01 X93.01 Y49.91 F6000.0
G01 X93.04 F6000.0
G01 X94.07 F6000.0
M5
G00 X95.6 Y52.64 F6000.0
M3 F6000.0
G01 X94.88 F6000.0
G01 X94.92 Y52.15 F6000.0
G01 X95.0 Y51.75 F6000.0
G01 X95.15 Y51.49 F6000.0
G01 X95.41 Y51.4 F6000.0
G01 X95.59 Y51.42 F6000.0
G01 X95.72 Y51.51 F6000.0
G01 X95.81 Y51.68 F6000.0
G01 X95.84 Y51.99 F6000.0
G01 X95.78 Y52.33 F6000.0
G01 X95.6 Y52.64 F6000.0
G01 F6000.0
M5
G00 X96.14 Y52.63 F6000.0
M3 F6000.0
G01 X96.3 Y52.41 F6000.0
G01 X96.45 Y52.16 F6000.0
G01 X96.56 Y51.81 F6000.0
G01 X96.59 Y51.43 F6000.0
G01 X96.51 Y50.97 F6000.0
G01 X96.28 Y50.6 F6000.0
G01 X95.93 Y50.35 F6000.0
G01 X95.5 Y50.27 F6000.0
G01 X94.87 Y50.44 F6000.0
G01 X94.5 Y50.93 F6000.0
G01 X94.3 Y51.7 F6000.0
G01 X94.22 Y52.65 F6000.0
G01 X94.2 F6000.0
G01 X93.8 Y52.42 F6000.0
G01 X93.69 Y51.72 F6000.0
G01 X93.78 Y51.14 F6000.0
G01 X93.93 Y50.69 F6000.0
G01 Y50.58 F6000.0
G01 X93.09 Y50.59 F6000.0
G01 X92.98 Y51.16 F6000.0
G01 X92.92 Y51.96 F6000.0
G01 X93.0 Y52.78 F6000.0
G01 X93.23 Y53.33 F6000.0
G01 X93.6 Y53.65 F6000.0
G01 X94.15 Y53.75 F6000.0
G01 X94.33 F6000.0
G01 X95.33 F6000.0
G01 X96.52 Y53.74 F6000.0
G01 Y53.68 F6000.0
G01 X96.51 Y52.63 F6000.0
G01 X96.14 F6000.0
M5
G00 X96.92 Y116.09 F6000.0
M3 F6000.0
G01 Y116.03 F6000.0
G01 Y114.97 F6000.0
G01 X96.55 F6000.0
G01 X95.19 Y114.98 F6000.0
G01 X94.77 Y114.97 F6000.0
G01 X94.46 Y114.89 F6000.0
G01 X94.29 Y114.71 F6000.0
G01 X94.23 Y114.38 F6000.0
G01 X94.28 Y114.07 F6000.0
G01 X94.44 Y113.73 F6000.0
G01 X94.67 F6000.0
G01 X95.67 Y113.72 F6000.0
G01 X96.91 Y113.71 F6000.0
G01 Y113.66 F6000.0
G01 X96.9 Y112.6 F6000.0
G01 X96.66 F6000.0
G01 X95.66 Y112.61 F6000.0
G01 X94.66 F6000.0
G01 X93.42 Y112.62 F6000.0
G01 Y112.68 F6000.0
G01 Y113.74 F6000.0
G01 X93.81 Y113.73 F6000.0
G01 X93.46 Y114.31 F6000.0
G01 X93.34 Y114.92 F6000.0
G01 X93.42 Y115.42 F6000.0
G01 X93.67 Y115.8 F6000.0
G01 X94.08 Y116.03 F6000.0
G01 X94.66 Y116.11 F6000.0
G01 X94.79 F6000.0
G01 X95.79 Y116.1 F6000.0
G01 X96.92 Y116.09 F6000.0
M5
G00 X89.42 Y129.46 F6000.0
M3 F6000.0
G01 X89.57 Y128.64 F6000.0
G01 X89.94 Y128.09 F6000.0
G01 X90.6 Y127.78 F6000.0
G01 F6000.0
G01 X91.59 Y127.68 F6000.0
G01 X92.53 Y127.81 F6000.0
G01 X93.28 Y128.05 F6000.0
G01 X93.65 F6000.0
G01 Y127.78 F6000.0
G01 Y126.78 F6000.0
G01 Y125.51 F6000.0
G01 X93.55 Y125.49 F6000.0
G01 X92.47 Y125.28 F6000.0
G01 X92.01 Y125.26 F6000.0
G01 X90.54 Y125.19 F6000.0
G01 X90.5 F6000.0
G01 X89.47 Y125.26 F6000.0
G01 X88.54 Y125.48 F6000.0
G01 X87.76 Y125.82 F6000.0
G01 X87.12 Y126.28 F6000.0
G01 X86.63 Y126.84 F6000.0
G01 X86.28 Y127.48 F6000.0
G01 X86.22 Y127.77 F6000.0
G01 X85.95 Y129.03 F6000.0
G01 X85.69 Y129.06 F6000.0
G01 X84.43 Y129.23 F6000.0
G01 X84.23 Y129.29 F6000.0
G01 X83.08 Y129.66 F6000.0
G01 X82.94 Y129.74 F6000.0
G01 X81.92 Y130.31 F6000.0
G01 X81.8 Y130.41 F6000.0
G01 X80.93 Y131.18 F6000.0
G01 X80.83 Y131.31 F6000.0
G01 X80.14 Y132.25 F6000.0
G01 X80.07 Y132.41 F6000.0
G01 X79.58 Y133.49 F6000.0
G01 X79.53 Y133.71 F6000.0
G01 X79.24 Y134.89 F6000.0
G01 X79.22 Y135.18 F6000.0
G01 X79.13 Y136.46 F6000.0
G01 X79.16 Y136.79 F6000.0
G01 X79.25 Y138.1 F6000.0
G01 X79.32 Y138.35 F6000.0
G01 X79.62 Y139.56 F6000.0
G01 X79.71 Y139.75 F6000.0
G01 X80.24 Y140.84 F6000.0
G01 X80.36 Y140.99 F6000.0
G01 X81.1 Y141.93 F6000.0
G01 X81.25 Y142.06 F6000.0
G01 X82.18 Y142.82 F6000.0
G01 X82.36 Y142.91 F6000.0
G01 X83.44 Y143.45 F6000.0
G01 X83.68 Y143.51 F6000.0
G01 X84.89 Y143.82 F6000.0
G01 X85.21 Y143.85 F6000.0
G01 X86.53 Y143.95 F6000.0
G01 X86.85 Y143.93 F6000.0
G01 X88.17 Y143.82 F6000.0
G01 X88.41 Y143.76 F6000.0
G01 X89.61 Y143.45 F6000.0
G01 X89.8 Y143.35 F6000.0
G01 X90.88 Y142.82 F6000.0
G01 X91.03 Y142.69 F6000.0
G01 X91.96 Y141.93 F6000.0
G01 X92.08 Y141.78 F6000.0
G01 X92.83 Y140.84 F6000.0
G01 X92.92 Y140.65 F6000.0
G01 X93.44 Y139.56 F6000.0
G01 X93.51 Y139.32 F6000.0
G01 X93.81 Y138.1 F6000.0
G01 X93.84 Y137.78 F6000.0
G01 X93.94 Y136.46 F6000.0
G01 X93.93 Y136.35 F6000.0
G01 X93.87 Y135.23 F6000.0
G01 X93.85 Y135.15 F6000.0
G01 X93.65 Y134.08 F6000.0
G01 X93.63 Y134.03 F6000.0
G01 X93.29 Y133.02 F6000.0
G01 X93.27 Y132.98 F6000.0
G01 X92.78 Y132.05 F6000.0
G01 X92.76 Y132.02 F6000.0
G01 X92.14 Y131.19 F6000.0
G01 X92.12 Y131.17 F6000.0
G01 X91.36 Y130.47 F6000.0
G01 X91.33 Y130.45 F6000.0
G01 X90.46 Y129.9 F6000.0
G01 X90.4 Y129.87 F6000.0
G01 X89.42 Y129.46 F6000.0
G01 F6000.0
M5
G00 X89.03 Y132.83 F6000.0
M3 F6000.0
G01 X89.5 Y133.54 F6000.0
G01 X89.83 Y134.37 F6000.0
G01 X89.84 Y134.43 F6000.0
G01 X89.96 Y135.42 F6000.0
G01 X90.09 Y136.47 F6000.0
G01 X90.08 Y136.57 F6000.0
G01 X90.02 Y137.67 F6000.0
G01 X90.01 Y137.68 F6000.0
G01 X89.79 Y138.67 F6000.0
G01 X89.45 Y139.49 F6000.0
G01 X89.01 Y140.14 F6000.0
G01 X88.48 Y140.64 F6000.0
G01 X87.87 Y140.98 F6000.0
G01 X87.7 Y141.01 F6000.0
G01 X86.54 Y141.24 F6000.0
G01 X86.37 Y141.21 F6000.0
G01 X85.21 Y140.99 F6000.0
G01 X84.62 Y140.66 F6000.0
G01 X84.07 Y140.16 F6000.0
G01 X83.63 Y139.51 F6000.0
G01 X83.28 Y138.66 F6000.0
G01 Y138.64 F6000.0
G01 X83.06 Y137.64 F6000.0
G01 X83.05 Y137.55 F6000.0
G01 X82.98 Y136.46 F6000.0
G01 X82.99 Y136.37 F6000.0
G01 X83.05 Y135.28 F6000.0
G01 X83.06 Y135.26 F6000.0
G01 X83.27 Y134.28 F6000.0
G01 X83.61 Y133.46 F6000.0
G01 X84.05 Y132.81 F6000.0
G01 X84.58 Y132.31 F6000.0
G01 X85.18 Y131.97 F6000.0
G01 X85.37 Y131.93 F6000.0
G01 X86.54 Y131.7 F6000.0
G01 X86.73 Y131.74 F6000.0
G01 X87.9 Y131.97 F6000.0
G01 X88.5 Y132.32 F6000.0
G01 X89.03 Y132.83 F6000.0
G01 F6000.0
M5
G00 X77.14 Y136.46 F6000.0
M3 F6000.0
G01 X77.12 Y136.15 F6000.0
G01 X77.02 Y134.84 F6000.0
G01 X76.96 Y134.59 F6000.0
G01 X76.65 Y133.38 F6000.0
G01 X76.56 Y133.19 F6000.0
G01 X76.04 Y132.11 F6000.0
G01 X75.92 Y131.95 F6000.0
G01 X75.18 Y131.0 F6000.0
G01 X75.03 Y130.88 F6000.0
G01 X74.1 Y130.12 F6000.0
G01 X73.91 Y130.03 F6000.0
G01 X72.83 Y129.49 F6000.0
G01 X72.59 Y129.43 F6000.0
G01 X71.38 Y129.12 F6000.0
G01 X71.06 Y129.09 F6000.0
G01 X69.74 Y128.99 F6000.0
G01 X69.42 Y129.01 F6000.0
G01 X68.1 Y129.12 F6000.0
G01 X67.86 Y129.18 F6000.0
G01 X66.65 Y129.49 F6000.0
G01 X66.46 Y129.59 F6000.0
G01 X65.38 Y130.12 F6000.0
G01 X65.23 Y130.25 F6000.0
G01 X64.31 Y131.0 F6000.0
G01 X64.18 Y131.16 F6000.0
G01 X63.44 Y132.11 F6000.0
G01 X63.35 Y132.29 F6000.0
G01 X62.83 Y133.38 F6000.0
G01 X62.77 Y133.62 F6000.0
G01 X62.46 Y134.84 F6000.0
G01 X62.44 Y135.15 F6000.0
G01 X62.34 Y136.46 F6000.0
G01 X62.36 Y136.79 F6000.0
G01 X62.46 Y138.1 F6000.0
G01 X62.52 Y138.35 F6000.0
G01 X62.83 Y139.56 F6000.0
G01 X62.92 Y139.75 F6000.0
G01 X63.44 Y140.84 F6000.0
G01 X63.57 Y140.99 F6000.0
G01 X64.31 Y141.93 F6000.0
G01 X64.46 Y142.06 F6000.0
G01 X65.38 Y142.82 F6000.0
G01 X65.57 Y142.91 F6000.0
G01 X66.65 Y143.45 F6000.0
G01 X66.89 Y143.51 F6000.0
G01 X68.1 Y143.82 F6000.0
G01 X68.42 Y143.85 F6000.0
G01 X69.74 Y143.95 F6000.0
G01 X70.06 Y143.93 F6000.0
G01 X71.37 Y143.82 F6000.0
G01 X71.61 Y143.76 F6000.0
G01 X72.82 Y143.45 F6000.0
G01 X73.01 Y143.35 F6000.0
G01 X74.09 Y142.82 F6000.0
G01 X74.24 Y142.69 F6000.0
G01 X75.17 Y141.93 F6000.0
G01 X75.29 Y141.78 F6000.0
G01 X76.03 Y140.84 F6000.0
G01 X76.12 Y140.65 F6000.0
G01 X76.65 Y139.56 F6000.0
G01 X76.71 Y139.32 F6000.0
G01 X77.02 Y138.1 F6000.0
G01 X77.05 Y137.78 F6000.0
G01 X77.14 Y136.46 F6000.0
G01 F6000.0
M5
G00 X72.23 Y132.83 F6000.0
M3 F6000.0
G01 X72.7 Y133.54 F6000.0
G01 X73.03 Y134.37 F6000.0
G01 X73.04 Y134.43 F6000.0
G01 X73.17 Y135.42 F6000.0
G01 X73.3 Y136.47 F6000.0
G01 X73.29 Y136.57 F6000.0
G01 X73.22 Y137.67 F6000.0
G01 Y137.68 F6000.0
G01 X73.0 Y138.67 F6000.0
G01 X72.65 Y139.49 F6000.0
G01 X72.22 Y140.14 F6000.0
G01 X71.69 Y140.64 F6000.0
G01 X71.08 Y140.98 F6000.0
G01 X70.9 Y141.01 F6000.0
G01 X69.75 Y141.24 F6000.0
G01 X69.57 Y141.21 F6000.0
G01 X68.42 Y140.99 F6000.0
G01 X67.82 Y140.66 F6000.0
G01 X67.28 Y140.16 F6000.0
G01 X66.84 Y139.51 F6000.0
G01 X66.49 Y138.66 F6000.0
G01 X66.48 Y138.64 F6000.0
G01 X66.26 Y137.64 F6000.0
G01 Y137.55 F6000.0
G01 X66.19 Y136.46 F6000.0
G01 Y136.37 F6000.0
G01 X66.26 Y135.28 F6000.0
G01 Y135.26 F6000.0
G01 X66.48 Y134.28 F6000.0
G01 X66.82 Y133.46 F6000.0
G01 X67.26 Y132.81 F6000.0
G01 X67.78 Y132.31 F6000.0
G01 X68.39 Y131.97 F6000.0
G01 X68.58 Y131.93 F6000.0
G01 X69.75 Y131.7 F6000.0
G01 X69.94 Y131.74 F6000.0
G01 X71.11 Y131.97 F6000.0
G01 X71.71 Y132.32 F6000.0
G01 X72.23 Y132.83 F6000.0
G01 F6000.0
M5
G00 X61.11 Y129.29 F6000.0
M3 F6000.0
G01 X60.7 F6000.0
G01 X58.7 F6000.0
G01 X57.28 F6000.0
G01 X57.27 Y129.32 F6000.0
G01 X56.62 Y131.21 F6000.0
G01 X56.29 Y132.19 F6000.0
G01 X56.13 F6000.0
G01 X52.13 F6000.0
G01 X50.97 F6000.0
G01 X50.95 Y132.16 F6000.0
G01 X50.63 Y131.21 F6000.0
G01 X50.31 Y130.27 F6000.0
G01 X49.97 Y129.29 F6000.0
G01 X49.6 F6000.0
G01 X47.6 F6000.0
G01 X46.24 F6000.0
G01 X46.29 Y129.43 F6000.0
G01 X46.64 Y130.37 F6000.0
G01 X46.98 Y131.31 F6000.0
G01 X47.33 Y132.25 F6000.0
G01 X47.68 Y133.19 F6000.0
G01 X48.02 Y134.12 F6000.0
G01 X48.37 Y135.06 F6000.0
G01 X48.72 Y136.0 F6000.0
G01 X49.06 Y136.94 F6000.0
G01 X49.41 Y137.88 F6000.0
G01 X49.76 Y138.81 F6000.0
G01 X50.1 Y139.75 F6000.0
G01 X50.45 Y140.69 F6000.0
G01 X50.8 Y141.63 F6000.0
G01 X51.14 Y142.57 F6000.0
G01 X51.54 Y143.65 F6000.0
G01 X51.67 F6000.0
G01 X54.67 F6000.0
G01 X55.81 F6000.0
G01 X55.86 Y143.5 F6000.0
G01 X56.21 Y142.57 F6000.0
G01 X56.55 Y141.63 F6000.0
G01 X56.9 Y140.69 F6000.0
G01 X57.25 Y139.75 F6000.0
G01 X57.59 Y138.81 F6000.0
G01 X57.94 Y137.88 F6000.0
G01 X58.29 Y136.94 F6000.0
G01 X58.63 Y136.0 F6000.0
G01 X58.98 Y135.06 F6000.0
G01 X59.33 Y134.12 F6000.0
G01 X59.67 Y133.19 F6000.0
G01 X60.37 Y131.31 F6000.0
G01 X60.71 Y130.37 F6000.0
G01 X61.11 Y129.29 F6000.0
M5
G00 X55.39 Y134.82 F6000.0
M3 F6000.0
G01 X55.32 Y135.03 F6000.0
G01 X54.35 Y137.87 F6000.0
G01 X54.02 Y138.82 F6000.0
G01 X53.63 Y139.98 F6000.0
G01 X53.55 Y139.76 F6000.0
G01 X53.23 Y138.82 F6000.0
G01 X52.91 Y137.87 F6000.0
G01 X52.26 Y135.98 F6000.0
G01 X51.86 Y134.82 F6000.0
G01 X52.13 F6000.0
G01 X54.13 F6000.0
G01 X55.39 F6000.0
M5
G00 X44.12 Y129.29 F6000.0
M3 F6000.0
G01 X43.82 F6000.0
G01 X35.82 F6000.0
G01 X34.53 F6000.0
G01 Y129.54 F6000.0
G01 Y130.54 F6000.0
G01 Y131.8 F6000.0
G01 X34.54 F6000.0
G01 X36.54 F6000.0
G01 X37.56 F6000.0
G01 Y132.09 F6000.0
G01 Y138.09 F6000.0
G01 Y139.39 F6000.0
G01 X37.54 F6000.0
G01 X35.54 F6000.0
G01 X34.53 F6000.0
G01 Y139.56 F6000.0
G01 Y140.56 F6000.0
G01 Y141.73 F6000.0
G01 X34.69 Y141.74 F6000.0
G01 X35.86 Y141.81 F6000.0
G01 X35.91 Y141.82 F6000.0
G01 X36.92 Y142.1 F6000.0
G01 X37.67 Y142.72 F6000.0
G01 Y142.73 F6000.0
G01 X37.96 Y143.69 F6000.0
G01 X38.06 F6000.0
G01 X40.06 F6000.0
G01 X41.15 F6000.0
G01 Y143.24 F6000.0
G01 Y133.24 F6000.0
G01 Y131.8 F6000.0
G01 X41.63 F6000.0
G01 X42.63 F6000.0
G01 X44.12 F6000.0
G01 Y131.54 F6000.0
G01 Y130.54 F6000.0
G01 Y129.29 F6000.0
M5
G00 X31.73 Y129.29 F6000.0
M3 F6000.0
G01 X31.32 F6000.0
G01 X29.32 F6000.0
G01 X27.9 F6000.0
G01 X27.89 Y129.32 F6000.0
G01 X27.57 Y130.27 F6000.0
G01 X27.24 Y131.21 F6000.0
G01 X26.91 Y132.19 F6000.0
G01 X26.74 F6000.0
G01 X22.74 F6000.0
G01 X21.58 F6000.0
G01 X21.57 Y132.16 F6000.0
G01 X21.25 Y131.21 F6000.0
G01 X20.92 Y130.27 F6000.0
G01 X20.59 Y129.29 F6000.0
G01 X20.22 F6000.0
G01 X18.22 F6000.0
G01 X16.86 F6000.0
G01 X16.91 Y129.43 F6000.0
G01 X17.26 Y130.37 F6000.0
G01 X17.6 Y131.31 F6000.0
G01 X17.95 Y132.25 F6000.0
G01 X18.3 Y133.19 F6000.0
G01 X18.64 Y134.12 F6000.0
G01 X18.99 Y135.06 F6000.0
G01 X19.34 Y136.0 F6000.0
G01 X19.68 Y136.94 F6000.0
G01 X20.03 Y137.88 F6000.0
G01 X20.37 Y138.81 F6000.0
G01 X20.72 Y139.75 F6000.0
G01 X21.07 Y140.69 F6000.0
G01 X21.41 Y141.63 F6000.0
G01 X21.76 Y142.57 F6000.0
G01 X22.16 Y143.65 F6000.0
G01 X22.29 F6000.0
G01 X25.29 F6000.0
G01 X26.42 F6000.0
G01 X26.48 Y143.5 F6000.0
G01 X26.82 Y142.57 F6000.0
G01 X27.17 Y141.63 F6000.0
G01 X27.52 Y140.69 F6000.0
G01 X27.86 Y139.75 F6000.0
G01 X28.21 Y138.81 F6000.0
G01 X28.56 Y137.88 F6000.0
G01 X28.9 Y136.94 F6000.0
G01 X29.25 Y136.0 F6000.0
G01 X29.6 Y135.06 F6000.0
G01 X29.94 Y134.12 F6000.0
G01 X30.29 Y133.19 F6000.0
G01 X30.64 Y132.25 F6000.0
G01 X30.98 Y131.31 F6000.0
G01 X31.33 Y130.37 F6000.0
G01 X31.73 Y129.29 F6000.0
M5
G00 X26.01 Y134.82 F6000.0
M3 F6000.0
G01 X25.94 Y135.03 F6000.0
G01 X25.61 Y135.98 F6000.0
G01 X24.64 Y138.82 F6000.0
G01 X24.24 Y139.98 F6000.0
G01 X24.17 Y139.76 F6000.0
G01 X23.2 Y136.93 F6000.0
G01 X22.88 Y135.98 F6000.0
G01 X22.48 Y134.82 F6000.0
G01 X22.74 F6000.0
G01 X24.74 F6000.0
G01 X26.01 F6000.0
M5
G00 X14.97 Y133.5 F6000.0
M3 F6000.0
G01 X14.89 Y132.59 F6000.0
G01 X14.64 Y131.73 F6000.0
G01 X14.22 Y130.97 F6000.0
G01 X13.63 Y130.34 F6000.0
G01 X12.86 Y129.8 F6000.0
G01 X12.85 F6000.0
G01 X11.94 Y129.39 F6000.0
G01 X11.87 Y129.38 F6000.0
G01 X10.82 Y129.15 F6000.0
G01 X10.65 Y129.14 F6000.0
G01 X9.48 Y129.07 F6000.0
G01 X9.04 Y129.08 F6000.0
G01 X7.61 Y129.14 F6000.0
G01 X7.33 Y129.18 F6000.0
G01 X6.06 Y129.35 F6000.0
G01 Y129.8 F6000.0
G01 Y130.8 F6000.0
G01 Y132.26 F6000.0
G01 X6.41 F6000.0
G01 X6.42 F6000.0
G01 X7.37 Y131.93 F6000.0
G01 X7.52 Y131.91 F6000.0
G01 X8.66 Y131.79 F6000.0
G01 X9.55 Y131.85 F6000.0
G01 X10.21 Y132.06 F6000.0
G01 X10.68 Y132.38 F6000.0
G01 X10.99 Y132.81 F6000.0
G01 X11.0 Y132.84 F6000.0
G01 X11.24 Y133.84 F6000.0
G01 X11.25 Y134.06 F6000.0
G01 X11.27 Y135.29 F6000.0
G01 Y135.65 F6000.0
G01 Y139.65 F6000.0
G01 Y141.01 F6000.0
G01 X11.12 F6000.0
G01 X9.12 F6000.0
G01 X7.98 F6000.0
G01 Y141.33 F6000.0
G01 Y142.33 F6000.0
G01 Y143.65 F6000.0
G01 X8.48 F6000.0
G01 X13.48 F6000.0
G01 X14.97 F6000.0
G01 Y143.58 F6000.0
G01 Y134.58 F6000.0
G01 Y133.5 F6000.0
M5
;END perimeter
; START perimeter strategy
G01 F6000.0
M5
G00 X73.24 Y126.59 F6000.0
M3 F6000.0
G01 X73.97 Y127.14 F6000.0
G01 X74.85 Y127.33 F6000.0
M5
G00 X75.01 Y127.33 F6000.0
M3 F6000.0
G01 X75.57 Y127.25 F6000.0
M5
G00 X75.73 Y127.25 F6000.0
M3 F6000.0
G01 X76.54 Y126.75 F6000.0
M5
G00 X76.7 Y126.5 F6000.0
M3 F6000.0
G01 X76.62 Y126.42 F6000.0
M5
G00 X76.86 Y126.5 F6000.0
M3 F6000.0
G01 X77.7 Y126.47 F6000.0
G01 X78.28 Y126.11 F6000.0
G01 X78.46 Y125.91 F6000.0
G01 X79.3 Y124.95 F6000.0
G01 X79.88 Y124.51 F6000.0
G01 X80.41 Y124.01 F6000.0
M5
G00 X80.49 Y123.76 F6000.0
M3 F6000.0
G01 X80.68 Y122.82 F6000.0
G01 X80.69 Y122.02 F6000.0
G01 X80.48 Y121.26 F6000.0
G01 X80.0 Y120.43 F6000.0
G01 X80.47 Y120.11 F6000.0
G01 X80.75 Y119.75 F6000.0
G01 X80.84 Y118.95 F6000.0
G01 X80.52 Y118.1 F6000.0
G01 X80.0 Y117.27 F6000.0
G01 X80.08 Y117.18 F6000.0
G01 X80.25 F6000.0
M5
G00 X80.73 Y117.1 F6000.0
M3 F6000.0
G01 X80.65 Y116.93 F6000.0
M5
G00 X80.97 Y117.52 F6000.0
M3 F6000.0
G01 X80.89 Y117.27 F6000.0
M5
G00 X81.05 Y117.68 F6000.0
M3 F6000.0
G01 X81.13 F6000.0
M5
G00 X81.62 Y117.68 F6000.0
M3 F6000.0
G01 X82.1 Y117.18 F6000.0
M5
G00 X81.29 Y118.52 F6000.0
M3 F6000.0
G01 X81.45 Y117.77 F6000.0
M5
G00 X81.29 Y118.68 F6000.0
M3 F6000.0
G01 X81.51 Y119.26 F6000.0
G01 X82.02 Y119.6 F6000.0
M5
G00 X82.18 Y120.01 F6000.0
M3 F6000.0
G01 Y119.93 F6000.0
M5
G00 X82.18 Y120.26 F6000.0
M3 F6000.0
G01 X82.26 Y120.18 F6000.0
M5
G00 X82.18 Y120.51 F6000.0
M3 F6000.0
G01 Y120.43 F6000.0
M5
G00 X82.66 Y120.76 F6000.0
M3 F6000.0
G01 X82.34 Y120.35 F6000.0
M5
G00 X83.15 Y121.01 F6000.0
M3 F6000.0
G01 X83.23 F6000.0
M5
G00 X83.39 Y121.01 F6000.0
M3 F6000.0
G01 X83.79 Y121.09 F6000.0
M5
G00 X84.19 Y121.09 F6000.0
M3 F6000.0
G01 X84.28 F6000.0
M5
G00 X84.44 Y121.09 F6000.0
M3 F6000.0
G01 X84.52 F6000.0
M5
G00 X84.68 Y121.09 F6000.0
M3 F6000.0
G01 X84.76 F6000.0
M5
G00 X79.6 Y117.27 F6000.0
M3 F6000.0
G01 X79.76 Y117.18 F6000.0
M5
G00 X81.37 Y115.27 F6000.0
M3 F6000.0
G01 Y115.19 F6000.0
M5
G00 X81.54 Y113.36 F6000.0
M3 F6000.0
G01 X82.18 Y113.02 F6000.0
M5
G00 X82.5 Y113.19 F6000.0
M3 F6000.0
G01 X83.23 Y113.11 F6000.0
M5
G00 X83.47 Y112.94 F6000.0
M3 F6000.0
G01 X83.95 Y112.78 F6000.0
M5
G00 X84.11 Y112.69 F6000.0
M3 F6000.0
G01 X84.44 Y112.61 F6000.0
M5
G00 X84.68 Y112.53 F6000.0
M3 F6000.0
G01 X84.84 F6000.0
M5
G00 X83.79 Y112.36 F6000.0
M3 F6000.0
G01 X84.28 F6000.0
M5
G00 X83.15 Y112.36 F6000.0
M3 F6000.0
G01 X83.47 Y112.44 F6000.0
M5
G00 X82.34 Y112.36 F6000.0
M3 F6000.0
G01 X82.74 Y112.44 F6000.0
M5
G00 X82.1 Y112.36 F6000.0
M3 F6000.0
G01 X82.18 F6000.0
M5
G00 X81.7 Y112.44 F6000.0
M3 F6000.0
G01 X81.94 Y112.36 F6000.0
M5
G00 X81.45 Y112.36 F6000.0
M3 F6000.0
G01 X81.54 F6000.0
M5
G00 X81.21 Y112.36 F6000.0
M3 F6000.0
G01 X81.29 F6000.0
M5
G00 X80.73 Y112.36 F6000.0
M3 F6000.0
G01 X80.81 F6000.0
M5
G00 X80.17 Y112.36 F6000.0
M3 F6000.0
G01 X80.57 F6000.0
M5
G00 X79.76 Y112.36 F6000.0
M3 F6000.0
G01 X79.84 F6000.0
M5
G00 X79.36 Y112.28 F6000.0
M3 F6000.0
G01 X79.44 F6000.0
M5
G00 X79.6 Y113.69 F6000.0
M3 F6000.0
G01 X79.68 F6000.0
M5
G00 X79.84 Y113.77 F6000.0
M3 F6000.0
G01 X79.92 Y113.69 F6000.0
M5
G00 X80.57 Y113.27 F6000.0
M3 F6000.0
G01 X81.29 F6000.0
M5
G00 X79.12 Y113.69 F6000.0
M3 F6000.0
G01 X79.44 F6000.0
M5
G00 X78.07 Y113.61 F6000.0
M3 F6000.0
G01 X78.15 F6000.0
M5
G00 X77.91 Y112.28 F6000.0
M3 F6000.0
G01 X78.15 F6000.0
M5
G00 X77.51 Y111.86 F6000.0
M3 F6000.0
G01 X77.59 F6000.0
M5
G00 X77.27 Y112.28 F6000.0
M3 F6000.0
G01 X77.35 F6000.0
M5
G00 X76.38 Y112.28 F6000.0
M3 F6000.0
G01 X76.46 F6000.0
M5
G00 X75.17 Y112.53 F6000.0
M3 F6000.0
G01 X75.25 F6000.0
M5
G00 X73.72 Y112.03 F6000.0
M3 F6000.0
G01 X73.8 F6000.0
M5
G00 X73.48 Y112.03 F6000.0
M3 F6000.0
G01 X73.56 F6000.0
M5
G00 X73.16 Y111.11 F6000.0
M3 F6000.0
G01 X73.0 Y110.94 F6000.0
M5
G00 X72.75 Y111.36 F6000.0
M3 F6000.0
G01 X73.0 Y111.28 F6000.0
M5
G00 X71.87 Y111.61 F6000.0
M3 F6000.0
G01 X72.43 Y111.53 F6000.0
M5
G00 X71.55 Y112.03 F6000.0
M3 F6000.0
G01 X71.79 Y111.94 F6000.0
M5
G00 X71.14 Y110.86 F6000.0
M3 F6000.0
G01 X72.11 F6000.0
M5
G00 X70.26 Y110.94 F6000.0
M3 F6000.0
G01 X70.98 Y110.86 F6000.0
M5
G00 X69.61 Y110.94 F6000.0
M3 F6000.0
G01 X69.93 Y110.86 F6000.0
M5
G00 X69.29 Y111.03 F6000.0
M3 F6000.0
G01 Y110.94 F6000.0
M5
G00 X68.64 Y111.03 F6000.0
M3 F6000.0
G01 X68.89 F6000.0
M5
G00 X68.73 Y111.94 F6000.0
M3 F6000.0
G01 X68.89 Y112.03 F6000.0
M5
G00 X68.89 Y112.53 F6000.0
M3 F6000.0
G01 X68.97 F6000.0
M5
G00 X69.21 Y112.44 F6000.0
M3 F6000.0
G01 X69.37 Y112.36 F6000.0
M5
G00 X68.24 Y111.94 F6000.0
M3 F6000.0
G01 X68.48 F6000.0
M5
G00 X68. Y112.61 F6000.0
M3 F6000.0
G01 X68.4 F6000.0
M5
G00 X67.52 Y112.61 F6000.0
M3 F6000.0
G01 X67.76 F6000.0
M5
G00 X67.68 Y111.69 F6000.0
M3 F6000.0
G01 X68.0 Y111.78 F6000.0
M5
G00 X67.44 Y111.11 F6000.0
M3 F6000.0
G01 X68.24 F6000.0
M5
G00 X67.19 Y111.11 F6000.0
M3 F6000.0
G01 X67.28 F6000.0
M5
G00 X67.11 Y111.36 F6000.0
M3 F6000.0
G01 X67.28 Y111.44 F6000.0
M5
G00 X66.79 Y112.36 F6000.0
M3 F6000.0
G01 Y112.28 F6000.0
M5
G00 X66.71 Y112.53 F6000.0
M3 F6000.0
G01 X67.19 Y112.61 F6000.0
M5
G00 X65.58 Y112.36 F6000.0
M3 F6000.0
G01 X65.75 F6000.0
M5
G00 X65.34 Y112.44 F6000.0
M3 F6000.0
G01 X65.42 F6000.0
M5
G00 X65.26 Y113.19 F6000.0
M3 F6000.0
G01 X65.34 F6000.0
M5
G00 X64.86 Y113.19 F6000.0
M3 F6000.0
G01 X64.78 Y113.02 F6000.0
M5
G00 X64.38 Y113.11 F6000.0
M3 F6000.0
G01 X64.46 Y113.02 F6000.0
M5
G00 X63.97 Y113.11 F6000.0
M3 F6000.0
G01 Y113.02 F6000.0
M5
G00 X63.65 Y113.19 F6000.0
M3 F6000.0
G01 X63.49 Y113.02 F6000.0
M5
G00 X63.57 Y112.28 F6000.0
M3 F6000.0
G01 X63.65 F6000.0
M5
G00 X63.89 Y112.36 F6000.0
M3 F6000.0
G01 X64.05 F6000.0
M5
G00 X64.21 Y112.36 F6000.0
M3 F6000.0
G01 X64.29 F6000.0
M5
G00 X64.62 Y112.36 F6000.0
M3 F6000.0
G01 X64.7 F6000.0
M5
G00 X63.33 Y112.28 F6000.0
M3 F6000.0
G01 X63.41 F6000.0
M5
G00 X63.09 Y112.28 F6000.0
M3 F6000.0
G01 X63.17 F6000.0
M5
G00 X62.84 Y112.28 F6000.0
M3 F6000.0
G01 X62.92 F6000.0
M5
G00 X62.36 Y112.28 F6000.0
M3 F6000.0
G01 X62.68 F6000.0
M5
G00 X61.72 Y112.19 F6000.0
M3 F6000.0
G01 X62.2 F6000.0
M5
G00 X61.39 Y112.19 F6000.0
M3 F6000.0
G01 X61.48 F6000.0
M5
G00 X60.91 Y112.19 F6000.0
M3 F6000.0
G01 X61.15 F6000.0
M5
G00 X60.59 Y112.19 F6000.0
M3 F6000.0
G01 X60.67 F6000.0
M5
G00 X59.86 Y112.53 F6000.0
M3 F6000.0
G01 X60.27 Y112.36 F6000.0
M5
G00 X59.22 Y112.53 F6000.0
M3 F6000.0
G01 X59.54 F6000.0
M5
G00 X58.66 Y112.53 F6000.0
M3 F6000.0
G01 X58.98 F6000.0
M5
G00 X58.33 Y112.53 F6000.0
M3 F6000.0
G01 X58.49 F6000.0
M5
G00 X57.69 Y112.61 F6000.0
M3 F6000.0
G01 X57.93 F6000.0
M5
G00 X56.32 Y112.61 F6000.0
M3 F6000.0
G01 X56.42 F6000.0
G01 X57.53 F6000.0
M5
G00 X56.16 Y112.86 F6000.0
M3 F6000.0
G01 X56.24 F6000.0
M5
G00 X55.59 Y112.69 F6000.0
M3 F6000.0
G01 X55.92 Y112.86 F6000.0
G01 X56.16 Y112.69 F6000.0
M5
G00 X59.3 Y113.94 F6000.0
M3 F6000.0
G01 X59.18 Y113.65 F6000.0
G01 X58.93 Y113.44 F6000.0
G01 X58.17 Y113.19 F6000.0
G01 X57.86 Y113.13 F6000.0
G01 X56.56 Y112.86 F6000.0
M5
G00 X59.7 Y114.77 F6000.0
M3 F6000.0
G01 X59.38 Y114.27 F6000.0
M5
G00 X59.94 Y114.94 F6000.0
M3 F6000.0
G01 X59.95 F6000.0
G01 X60.91 Y115.27 F6000.0
M5
G00 X61.23 Y115.19 F6000.0
M3 F6000.0
G01 Y115.02 F6000.0
M5
G00 X61.48 Y115.69 F6000.0
M3 F6000.0
G01 X61.07 Y115.19 F6000.0
M5
G00 X61.64 Y115.85 F6000.0
M3 F6000.0
G01 X61.8 F6000.0
M5
G00 X61.96 Y116.1 F6000.0
M3 F6000.0
G01 X62.04 F6000.0
M5
G00 X62.28 Y116.19 F6000.0
M3 F6000.0
G01 X62.44 F6000.0
M5
G00 X62.6 Y116.27 F6000.0
M3 F6000.0
G01 X63.45 Y116.23 F6000.0
G01 X64.2 Y115.84 F6000.0
G01 X64.72 Y115.19 F6000.0
G01 X65.22 Y115.06 F6000.0
G01 X65.75 Y114.96 F6000.0
G01 X65.79 Y114.92 F6000.0
G01 X66.63 Y114.27 F6000.0
M5
G00 X66.95 Y114.44 F6000.0
M3 F6000.0
G01 X66.87 Y114.35 F6000.0
M5
G00 X66.95 Y115.35 F6000.0
M3 F6000.0
G01 X67.44 Y114.69 F6000.0
M5
G00 X66.87 Y115.52 F6000.0
M3 F6000.0
G01 X66.94 Y115.63 F6000.0
G01 X67.52 Y116.6 F6000.0
M5
G00 X67.76 Y116.77 F6000.0
M3 F6000.0
G01 X68.0 F6000.0
M5
G00 X67.36 Y121.34 F6000.0
M3 F6000.0
G01 X67.25 Y121.19 F6000.0
G01 X66.6 Y120.19 F6000.0
G01 X66.56 Y120.05 F6000.0
G01 X66.32 Y118.94 F6000.0
G01 X66.39 Y118.34 F6000.0
G01 X66.64 Y117.79 F6000.0
G01 X67.06 Y117.31 F6000.0
G01 X67.68 Y116.93 F6000.0
M5
G00 X67.6 Y121.76 F6000.0
M3 F6000.0
G01 X67.81 Y121.88 F6000.0
G01 X68.89 Y122.49 F6000.0
G01 X69.6 Y122.63 F6000.0
G01 X70.34 Y122.51 F6000.0
M5
G00 X70.58 Y122.34 F6000.0
M3 F6000.0
G01 X71.22 Y122.01 F6000.0
M5
G00 X71.47 Y122.01 F6000.0
M3 F6000.0
G01 X71.55 F6000.0
M5
G00 X71.3 Y122.51 F6000.0
M3 F6000.0
G01 X71.47 Y122.26 F6000.0
M5
G00 X71.14 Y123.26 F6000.0
M3 F6000.0
G01 Y122.76 F6000.0
M5
G00 X73.08 Y126.5 F6000.0
M3 F6000.0
G01 X72.48 Y125.91 F6000.0
G01 X71.93 Y125.13 F6000.0
G01 X71.76 Y124.77 F6000.0
G01 X71.14 Y123.51 F6000.0
M5
G00 X66.23 Y111.19 F6000.0
M3 F6000.0
G01 X67.03 Y111.11 F6000.0
M5
G00 X64.21 Y106.78 F6000.0
M3 F6000.0
G01 X64.13 Y106.62 F6000.0
M5
G00 X63.73 Y106.87 F6000.0
M3 F6000.0
G01 X63.97 Y106.78 F6000.0
M5
G00 X63.57 Y106.62 F6000.0
M3 F6000.0
G01 X63.65 F6000.0
M5
G00 X63.33 Y106.62 F6000.0
M3 F6000.0
G01 X63.41 Y106.53 F6000.0
M5
G00 X63.25 Y106.95 F6000.0
M3 F6000.0
G01 X63.33 F6000.0
M5
G00 X62.84 Y107.03 F6000.0
M3 F6000.0
G01 X63.09 F6000.0
M5
G00 X62.84 Y106.53 F6000.0
M3 F6000.0
G01 X62.92 F6000.0
M5
G00 X62.6 Y106.53 F6000.0
M3 F6000.0
G01 X62.68 F6000.0
M5
G00 X62.44 Y107.03 F6000.0
M3 F6000.0
G01 X62.68 F6000.0
M5
G00 X61.88 Y106.37 F6000.0
M3 F6000.0
G01 X61.96 F6000.0
M5
G00 X61.64 Y107.62 F6000.0
M3 F6000.0
G01 X62.28 Y107.03 F6000.0
M5
G00 X60.91 Y108.12 F6000.0
M3 F6000.0
G01 X61.15 Y107.7 F6000.0
M5
G00 X60.43 Y108.28 F6000.0
M3 F6000.0
G01 X60.75 Y108.2 F6000.0
M5
G00 X59.78 Y108.28 F6000.0
M3 F6000.0
G01 X59.94 F6000.0
M5
G00 X59.46 Y108.03 F6000.0
M3 F6000.0
G01 X59.38 Y107.87 F6000.0
M5
G00 X58.41 Y107.78 F6000.0
M3 F6000.0
G01 X58.98 F6000.0
M5
G00 X58.25 Y107.78 F6000.0
M3 F6000.0
G01 X57.69 Y107.28 F6000.0
M5
G00 X57.61 Y106.53 F6000.0
M3 F6000.0
G01 X57.69 F6000.0
M5
G00 X57.85 Y106.45 F6000.0
M3 F6000.0
G01 X58.41 F6000.0
M5
G00 X58.57 Y106.45 F6000.0
M3 F6000.0
G01 X58.73 F6000.0
M5
G00 X58.98 Y106.45 F6000.0
M3 F6000.0
G01 X59.06 F6000.0
M5
G00 X59.7 Y106.45 F6000.0
M3 F6000.0
G01 Y106.28 F6000.0
M5
G00 X57.37 Y106.53 F6000.0
M3 F6000.0
G01 X57.45 F6000.0
M5
G00 X56.8 Y106.87 F6000.0
M3 F6000.0
G01 X57.12 Y106.95 F6000.0
M5
G00 X56.48 Y106.78 F6000.0
M3 F6000.0
G01 X56.64 Y106.87 F6000.0
M5
G00 X56.48 Y106.53 F6000.0
M3 F6000.0
G01 X57.2 F6000.0
M5
G00 X57.12 Y102.38 F6000.0
M3 F6000.0
G01 Y102.29 F6000.0
M5
G00 X56.88 Y102.38 F6000.0
M3 F6000.0
G01 X56.96 F6000.0
M5
G00 X56. Y102.38 F6000.0
M3 F6000.0
G01 X56.64 F6000.0
M5
G00 X55.84 Y102.46 F6000.0
M3 F6000.0
G01 Y102.38 F6000.0
M5
G00 X55.11 Y102.46 F6000.0
M3 F6000.0
G01 X55.67 Y102.38 F6000.0
M5
G00 X53.9 Y102.62 F6000.0
M3 F6000.0
G01 X54.87 Y102.46 F6000.0
M5
G00 X55.51 Y100.54 F6000.0
M3 F6000.0
G01 X55.67 F6000.0
M5
G00 X56.56 Y100.79 F6000.0
M3 F6000.0
G01 X56.48 Y100.71 F6000.0
M5
G00 X56.8 Y100.79 F6000.0
M3 F6000.0
G01 X56.88 F6000.0
M5
G00 X57.04 Y100.88 F6000.0
M3 F6000.0
G01 X57.12 F6000.0
M5
G00 X57.93 Y101.04 F6000.0
M3 F6000.0
G01 X58.01 F6000.0
M5
G00 X58.17 Y101.13 F6000.0
M3 F6000.0
G01 X58.25 F6000.0
M5
G00 X58.66 Y101.29 F6000.0
M3 F6000.0
G01 X58.82 Y101.38 F6000.0
M5
G00 X58.98 Y101.46 F6000.0
M3 F6000.0
G01 X59.46 Y101.63 F6000.0
M5
G00 X59.94 Y101.88 F6000.0
M3 F6000.0
G01 X60.59 Y102.04 F6000.0
M5
G00 X60.75 Y102.12 F6000.0
M3 F6000.0
G01 X60.93 Y102.19 F6000.0
G01 X62.04 Y102.62 F6000.0
M5
G00 X62.36 Y102.71 F6000.0
M3 F6000.0
G01 X62.76 Y102.79 F6000.0
M5
G00 X63.17 Y102.87 F6000.0
M3 F6000.0
G01 X63.97 Y103.21 F6000.0
M5
G00 X64.21 Y103.29 F6000.0
M3 F6000.0
G01 X64.34 Y103.34 F6000.0
G01 X65.42 Y103.71 F6000.0
M5
G00 X65.66 Y103.79 F6000.0
M3 F6000.0
G01 X66.09 Y103.95 F6000.0
G01 X67.03 Y104.29 F6000.0
G01 X68.4 Y104.79 F6000.0
M5
G00 X68.56 Y104.79 F6000.0
M3 F6000.0
G01 X68.81 Y104.87 F6000.0
M5
G00 X68.97 Y104.95 F6000.0
M3 F6000.0
G01 X69.21 Y105.04 F6000.0
M5
G00 X69.45 Y105.12 F6000.0
M3 F6000.0
G01 X69.85 Y105.29 F6000.0
M5
G00 X70.18 Y105.37 F6000.0
M3 F6000.0
G01 X70.34 Y105.45 F6000.0
M5
G00 X70.58 Y105.54 F6000.0
M3 F6000.0
G01 X70.98 Y105.7 F6000.0
M5
G00 X71.14 Y105.7 F6000.0
M3 F6000.0
G01 X71.71 Y105.95 F6000.0
M5
G00 X71.87 Y106.03 F6000.0
M3 F6000.0
G01 X72.11 Y106.12 F6000.0
M5
G00 X72.35 Y106.2 F6000.0
M3 F6000.0
G01 X72.67 Y106.28 F6000.0
M5
G00 X72.83 Y106.37 F6000.0
M3 F6000.0
G01 X73.24 Y106.45 F6000.0
M5
G00 X73.48 Y106.53 F6000.0
M3 F6000.0
G01 X74.04 Y106.7 F6000.0
M5
G00 X74.2 Y106.78 F6000.0
M3 F6000.0
G01 X74.85 Y107.03 F6000.0
M5
G00 X75.09 Y107.12 F6000.0
M3 F6000.0
G01 X75.49 Y107.28 F6000.0
M5
G00 X75.73 Y107.37 F6000.0
M3 F6000.0
G01 X76.14 Y107.53 F6000.0
M5
G00 X77.27 Y107.95 F6000.0
M3 F6000.0
G01 X77.25 Y107.94 F6000.0
G01 X76.3 Y107.62 F6000.0
M5
G00 X77.43 Y107.95 F6000.0
M3 F6000.0
G01 X77.59 F6000.0
M5
G00 X77.75 Y107.95 F6000.0
M3 F6000.0
G01 X77.8 Y107.96 F6000.0
G01 X78.8 Y108.28 F6000.0
M5
G00 X78.96 Y108.28 F6000.0
M3 F6000.0
G01 X79.31 Y108.33 F6000.0
G01 X80.65 Y108.53 F6000.0
M5
G00 X80.97 Y108.45 F6000.0
M3 F6000.0
G01 X81.29 F6000.0
M5
G00 X81.45 Y108.37 F6000.0
M3 F6000.0
G01 X81.76 Y108.33 F6000.0
G01 X83.07 Y108.2 F6000.0
M5
G00 X83.39 Y108.2 F6000.0
M3 F6000.0
G01 X83.55 F6000.0
M5
G00 X83.71 Y108.12 F6000.0
M3 F6000.0
G01 X83.95 Y108.03 F6000.0
M5
G00 X84.19 Y108.03 F6000.0
M3 F6000.0
G01 X84.68 Y107.87 F6000.0
M5
G00 X84.84 Y107.87 F6000.0
M3 F6000.0
G01 X84.92 F6000.0
M5
G00 X84.11 Y104.62 F6000.0
M3 F6000.0
G01 X84.52 Y104.45 F6000.0
M5
G00 X84.52 Y103.87 F6000.0
M3 F6000.0
G01 X84.84 Y103.95 F6000.0
M5
G00 X83.87 Y103.79 F6000.0
M3 F6000.0
G01 X84.28 Y103.87 F6000.0
M5
G00 X83.71 Y103.87 F6000.0
M3 F6000.0
G01 X83.07 Y103.71 F6000.0
M5
G00 X82.91 Y104.12 F6000.0
M3 F6000.0
G01 X82.7 Y103.77 F6000.0
G01 X82.34 Y103.62 F6000.0
M5
G00 X82.34 Y103.95 F6000.0
M3 F6000.0
G01 Y103.87 F6000.0
M5
G00 X81.94 Y103.54 F6000.0
M3 F6000.0
G01 X82.18 F6000.0
M5
G00 X81.7 Y103.54 F6000.0
M3 F6000.0
G01 X81.78 F6000.0
M5
G00 X81.45 Y103.54 F6000.0
M3 F6000.0
G01 Y103.46 F6000.0
M5
G00 X81.21 Y103.79 F6000.0
M3 F6000.0
G01 X81.13 Y103.71 F6000.0
M5
G00 X80.97 Y103.46 F6000.0
M3 F6000.0
G01 X81.13 F6000.0
M5
G00 X80.65 Y103.54 F6000.0
M3 F6000.0
G01 X80.81 Y103.37 F6000.0
M5
G00 X80.49 Y103.37 F6000.0
M3 F6000.0
G01 X80.57 F6000.0
M5
G00 X80.17 Y103.62 F6000.0
M3 F6000.0
G01 X80.65 Y103.79 F6000.0
M5
G00 X80.81 Y103.87 F6000.0
M3 F6000.0
G01 X80.97 Y104.04 F6000.0
M5
G00 X81.13 Y104.12 F6000.0
M3 F6000.0
G01 X81.45 Y104.04 F6000.0
M5
G00 X80. Y103.21 F6000.0
M3 F6000.0
G01 X80.33 Y103.29 F6000.0
M5
G00 X79.6 Y103.21 F6000.0
M3 F6000.0
G01 X79.76 F6000.0
M5
G00 X78.88 Y103.62 F6000.0
M3 F6000.0
G01 X79.28 Y103.21 F6000.0
M5
G00 X78.47 Y103.04 F6000.0
M3 F6000.0
G01 X78.88 F6000.0
M5
G00 X78.39 Y103.46 F6000.0
M3 F6000.0
G01 X78.47 F6000.0
M5
G00 X77.83 Y102.87 F6000.0
M3 F6000.0
G01 X78.15 Y102.96 F6000.0
M5
G00 X77.35 Y102.87 F6000.0
M3 F6000.0
G01 X77.67 F6000.0
M5
G00 X76.54 Y102.96 F6000.0
M3 F6000.0
G01 X76.86 Y103.12 F6000.0
M5
G00 X76.38 Y103.12 F6000.0
M3 F6000.0
G01 X76.54 F6000.0
M5
G00 X75.73 Y103.46 F6000.0
M3 F6000.0
G01 X75.98 Y103.29 F6000.0
M5
G00 X75.17 Y103.29 F6000.0
M3 F6000.0
G01 Y103.21 F6000.0
M5
G00 X74.69 Y103.54 F6000.0
M3 F6000.0
G01 X74.77 Y103.46 F6000.0
M5
G00 X74.61 Y103.87 F6000.0
M3 F6000.0
G01 X74.69 F6000.0
M5
G00 X74.85 Y103.95 F6000.0
M3 F6000.0
G01 X74.93 Y103.87 F6000.0
M5
G00 X74.53 Y104.04 F6000.0
M3 F6000.0
G01 X74.61 F6000.0
M5
G00 X74.36 Y104.12 F6000.0
M3 F6000.0
G01 Y104.04 F6000.0
M5
G00 X74.28 Y103.87 F6000.0
M3 F6000.0
G01 X74.36 F6000.0
M5
G00 X73.64 Y103.12 F6000.0
M3 F6000.0
G01 X73.56 Y103.04 F6000.0
M5
G00 X73.4 Y102.96 F6000.0
M3 F6000.0
G01 Y102.87 F6000.0
M5
G00 X72.83 Y103.21 F6000.0
M3 F6000.0
G01 X72.35 Y102.62 F6000.0
M5
G00 X72.75 Y102.46 F6000.0
M3 F6000.0
G01 X72.83 Y102.38 F6000.0
M5
G00 X72.67 Y102.04 F6000.0
M3 F6000.0
G01 Y101.96 F6000.0
M5
G00 X72.83 Y101.96 F6000.0
M3 F6000.0
G01 X73.32 Y102.12 F6000.0
M5
G00 X73.48 Y102.21 F6000.0
M3 F6000.0
G01 X73.56 F6000.0
M5
G00 X73.72 Y102.29 F6000.0
M3 F6000.0
G01 X73.96 F6000.0
M5
G00 X73.96 Y102.04 F6000.0
M3 F6000.0
G01 X74.04 F6000.0
M5
G00 X75.17 Y102.46 F6000.0
M3 F6000.0
G01 X74.36 Y102.21 F6000.0
M5
G00 X75.33 Y102.46 F6000.0
M3 F6000.0
G01 X75.77 Y102.54 F6000.0
G01 X77.19 Y102.79 F6000.0
M5
G00 X73.24 Y103.62 F6000.0
M3 F6000.0
G01 X73.0 Y103.29 F6000.0
M5
G00 X71.95 Y102.46 F6000.0
M3 F6000.0
G01 X72.19 F6000.0
M5
G00 X71.63 Y102.21 F6000.0
M3 F6000.0
G01 X71.55 Y101.96 F6000.0
M5
G00 X71.79 Y101.79 F6000.0
M3 F6000.0
G01 X71.3 Y101.54 F6000.0
M5
G00 X71.95 Y101.71 F6000.0
M3 F6000.0
G01 X72.11 Y101.79 F6000.0
M5
G00 X70.42 Y101.88 F6000.0
M3 F6000.0
G01 X70.66 Y101.71 F6000.0
M5
G00 X70.18 Y101.96 F6000.0
M3 F6000.0
G01 X70.42 Y101.71 F6000.0
M5
G00 X70.26 Y101.29 F6000.0
M3 F6000.0
G01 X70.5 Y101.38 F6000.0
M5
G00 X69.85 Y101.13 F6000.0
M3 F6000.0
G01 X70.09 Y101.21 F6000.0
M5
G00 X69.53 Y101.88 F6000.0
M3 F6000.0
G01 X69.45 Y101.79 F6000.0
M5
G00 X69.13 Y101.71 F6000.0
M3 F6000.0
G01 Y101.63 F6000.0
M5
G00 X68.81 Y101.46 F6000.0
M3 F6000.0
G01 X68.97 Y101.54 F6000.0
M5
G00 X68.64 Y101.29 F6000.0
M3 F6000.0
G01 X68.4 Y101.04 F6000.0
M5
G00 X68.48 Y100.79 F6000.0
M3 F6000.0
G01 X68.97 Y100.96 F6000.0
M5
G00 X69.13 Y100.96 F6000.0
M3 F6000.0
G01 X69.61 Y101.13 F6000.0
M5
G00 X67.03 Y100.88 F6000.0
M3 F6000.0
G01 X66.87 Y100.71 F6000.0
M5
G00 X66.23 Y100.21 F6000.0
M3 F6000.0
G01 X66.51 Y100.29 F6000.0
G01 X67.76 Y100.63 F6000.0
M5
G00 X67.44 Y98.71 F6000.0
M3 F6000.0
G01 X67.76 Y98.55 F6000.0
M5
G00 X68. Y98.55 F6000.0
M3 F6000.0
G01 X68.08 Y98.46 F6000.0
M5
G00 X68.32 Y98.3 F6000.0
M3 F6000.0
G01 X68.89 Y97.88 F6000.0
M5
G00 X69.05 Y97.8 F6000.0
M3 F6000.0
G01 Y97.72 F6000.0
M5
G00 X69.29 Y97.47 F6000.0
M3 F6000.0
G01 X69.37 F6000.0
M5
G00 X69.45 Y97.63 F6000.0
M3 F6000.0
G01 X70.26 F6000.0
M5
G00 X69.69 Y98.05 F6000.0
M3 F6000.0
G01 X69.45 Y97.88 F6000.0
M5
G00 X68.81 Y97.38 F6000.0
M3 F6000.0
G01 X69.05 F6000.0
M5
G00 X68.56 Y97.38 F6000.0
M3 F6000.0
G01 X67.68 Y97.22 F6000.0
M5
G00 X67.36 Y97.55 F6000.0
M3 F6000.0
G01 X67.44 F6000.0
M5
G00 X67.11 Y96.97 F6000.0
M3 F6000.0
G01 X67.36 Y97.05 F6000.0
M5
G00 X66.79 Y96.97 F6000.0
M3 F6000.0
G01 X66.87 F6000.0
M5
G00 X66.55 Y96.97 F6000.0
M3 F6000.0
G01 X66.63 Y96.88 F6000.0
M5
G00 X66.31 Y96.8 F6000.0
M3 F6000.0
G01 X66.23 Y96.72 F6000.0
M5
G00 X65.91 Y96.72 F6000.0
M3 F6000.0
G01 X65.99 F6000.0
M5
G00 X65.02 Y97.3 F6000.0
M3 F6000.0
G01 X65.5 Y97.72 F6000.0
M5
G00 X64.86 Y97.13 F6000.0
M3 F6000.0
G01 X64.7 Y96.63 F6000.0
M5
G00 X64.78 Y96.47 F6000.0
M3 F6000.0
G01 X65.75 Y96.63 F6000.0
M5
G00 X64.46 Y96.38 F6000.0
M3 F6000.0
G01 X64.54 F6000.0
M5
G00 X64.38 Y96.55 F6000.0
M3 F6000.0
G01 X64.62 Y96.72 F6000.0
M5
G00 X63.09 Y96.38 F6000.0
M3 F6000.0
G01 X63.33 F6000.0
M5
G00 X63.09 Y96.05 F6000.0
M3 F6000.0
G01 X63.21 Y96.09 F6000.0
G01 X64.29 Y96.38 F6000.0
M5
G00 X62.68 Y96.47 F6000.0
M3 F6000.0
G01 X62.92 F6000.0
M5
G00 X62.6 Y96.3 F6000.0
M3 F6000.0
G01 X62.68 Y96.22 F6000.0
M5
G00 X62.36 Y96.3 F6000.0
M3 F6000.0
G01 X62.44 Y96.22 F6000.0
M5
G00 X62.36 Y95.88 F6000.0
M3 F6000.0
G01 X62.76 Y95.97 F6000.0
M5
G00 X61.8 Y95.72 F6000.0
M3 F6000.0
G01 X62.2 Y95.8 F6000.0
M5
G00 X61.48 Y95.72 F6000.0
M3 F6000.0
G01 Y95.64 F6000.0
M5
G00 X60.91 Y95.55 F6000.0
M3 F6000.0
G01 X61.07 Y95.64 F6000.0
M5
G00 X60.99 Y96.05 F6000.0
M3 F6000.0
G01 X61.15 Y95.97 F6000.0
M5
G00 X60.59 Y96.3 F6000.0
M3 F6000.0
G01 X60.75 Y96.05 F6000.0
M5
G00 X60.51 Y95.47 F6000.0
M3 F6000.0
G01 X60.67 Y95.55 F6000.0
M5
G00 X59.94 Y95.39 F6000.0
M3 F6000.0
G01 X60.1 F6000.0
M5
G00 X59.14 Y95.22 F6000.0
M3 F6000.0
G01 X59.62 Y95.3 F6000.0
M5
G00 X59.62 Y96.47 F6000.0
M3 F6000.0
G01 X59.86 Y96.38 F6000.0
M5
G00 X60.27 Y96.47 F6000.0
M3 F6000.0
G01 X60.35 Y96.38 F6000.0
M5
G00 X61.48 Y96.55 F6000.0
M3 F6000.0
G01 X61.39 Y96.47 F6000.0
M5
G00 X60.75 Y98.71 F6000.0
M3 F6000.0
G01 X60.79 Y98.72 F6000.0
G01 X61.8 Y98.96 F6000.0
M5
G00 X61.96 Y99.05 F6000.0
M3 F6000.0
G01 X62.2 Y99.12 F6000.0
G01 X63.41 Y99.46 F6000.0
M5
G00 X63.57 Y99.55 F6000.0
M3 F6000.0
G01 X63.65 F6000.0
M5
G00 X63.81 Y99.55 F6000.0
M3 F6000.0
G01 X64.05 Y99.63 F6000.0
M5
G00 X64.21 Y99.71 F6000.0
M3 F6000.0
G01 X64.34 Y99.75 F6000.0
G01 X65.42 Y100.05 F6000.0
M5
G00 X65.58 Y100.13 F6000.0
M3 F6000.0
G01 X66.07 Y100.21 F6000.0
M5
G00 X64.29 Y100.13 F6000.0
M3 F6000.0
G01 X64.46 Y100.05 F6000.0
M5
G00 X63.57 Y100.38 F6000.0
M3 F6000.0
G01 X64.05 Y100.05 F6000.0
M5
G00 X63.09 Y100.3 F6000.0
M3 F6000.0
G01 X63.41 F6000.0
M5
G00 X62.12 Y99.71 F6000.0
M3 F6000.0
G01 X62.68 Y100.21 F6000.0
M5
G00 X61.88 Y99.55 F6000.0
M3 F6000.0
G01 X61.8 Y99.46 F6000.0
M5
G00 X61.64 Y99.3 F6000.0
M3 F6000.0
G01 X61.55 Y99.21 F6000.0
M5
G00 X61.31 Y99.13 F6000.0
M3 F6000.0
G01 X61.39 Y99.05 F6000.0
M5
G00 X62.12 Y99.21 F6000.0
M3 F6000.0
G01 X62.2 Y99.13 F6000.0
M5
G00 X60.35 Y99.46 F6000.0
M3 F6000.0
G01 X60.83 Y99.3 F6000.0
M5
G00 X59.86 Y99.21 F6000.0
M3 F6000.0
G01 X59.7 Y99.05 F6000.0
M5
G00 X59.38 Y98.8 F6000.0
M3 F6000.0
G01 X59.46 F6000.0
M5
G00 X59.22 Y98.71 F6000.0
M3 F6000.0
G01 X59.06 Y98.55 F6000.0
M5
G00 X58.9 Y98.3 F6000.0
M3 F6000.0
G01 X58.25 Y97.97 F6000.0
M5
G00 X58.09 Y97.88 F6000.0
M3 F6000.0
G01 X58.01 Y97.8 F6000.0
M5
G00 X57.12 Y97.47 F6000.0
M3 F6000.0
G01 X57.85 Y97.8 F6000.0
M5
G00 X57.04 Y97.72 F6000.0
M3 F6000.0
G01 X57.12 Y97.63 F6000.0
M5
G00 X56.72 Y97.8 F6000.0
M3 F6000.0
G01 X56.8 Y97.72 F6000.0
M5
G00 X56.64 Y97.22 F6000.0
M3 F6000.0
G01 X56.88 Y97.3 F6000.0
M5
G00 X56.32 Y97.22 F6000.0
M3 F6000.0
G01 Y97.13 F6000.0
M5
G00 X55.84 Y97.05 F6000.0
M3 F6000.0
G01 X56.16 Y97.13 F6000.0
M5
G00 X55.67 Y97.05 F6000.0
M3 F6000.0
G01 Y96.97 F6000.0
M5
G00 X55.43 Y97.55 F6000.0
M3 F6000.0
G01 X55.59 Y97.63 F6000.0
M5
G00 X56.16 Y97.63 F6000.0
M3 F6000.0
G01 X56.56 Y97.72 F6000.0
M5
G00 X54.79 Y96.8 F6000.0
M3 F6000.0
G01 X55.27 Y96.88 F6000.0
M5
G00 X54.63 Y97.05 F6000.0
M3 F6000.0
G01 X54.95 Y97.22 F6000.0
M5
G00 X54.38 Y96.72 F6000.0
M3 F6000.0
G01 X53.58 Y96.47 F6000.0
M5
G00 X53.02 Y96.55 F6000.0
M3 F6000.0
G01 Y96.47 F6000.0
M5
G00 X52.77 Y96.22 F6000.0
M3 F6000.0
G01 X52.85 F6000.0
M5
G00 X52.53 Y96.88 F6000.0
M3 F6000.0
G01 X52.61 F6000.0
M5
G00 X53.42 Y97.13 F6000.0
M3 F6000.0
G01 X53.02 Y96.97 F6000.0
M5
G00 X53.66 Y97.22 F6000.0
M3 F6000.0
G01 X53.74 Y97.13 F6000.0
M5
G00 X53.66 Y95.14 F6000.0
M3 F6000.0
G01 X53.13 Y94.78 F6000.0
G01 X52.59 Y94.22 F6000.0
G01 X52.58 Y94.21 F6000.0
G01 X52.04 Y93.34 F6000.0
G01 X52.03 Y93.32 F6000.0
G01 X51.61 Y92.39 F6000.0
G01 X51.59 Y92.32 F6000.0
G01 X51.29 Y91.37 F6000.0
G01 X50.96 Y90.34 F6000.0
G01 X50.94 Y90.27 F6000.0
G01 X50.74 Y89.29 F6000.0
G01 X50.52 Y88.23 F6000.0
G01 Y88.18 F6000.0
G01 X50.4 Y87.19 F6000.0
G01 X50.28 Y86.15 F6000.0
G01 X50.12 Y85.32 F6000.0
G01 X50.11 Y85.33 F6000.0
G01 X49.81 Y86.28 F6000.0
G01 X49.8 Y86.39 F6000.0
G01 X49.64 Y87.48 F6000.0
G01 X49.62 Y87.65 F6000.0
G01 X49.52 Y88.64 F6000.0
G01 X49.4 Y89.81 F6000.0
G01 X49.39 Y89.97 F6000.0
G01 X49.35 Y90.97 F6000.0
G01 X49.31 Y92.14 F6000.0
M5
G00 X52.53 Y92.39 F6000.0
M3 F6000.0
G01 Y92.23 F6000.0
G01 Y91.23 F6000.0
G01 X52.52 Y90.08 F6000.0
G01 X52.49 Y89.9 F6000.0
G01 X52.31 Y88.91 F6000.0
G01 X52.09 Y87.75 F6000.0
G01 X51.99 Y87.41 F6000.0
G01 X51.71 Y86.45 F6000.0
G01 X51.16 Y84.53 F6000.0
G01 X50.78 Y83.24 F6000.0
G01 X50.44 Y82.32 F6000.0
G01 X50.39 Y82.17 F6000.0
G01 X49.99 Y81.08 F6000.0
G01 X49.97 Y81.03 F6000.0
G01 X49.17 Y79.19 F6000.0
G01 X48.75 Y78.22 F6000.0
G01 X48.73 Y78.18 F6000.0
G01 X48.21 Y77.33 F6000.0
G01 X47.68 Y76.48 F6000.0
G01 X47.13 Y75.58 F6000.0
M5
G00 X45.92 Y77.42 F6000.0
M3 F6000.0
G01 X45.9 Y77.04 F6000.0
G01 X45.83 Y76.04 F6000.0
G01 X45.76 Y75.04 F6000.0
G01 X45.7 Y74.05 F6000.0
G01 X45.6 Y72.67 F6000.0
M5
G00 X45.52 Y72.17 F6000.0
M3 F6000.0
G01 Y72.09 F6000.0
M5
G00 X45.52 Y71.67 F6000.0
M3 F6000.0
G01 Y71.34 F6000.0
M5
G00 X45.6 Y71.17 F6000.0
M3 F6000.0
G01 X46.0 Y71.25 F6000.0
G01 X47.38 Y71.49 F6000.0
G01 X47.7 Y71.58 F6000.0
G01 X48.99 Y71.92 F6000.0
M5
G00 X49.95 Y72.84 F6000.0
M3 F6000.0
G01 X49.4 Y72.33 F6000.0
G01 X49.16 Y72.06 F6000.0
G01 X49.04 Y71.76 F6000.0
G01 X49.29 Y71.03 F6000.0
G01 X49.71 Y70.34 F6000.0
G01 X49.78 Y70.18 F6000.0
G01 X50.25 Y69.1 F6000.0
G01 X50.29 Y68.92 F6000.0
G01 X50.52 Y67.76 F6000.0
M5
G00 X52.05 Y67.6 F6000.0
M3 F6000.0
G01 X52.17 Y67.15 F6000.0
G01 X52.54 Y65.73 F6000.0
G01 X52.69 Y65.27 F6000.0
G01 X53.15 Y63.85 F6000.0
G01 X53.18 Y63.68 F6000.0
G01 X53.39 Y62.7 F6000.0
G01 X53.59 Y61.72 F6000.0
G01 X53.8 Y60.75 F6000.0
G01 X54.41 Y57.81 F6000.0
G01 X54.62 Y56.83 F6000.0
G01 X54.82 Y55.85 F6000.0
G01 X55.06 Y54.7 F6000.0
G01 X55.09 Y54.56 F6000.0
G01 X55.25 Y53.57 F6000.0
G01 X55.42 Y52.59 F6000.0
G01 X55.61 Y51.46 F6000.0
G01 X55.66 Y51.2 F6000.0
G01 X55.92 Y49.96 F6000.0
M5
G00 X55.51 Y48.96 F6000.0
M3 F6000.0
G01 X55.84 Y48.88 F6000.0
G01 X55.67 Y48.71 F6000.0
M5
G00 X55.84 Y48.88 F6000.0
M3 F6000.0
G01 X56.06 Y48.86 F6000.0
G01 X57.28 Y48.79 F6000.0
G01 X56.96 Y48.55 F6000.0
G01 X57.04 Y48.46 F6000.0
G01 X57.12 F6000.0
G01 X57.2 F6000.0
G01 Y48.63 F6000.0
M5
G00 X57.37 Y48.55 F6000.0
M3 F6000.0
G01 X57.45 Y48.46 F6000.0
M5
G00 X57.37 Y48.3 F6000.0
M3 F6000.0
G01 X57.35 Y47.91 F6000.0
G01 X56.96 Y47.96 F6000.0
G01 X57.61 Y48.71 F6000.0
G01 X58.33 Y48.38 F6000.0
G01 X58.09 Y48.96 F6000.0
M5
G00 X58.25 Y48.96 F6000.0
M3 F6000.0
G01 X58.41 F6000.0
M5
G00 X58.49 Y49.04 F6000.0
M3 F6000.0
G01 X58.9 Y48.55 F6000.0
M5
G00 X58.9 Y48.3 F6000.0
M3 F6000.0
G01 X58.33 Y47.88 F6000.0
G01 X58.48 Y47.71 F6000.0
G01 X59.3 Y46.8 F6000.0
G01 X59.22 Y46.71 F6000.0
G01 X59.12 Y46.81 F6000.0
G01 X58.33 Y47.63 F6000.0
G01 X58.49 Y47.78 F6000.0
G01 X59.38 Y48.63 F6000.0
G01 X59.46 Y48.55 F6000.0
G01 X58.98 F6000.0
G01 Y49.04 F6000.0
G01 X59.38 Y49.46 F6000.0
G01 X58.9 Y50.04 F6000.0
G01 X59.38 Y49.88 F6000.0
G01 X60.02 Y50.46 F6000.0
M5
G00 X60.1 Y50.54 F6000.0
M3 F6000.0
G01 X60.27 F6000.0
M5
G00 X60.27 Y50.71 F6000.0
M3 F6000.0
G01 X60.36 Y50.57 F6000.0
G01 X60.27 Y50.54 F6000.0
M5
G00 X59.94 Y50.21 F6000.0
M3 F6000.0
G01 X60.02 Y50.13 F6000.0
M5
G00 X59.94 Y49.96 F6000.0
M3 F6000.0
G01 X59.95 Y49.5 F6000.0
G01 X60.27 Y49.13 F6000.0
M5
G00 X59.94 Y48.96 F6000.0
M3 F6000.0
G01 X60.27 Y48.79 F6000.0
M5
G00 X60.19 Y48.71 F6000.0
M3 F6000.0
G01 X60.02 Y48.55 F6000.0
M5
G00 X59.94 Y48.71 F6000.0
M3 F6000.0
G01 X59.86 Y48.57 F6000.0
G01 X59.94 Y48.55 F6000.0
M5
G00 X59.78 Y48.79 F6000.0
M3 F6000.0
G01 X60.02 F6000.0
M5
G00 X59.78 Y48.88 F6000.0
M3 F6000.0
G01 X59.54 Y48.55 F6000.0
M5
G00 X59.46 Y48.79 F6000.0
M3 F6000.0
G01 X59.3 Y48.63 F6000.0
M5
G00 X59.22 Y48.3 F6000.0
M3 F6000.0
G01 X58.9 Y47.88 F6000.0
M5
G00 X59.14 Y47.88 F6000.0
M3 F6000.0
G01 X59.46 Y47.71 F6000.0
G01 X59.7 Y47.96 F6000.0
M5
G00 X59.62 Y48.13 F6000.0
M3 F6000.0
G01 X59.7 Y47.96 F6000.0
M5
G00 X59.46 Y47.96 F6000.0
M3 F6000.0
G01 X58.98 Y47.71 F6000.0
M5
G00 X58.9 Y47.38 F6000.0
M3 F6000.0
G01 X59.14 Y47.3 F6000.0
M5
G00 X59.22 Y47.46 F6000.0
M3 F6000.0
G01 X59.46 Y47.21 F6000.0
M5
G00 X59.46 Y47.46 F6000.0
M3 F6000.0
G01 X59.37 Y47.36 F6000.0
G01 X58.57 Y46.55 F6000.0
G01 X58.82 Y46.3 F6000.0
G01 X58.76 Y46.24 F6000.0
G01 X58.01 Y45.47 F6000.0
G01 X57.77 Y45.63 F6000.0
M5
G00 X58.01 Y45.72 F6000.0
M3 F6000.0
G01 X58.25 Y46.05 F6000.0
G01 X57.69 Y46.8 F6000.0
G01 X57.77 Y46.88 F6000.0
G01 X57.93 Y46.96 F6000.0
M5
G00 X58.01 Y47.13 F6000.0
M3 F6000.0
G01 X57.93 Y46.96 F6000.0
M5
G00 X57.61 Y47.05 F6000.0
M3 F6000.0
G01 Y46.96 F6000.0
M5
G00 X57.53 Y46.88 F6000.0
M3 F6000.0
G01 X57.28 Y46.72 F6000.0
M5
G00 X57.2 Y46.88 F6000.0
M3 F6000.0
G01 X57.53 Y47.38 F6000.0
M5
G00 X57.28 Y47.3 F6000.0
M3 F6000.0
G01 X57.62 Y47.81 F6000.0
G01 X57.93 Y48.02 F6000.0
G01 X58.17 Y48.05 F6000.0
M5
G00 X57.77 Y48.13 F6000.0
M3 F6000.0
G01 Y47.13 F6000.0
G01 X57.89 Y47.32 F6000.0
G01 X57.77 Y47.38 F6000.0
M5
G00 X58.17 Y47.46 F6000.0
M3 F6000.0
G01 X58.41 F6000.0
M5
G00 X58.33 Y47.38 F6000.0
M3 F6000.0
G01 X58.4 Y47.14 F6000.0
G01 X58.66 Y47.21 F6000.0
G01 F6000.0
M5
G00 X58.57 Y46.88 F6000.0
M3 F6000.0
G01 Y46.3 F6000.0
G01 X58.98 Y45.88 F6000.0
G01 X58.58 Y45.53 F6000.0
G01 X58.09 Y45.47 F6000.0
M5
G00 X58.41 Y45.63 F6000.0
M3 F6000.0
G01 X58.25 Y45.55 F6000.0
M5
G00 X58.17 Y45.88 F6000.0
M3 F6000.0
G01 X58.41 Y45.63 F6000.0
G01 X58.66 Y45.88 F6000.0
M5
G00 X58.82 Y45.8 F6000.0
M3 F6000.0
G01 X58.98 Y46.13 F6000.0
G01 X59.14 Y45.97 F6000.0
G01 Y45.8 F6000.0
M5
G00 X59.3 Y45.63 F6000.0
M3 F6000.0
G01 X59.38 Y45.47 F6000.0
M5
G00 X59.54 Y45.38 F6000.0
M3 F6000.0
G01 X59.14 Y44.93 F6000.0
G01 X58.66 Y44.6 F6000.0
G01 X58.25 Y44.72 F6000.0
G01 X57.85 Y44.91 F6000.0
G01 X57.15 Y44.76 F6000.0
G01 X56.56 Y44.3 F6000.0
M5
G00 X56.8 Y44.05 F6000.0
M3 F6000.0
G01 X56.88 Y43.97 F6000.0
M5
G00 X56.72 Y43.22 F6000.0
M3 F6000.0
G01 X57.38 Y42.94 F6000.0
G01 X58.17 Y42.39 F6000.0
G01 X57.45 Y41.81 F6000.0
G01 X57.4 Y42.12 F6000.0
G01 X57.23 Y42.27 F6000.0
G01 X56.98 Y42.25 F6000.0
G01 X56.77 Y42.02 F6000.0
G01 X56.83 Y41.82 F6000.0
G01 X57.08 Y41.72 F6000.0
G01 X57.45 Y41.81 F6000.0
M5
G00 X57.53 Y42.31 F6000.0
M3 F6000.0
G01 X57.61 F6000.0
M5
G00 X57.77 Y42.72 F6000.0
M3 F6000.0
G01 X57.69 Y42.41 F6000.0
G01 X57.77 Y42.14 F6000.0
M5
G00 X58.17 Y42.39 F6000.0
M3 F6000.0
G01 X58.49 Y42.14 F6000.0
M5
G00 X58.73 Y41.56 F6000.0
M3 F6000.0
G01 X59.38 Y41.64 F6000.0
M5
G00 X59.3 Y41.39 F6000.0
M3 F6000.0
G01 X60.02 Y41.14 F6000.0
M5
G00 X60.43 Y41.56 F6000.0
M3 F6000.0
G01 Y41.47 F6000.0
M5
G00 X60.75 Y41.31 F6000.0
M3 F6000.0
G01 Y41.14 F6000.0
M5
G00 X60.83 Y41.31 F6000.0
M3 F6000.0
G01 X61.07 Y41.81 F6000.0
M5
G00 X61.15 Y41.47 F6000.0
M3 F6000.0
G01 X61.31 F6000.0
M5
G00 X61.39 Y41.39 F6000.0
M3 F6000.0
G01 X61.15 Y41.14 F6000.0
M5
G00 X61.07 Y41.31 F6000.0
M3 F6000.0
G01 X60.83 Y41.06 F6000.0
M5
G00 X60.99 Y40.72 F6000.0
M3 F6000.0
G01 X61.15 Y40.64 F6000.0
M5
G00 X61.15 Y40.56 F6000.0
M3 F6000.0
G01 X61.39 Y40.39 F6000.0
M5
G00 X61.39 Y40.31 F6000.0
M3 F6000.0
G01 X61.88 Y40.22 F6000.0
G01 X61.96 Y40.31 F6000.0
M5
G00 X61.96 Y40.39 F6000.0
M3 F6000.0
G01 X62.12 Y40.47 F6000.0
M5
G00 X62.36 Y40.47 F6000.0
M3 F6000.0
G01 X62.6 Y40.31 F6000.0
M5
G00 X62.52 Y40.39 F6000.0
M3 F6000.0
G01 X62.2 Y40.06 F6000.0
G01 X62.44 Y39.81 F6000.0
G01 X62.78 Y40.13 F6000.0
G01 X63.25 Y40.39 F6000.0
M5
G00 X63.17 Y40.31 F6000.0
M3 F6000.0
G01 X62.87 Y40.0 F6000.0
G01 X61.88 Y38.98 F6000.0
G01 X61.31 Y39.73 F6000.0
G01 X61.64 Y40.14 F6000.0
M5
G00 X61.55 Y40.22 F6000.0
M3 F6000.0
G01 X61.39 Y40.06 F6000.0
M5
G00 X61.23 Y40.22 F6000.0
M3 F6000.0
G01 X61.48 Y39.97 F6000.0
M5
G00 X61.8 Y39.97 F6000.0
M3 F6000.0
G01 X61.55 Y39.73 F6000.0
M5
G00 X61.72 Y39.31 F6000.0
M3 F6000.0
G01 X62.04 Y39.64 F6000.0
G01 X62.31 Y39.35 F6000.0
G01 X63.25 Y38.31 F6000.0
G01 X63.45 Y38.56 F6000.0
G01 X63.33 F6000.0
M5
G00 X63.33 Y38.64 F6000.0
M3 F6000.0
G01 X63.27 Y38.59 F6000.0
G01 X62.44 Y37.89 F6000.0
G01 X62.68 Y38.23 F6000.0
M5
G00 X62.76 Y38.31 F6000.0
M3 F6000.0
G01 X62.92 F6000.0
M5
G00 X62.92 Y38.48 F6000.0
M3 F6000.0
G01 X63.25 Y38.06 F6000.0
M5
G00 X63.09 Y37.98 F6000.0
M3 F6000.0
G01 X63.01 Y37.81 F6000.0
M5
G00 X63.01 Y37.73 F6000.0
M3 F6000.0
G01 X63.17 Y37.56 F6000.0
M5
G00 X63.01 Y37.48 F6000.0
M3 F6000.0
G01 X62.94 Y37.39 F6000.0
G01 X62.28 Y36.48 F6000.0
M5
G00 X62.28 Y36.4 F6000.0
M3 F6000.0
G01 X62.36 Y35.98 F6000.0
G01 X62.76 Y36.4 F6000.0
G01 X62.77 Y36.39 F6000.0
G01 X63.45 Y35.65 F6000.0
G01 X64.13 Y34.9 F6000.0
G01 X64.05 Y34.82 F6000.0
G01 Y35.57 F6000.0
G01 X64.29 Y35.32 F6000.0
G01 X64.05 Y35.4 F6000.0
M5
G00 X63.65 Y35.48 F6000.0
M3 F6000.0
G01 X63.47 Y34.94 F6000.0
G01 X63.65 Y34.4 F6000.0
M5
G00 X63.57 Y34.23 F6000.0
M3 F6000.0
G01 X63.81 Y33.73 F6000.0
M5
G00 X63.65 Y33.82 F6000.0
M3 F6000.0
G01 X63.41 Y33.57 F6000.0
G01 X63.65 Y33.24 F6000.0
M5
G00 X63.65 Y33.24 F6000.0
M3 F6000.0
G01 X63.21 Y32.62 F6000.0
G01 X63.09 Y31.91 F6000.0
G01 X63.01 Y31.82 F6000.0
G01 Y31.99 F6000.0
M5
G00 X63.17 Y31.91 F6000.0
M3 F6000.0
G01 X63.09 Y31.16 F6000.0
M5
G00 X63.17 Y31.41 F6000.0
M3 F6000.0
G01 X63.49 Y31.07 F6000.0
G01 X63.33 Y30.91 F6000.0
G01 X63.09 Y31.16 F6000.0
M5
G00 X62.92 Y30.91 F6000.0
M3 F6000.0
G01 X63.65 Y30.66 F6000.0
M5
G00 X63.81 Y30.57 F6000.0
M3 F6000.0
G01 X63.97 Y30.41 F6000.0
M5
G00 X64.05 Y30.82 F6000.0
M3 F6000.0
G01 X64.0 Y30.7 F6000.0
G01 X63.57 Y29.66 F6000.0
G01 X63.1 Y30.08 F6000.0
G01 X62.92 Y30.57 F6000.0
M5
G00 X63.01 Y30.74 F6000.0
M3 F6000.0
G01 X63.33 Y30.41 F6000.0
M5
G00 X63.25 Y30.66 F6000.0
M3 F6000.0
G01 X63.17 Y30.57 F6000.0
M5
G00 X62.84 Y30.32 F6000.0
M3 F6000.0
G01 X63.25 F6000.0
M5
G00 X63.09 Y30.16 F6000.0
M3 F6000.0
G01 X63.49 F6000.0
M5
G00 X63.57 Y30.24 F6000.0
M3 F6000.0
G01 X63.81 Y29.99 F6000.0
M5
G00 X63.73 Y29.83 F6000.0
M3 F6000.0
G01 X63.33 F6000.0
M5
G00 X63.09 Y29.91 F6000.0
M3 F6000.0
G01 Y29.49 F6000.0
G01 X63.57 Y29.58 F6000.0
M5
G00 X63.49 Y29.49 F6000.0
M3 F6000.0
G01 X63.25 Y28.91 F6000.0
M5
G00 X63.17 Y29.24 F6000.0
M3 F6000.0
G01 X63.08 Y29.12 F6000.0
G01 X62.44 Y28.16 F6000.0
M5
G00 X61.96 Y28.16 F6000.0
M3 F6000.0
G01 X61.59 Y28.23 F6000.0
G01 X61.39 Y28.49 F6000.0
G01 X61.64 F6000.0
M5
G00 X61.55 Y28.66 F6000.0
M3 F6000.0
G01 X62.12 Y28.24 F6000.0
M5
G00 X61.55 Y28.33 F6000.0
M3 F6000.0
G01 X61.64 Y28.24 F6000.0
M5
G00 X61.55 Y28.08 F6000.0
M3 F6000.0
G01 X61.39 Y27.75 F6000.0
M5
G00 X61.23 Y27.83 F6000.0
M3 F6000.0
G01 X61.48 F6000.0
M5
G00 X61.72 Y27.83 F6000.0
M3 F6000.0
G01 X61.48 Y27.58 F6000.0
M5
G00 X61.39 Y27.25 F6000.0
M3 F6000.0
G01 X61.15 Y27.0 F6000.0
M5
G00 X60.75 Y27.08 F6000.0
M3 F6000.0
G01 X60.99 Y27.16 F6000.0
M5
G00 X60.67 Y27.5 F6000.0
M3 F6000.0
G01 X60.51 Y27.0 F6000.0
M5
G00 X60.67 Y26.58 F6000.0
M3 F6000.0
G01 X60.43 Y26.5 F6000.0
G01 X60.75 Y26.66 F6000.0
M5
G00 X60.35 Y26.41 F6000.0
M3 F6000.0
G01 X60.51 Y26.33 F6000.0
M5
G00 X60.27 Y26.16 F6000.0
M3 F6000.0
G01 X59.86 Y25.5 F6000.0
M5
G00 X59.46 Y25.92 F6000.0
M3 F6000.0
G01 X59.3 Y25.75 F6000.0
M5
G00 X59.22 Y26. F6000.0
M3 F6000.0
G01 X58.82 Y26.33 F6000.0
G01 X58.9 Y26.41 F6000.0
G01 X59.23 Y26.12 F6000.0
G01 X59.62 Y26.08 F6000.0
G01 Y26.16 F6000.0
G01 Y26.25 F6000.0
M5
G00 X59.3 Y26.25 F6000.0
M3 F6000.0
G01 X59.54 Y26.0 F6000.0
M5
G00 X59.14 Y26.41 F6000.0
M3 F6000.0
G01 X58.9 Y26.16 F6000.0
M5
G00 X58.73 Y26.16 F6000.0
M3 F6000.0
G01 X58.9 Y25.33 F6000.0
G01 X59.22 Y25.75 F6000.0
M5
G00 X58.66 Y25.58 F6000.0
M3 F6000.0
G01 X58.98 Y25.5 F6000.0
M5
G00 X58.57 Y25.5 F6000.0
M3 F6000.0
G01 X58.6 Y25.19 F6000.0
G01 X58.82 Y25.0 F6000.0
M5
G00 X58.49 Y25. F6000.0
M3 F6000.0
G01 Y24.42 F6000.0
G01 X58.73 Y24.92 F6000.0
M5
G00 X58.41 Y24.25 F6000.0
M3 F6000.0
G01 Y24.08 F6000.0
M5
G00 X58.66 Y25.92 F6000.0
M3 F6000.0
G01 X58.73 Y25.83 F6000.0
M5
G00 X58.09 Y26.33 F6000.0
M3 F6000.0
G01 X57.93 Y26.08 F6000.0
M5
G00 X57.69 Y26.58 F6000.0
M3 F6000.0
G01 X57.51 Y26.15 F6000.0
G01 X56.94 Y24.8 F6000.0
G01 X56.83 Y24.35 F6000.0
G01 X56.48 Y22.92 F6000.0
M5
G00 X57.85 Y20.17 F6000.0
M3 F6000.0
G01 X57.69 Y19.73 F6000.0
G01 X57.2 Y18.34 F6000.0
M5
G00 X57.12 Y18.18 F6000.0
M3 F6000.0
G01 Y18.04 F6000.0
G01 Y16.9 F6000.0
G01 X57.28 Y16.1 F6000.0
M5
G00 X57.28 Y15.93 F6000.0
M3 F6000.0
G01 Y15.76 F6000.0
M5
G00 X57.04 Y16.01 F6000.0
M3 F6000.0
G01 X57.37 F6000.0
M5
G00 X57.45 Y17.34 F6000.0
M3 F6000.0
G01 Y16.76 F6000.0
M5
G00 X57.28 Y17.51 F6000.0
M3 F6000.0
G01 Y17.43 F6000.0
M5
G00 X58.17 Y17.51 F6000.0
M3 F6000.0
G01 X57.82 Y16.6 F6000.0
G01 X57.45 Y16.01 F6000.0
M5
G00 X57.93 Y18.43 F6000.0
M3 F6000.0
G01 F6000.0
G01 X57.53 Y17.51 F6000.0
M5
G00 X57.85 Y19.18 F6000.0
M3 F6000.0
G01 X57.76 Y18.9 F6000.0
G01 X57.37 Y17.68 F6000.0
M5
G00 X55.67 Y18.43 F6000.0
M3 F6000.0
G01 X55.69 Y18.37 F6000.0
G01 X55.92 Y17.34 F6000.0
M5
G00 X55.43 Y18.76 F6000.0
M3 F6000.0
G01 X55.63 Y17.83 F6000.0
G01 X56.0 Y17.18 F6000.0
G01 Y17.1 F6000.0
G01 X55.84 Y17.18 F6000.0
M5
G00 X55.35 Y19.01 F6000.0
M3 F6000.0
G01 Y18.93 F6000.0
M5
G00 X54.47 Y20.09 F6000.0
M3 F6000.0
G01 X54.51 Y19.93 F6000.0
G01 X54.8 Y18.8 F6000.0
G01 X54.87 Y18.64 F6000.0
G01 X55.32 Y17.56 F6000.0
G01 X55.38 Y17.41 F6000.0
G01 X55.79 Y16.33 F6000.0
G01 X55.81 Y16.16 F6000.0
G01 X56.0 Y15.02 F6000.0
M5
G00 X54.06 Y14.68 F6000.0
M3 F6000.0
G01 X54.14 Y14.6 F6000.0
M5
G00 X53.58 Y14.6 F6000.0
M3 F6000.0
G01 X53.98 Y14.18 F6000.0
M5
G00 X54.3 Y13.93 F6000.0
M3 F6000.0
G01 X54.38 Y13.85 F6000.0
M5
G00 X53.5 Y13.19 F6000.0
M3 F6000.0
G01 X53.58 Y12.94 F6000.0
M5
G00 X52.61 Y13.1 F6000.0
M3 F6000.0
G01 X52.77 Y12.94 F6000.0
M5
G00 X52.45 Y13.02 F6000.0
M3 F6000.0
G01 X52.61 Y12.85 F6000.0
M5
G00 X51.97 Y12.94 F6000.0
M3 F6000.0
G01 Y12.85 F6000.0
M5
G00 X52.29 Y13.44 F6000.0
M3 F6000.0
G01 X52.37 Y13.35 F6000.0
M5
G00 X51.81 Y13.85 F6000.0
M3 F6000.0
G01 X51.89 F6000.0
M5
G00 X51.24 Y14.93 F6000.0
M3 F6000.0
G01 X51.32 F6000.0
M5
G00 X51.48 Y15.1 F6000.0
M3 F6000.0
G01 X51.56 Y14.93 F6000.0
M5
G00 X51.97 Y15.6 F6000.0
M3 F6000.0
G01 X51.89 Y15.51 F6000.0
M5
G00 X51.65 Y15.76 F6000.0
M3 F6000.0
G01 X51.73 Y15.6 F6000.0
M5
G00 X51.56 Y16.1 F6000.0
M3 F6000.0
G01 Y16.01 F6000.0
M5
G00 X50.92 Y15.93 F6000.0
M3 F6000.0
G01 X51.0 F6000.0
M5
G00 X50.92 Y15.68 F6000.0
M3 F6000.0
G01 X51.0 F6000.0
M5
G00 X50.68 Y15.85 F6000.0
M3 F6000.0
G01 X50.76 Y15.76 F6000.0
M5
G00 X50.52 Y15.68 F6000.0
M3 F6000.0
G01 X50.76 Y15.51 F6000.0
M5
G00 X50.68 Y16.01 F6000.0
M3 F6000.0
G01 X50.76 F6000.0
M5
G00 X50.76 Y16.6 F6000.0
M3 F6000.0
G01 X50.2 Y16.1 F6000.0
M5
G00 X50.03 Y15.93 F6000.0
M3 F6000.0
G01 Y15.85 F6000.0
M5
G00 X49.87 Y15.76 F6000.0
M3 F6000.0
G01 X49.55 Y15.6 F6000.0
M5
G00 X49.07 Y15.35 F6000.0
M3 F6000.0
G01 X48.74 Y15.1 F6000.0
M5
G00 X48.42 Y15.02 F6000.0
M3 F6000.0
G01 X48.34 Y14.93 F6000.0
M5
G00 X48.99 Y14.77 F6000.0
M3 F6000.0
G01 X48.91 Y14.68 F6000.0
M5
G00 X49.39 Y14.68 F6000.0
M3 F6000.0
G01 X49.47 F6000.0
M5
G00 X49.87 Y14.77 F6000.0
M3 F6000.0
G01 X50.28 Y14.85 F6000.0
M5
G00 X49.79 Y14.27 F6000.0
M3 F6000.0
G01 X49.87 F6000.0
M5
G00 X49.31 Y14.02 F6000.0
M3 F6000.0
G01 X49.63 Y14.27 F6000.0
M5
G00 X49.07 Y14.02 F6000.0
M3 F6000.0
G01 X49.15 Y13.93 F6000.0
M5
G00 X48.91 Y13.85 F6000.0
M3 F6000.0
G01 X48.74 Y13.68 F6000.0
M5
G00 X49.15 Y13.35 F6000.0
M3 F6000.0
G01 X49.23 F6000.0
M5
G00 X49.47 Y13.6 F6000.0
M3 F6000.0
G01 X49.63 Y13.68 F6000.0
M5
G00 X49.55 Y13.19 F6000.0
M3 F6000.0
G01 X49.47 Y13.1 F6000.0
M5
G00 X49.23 Y12.94 F6000.0
M3 F6000.0
G01 X49.15 Y12.85 F6000.0
M5
G00 X49.39 Y12.52 F6000.0
M3 F6000.0
G01 X49.23 Y12.44 F6000.0
M5
G00 X48.74 Y12.44 F6000.0
M3 F6000.0
G01 X48.83 F6000.0
M5
G00 X48.18 Y12.1 F6000.0
M3 F6000.0
G01 X48.1 Y12.02 F6000.0
M5
G00 X47.38 Y11.85 F6000.0
M3 F6000.0
G01 Y11.77 F6000.0
M5
G00 X47.13 Y12.44 F6000.0
M3 F6000.0
G01 Y12.35 F6000.0
M5
G00 X47.46 Y12.77 F6000.0
M3 F6000.0
G01 Y12.69 F6000.0
M5
G00 X47.7 Y13.02 F6000.0
M3 F6000.0
G01 X47.62 Y12.94 F6000.0
M5
G00 X47.86 Y12.85 F6000.0
M3 F6000.0
G01 Y12.77 F6000.0
M5
G00 X48.1 Y13.35 F6000.0
M3 F6000.0
G01 X47.86 Y13.1 F6000.0
M5
G00 X47.86 Y13.52 F6000.0
M3 F6000.0
G01 Y13.44 F6000.0
M5
G00 X47.3 Y13.19 F6000.0
M3 F6000.0
G01 X47.38 F6000.0
M5
G00 X47.13 Y13.77 F6000.0
M3 F6000.0
G01 X46.97 Y13.6 F6000.0
M5
G00 X46.65 Y13.27 F6000.0
M3 F6000.0
G01 X46.81 Y13.19 F6000.0
M5
G00 X46.81 Y12.85 F6000.0
M3 F6000.0
G01 X46.89 F6000.0
M5
G00 X46.17 Y13.02 F6000.0
M3 F6000.0
G01 X46.09 Y12.94 F6000.0
M5
G00 X45.92 Y12.77 F6000.0
M3 F6000.0
G01 X45.84 Y12.69 F6000.0
M5
G00 X45.68 Y12.94 F6000.0
M3 F6000.0
G01 X45.76 F6000.0
M5
G00 X45.12 Y13.77 F6000.0
M3 F6000.0
G01 Y13.6 F6000.0
M5
G00 X44.96 Y13.85 F6000.0
M3 F6000.0
G01 X45.04 F6000.0
M5
G00 X45.12 Y14.27 F6000.0
M3 F6000.0
G01 X45.04 Y13.85 F6000.0
M5
G00 X44.48 Y13.85 F6000.0
M3 F6000.0
G01 X44.56 F6000.0
M5
G00 X44.31 Y13.77 F6000.0
M3 F6000.0
G01 X44.78 Y13.54 F6000.0
G01 X45.36 Y13.52 F6000.0
M5
G00 X45.84 Y14.1 F6000.0
M3 F6000.0
G01 X46.25 Y13.85 F6000.0
M5
G00 X45.84 Y14.1 F6000.0
M3 F6000.0
G01 X45.44 Y13.85 F6000.0
M5
G00 X45.6 Y14.27 F6000.0
M3 F6000.0
G01 X45.76 F6000.0
M5
G00 X45.52 Y14.35 F6000.0
M3 F6000.0
G01 X45.92 Y13.68 F6000.0
G01 X45.52 Y13.66 F6000.0
G01 X45.44 Y14.02 F6000.0
M5
G00 X45.36 Y14.6 F6000.0
M3 F6000.0
G01 X45.6 Y14.52 F6000.0
M5
G00 X45.68 Y14.85 F6000.0
M3 F6000.0
G01 X45.52 Y14.68 F6000.0
M5
G00 X45.92 Y14.77 F6000.0
M3 F6000.0
G01 X46.09 Y14.6 F6000.0
M5
G00 X46.33 Y14.6 F6000.0
M3 F6000.0
G01 X46.09 F6000.0
G01 X46.26 Y14.76 F6000.0
G01 X46.49 Y14.77 F6000.0
M5
G00 X46.65 Y14.77 F6000.0
M3 F6000.0
G01 X46.73 F6000.0
M5
G00 X46.73 Y14.52 F6000.0
M3 F6000.0
G01 X46.57 Y14.35 F6000.0
M5
G00 X46.89 Y15.26 F6000.0
M3 F6000.0
G01 X47.13 Y15.18 F6000.0
M5
G00 X47.3 Y15.35 F6000.0
M3 F6000.0
G01 X47.13 Y15.51 F6000.0
G01 X47.38 Y15.76 F6000.0
G01 X47.54 Y15.6 F6000.0
M5
G00 X47.05 Y15.51 F6000.0
M3 F6000.0
G01 X47.13 F6000.0
M5
G00 X46.57 Y15.51 F6000.0
M3 F6000.0
G01 X46.25 Y15.35 F6000.0
M5
G00 X45.92 Y15.1 F6000.0
M3 F6000.0
G01 Y15.6 F6000.0
G01 Y15.1 F6000.0
G01 X46.41 Y14.6 F6000.0
M5
G00 X46.57 Y15.76 F6000.0
M3 F6000.0
G01 X46.33 Y15.51 F6000.0
M5
G00 X46.09 Y15.76 F6000.0
M3 F6000.0
G01 X46.1 Y15.75 F6000.0
G01 X46.81 Y15.02 F6000.0
M5
G00 X46.89 Y16.1 F6000.0
M3 F6000.0
G01 X47.21 Y15.93 F6000.0
G01 X46.49 F6000.0
G01 X46.73 Y15.43 F6000.0
M5
G00 X46.33 Y16.01 F6000.0
M3 F6000.0
G01 X46.49 Y15.85 F6000.0
M5
G00 X46.73 Y16.18 F6000.0
M3 F6000.0
G01 X46.75 Y16.16 F6000.0
G01 X47.46 Y15.43 F6000.0
M5
G00 X47.21 Y16.18 F6000.0
M3 F6000.0
G01 X46.97 Y15.93 F6000.0
M5
G00 X46.97 Y16.6 F6000.0
M3 F6000.0
G01 X47.13 F6000.0
M5
G00 X47.13 Y16.93 F6000.0
M3 F6000.0
G01 X47.38 F6000.0
M5
G00 X47.54 Y17.01 F6000.0
M3 F6000.0
G01 X47.86 Y16.85 F6000.0
G01 Y16.93 F6000.0
G01 X47.78 Y17.01 F6000.0
G01 X47.41 Y16.6 F6000.0
G01 X47.33 Y16.37 F6000.0
G01 X47.38 Y16.1 F6000.0
G01 X47.46 Y16.18 F6000.0
G01 X47.13 Y16.6 F6000.0
G01 X47.78 Y16.68 F6000.0
M5
G00 X47.78 Y16.51 F6000.0
M3 F6000.0
G01 Y16.43 F6000.0
M5
G00 X47.7 Y16.35 F6000.0
M3 F6000.0
G01 Y15.76 F6000.0
M5
G00 X48.1 Y16.1 F6000.0
M3 F6000.0
G01 X48.26 F6000.0
M5
G00 X48.34 Y16.43 F6000.0
M3 F6000.0
G01 X48.16 Y15.71 F6000.0
G01 X47.77 Y15.1 F6000.0
G01 X47.43 Y14.8 F6000.0
G01 X46.33 Y13.85 F6000.0
G01 X46.16 Y14.15 F6000.0
G01 X46.17 Y14.35 F6000.0
G01 X46.49 Y14.02 F6000.0
M5
G00 X44.96 Y15.02 F6000.0
M3 F6000.0
G01 X45.0 Y14.98 F6000.0
G01 X45.84 Y14.35 F6000.0
G01 X45.76 Y14.68 F6000.0
M5
G00 X44.64 Y14.85 F6000.0
M3 F6000.0
G01 X44.88 Y14.6 F6000.0
M5
G00 X44.48 Y14.1 F6000.0
M3 F6000.0
G01 X44.72 Y14.02 F6000.0
M5
G00 X44.23 Y14.1 F6000.0
M3 F6000.0
G01 X44.31 Y14.02 F6000.0
M5
G00 X44.23 Y13.85 F6000.0
M3 F6000.0
G01 X43.83 Y13.68 F6000.0
M5
G00 X44.15 Y13.6 F6000.0
M3 F6000.0
G01 X44.23 F6000.0
M5
G00 X43.75 Y14.1 F6000.0
M3 F6000.0
G01 X44.02 Y14.31 F6000.0
G01 X44.31 Y14.27 F6000.0
M5
G00 X43.83 Y14.52 F6000.0
M3 F6000.0
G01 X44.07 Y14.27 F6000.0
G01 X44.31 Y14.52 F6000.0
M5
G00 X44.15 Y14.85 F6000.0
M3 F6000.0
G01 Y14.68 F6000.0
M5
G00 X43.91 Y14.68 F6000.0
M3 F6000.0
G01 X43.35 Y14.52 F6000.0
M5
G00 X43.43 Y14.68 F6000.0
M3 F6000.0
G01 X43.34 Y14.38 F6000.0
G01 X43.41 Y14.13 F6000.0
G01 X43.75 Y13.68 F6000.0
G01 X44.4 Y14.27 F6000.0
M5
G00 X43.67 Y14.1 F6000.0
M3 F6000.0
G01 X43.75 F6000.0
M5
G00 X43.59 Y14.02 F6000.0
M3 F6000.0
G01 X43.35 Y13.85 F6000.0
G01 X43.49 Y14.1 F6000.0
G01 X43.83 Y14.18 F6000.0
M5
G00 X43.91 Y14.93 F6000.0
M3 F6000.0
G01 X43.59 Y15.35 F6000.0
G01 X43.83 Y15.6 F6000.0
G01 X44.23 Y15.18 F6000.0
M5
G00 X44.07 Y15.35 F6000.0
M3 F6000.0
G01 X43.83 Y15.1 F6000.0
M5
G00 X43.83 Y15.35 F6000.0
M3 F6000.0
G01 X43.51 Y15.02 F6000.0
M5
G00 X43.43 Y15.26 F6000.0
M3 F6000.0
G01 Y15.1 F6000.0
M5
G00 X43.27 Y15.35 F6000.0
M3 F6000.0
G01 X43.43 Y15.26 F6000.0
M5
G00 X43.1 Y15.35 F6000.0
M3 F6000.0
G01 X42.86 Y15.18 F6000.0
M5
G00 X42.7 Y15.35 F6000.0
M3 F6000.0
G01 X42.86 Y14.93 F6000.0
G01 X43.02 Y15.1 F6000.0
G01 X42.78 Y15.18 F6000.0
M5
G00 X42.7 Y14.93 F6000.0
M3 F6000.0
G01 X42.78 Y14.52 F6000.0
G01 X43.19 Y14.93 F6000.0
M5
G00 X43.1 Y15.1 F6000.0
M3 F6000.0
G01 X43.35 Y14.87 F6000.0
G01 X43.67 Y14.93 F6000.0
G01 F6000.0
M5
G00 X43.99 Y15.51 F6000.0
M3 F6000.0
G01 X44.23 Y15.43 F6000.0
M5
G00 X44.48 Y15.18 F6000.0
M3 F6000.0
G01 X44.56 Y15.1 F6000.0
M5
G00 X44.88 Y15.6 F6000.0
M3 F6000.0
G01 X45.52 Y15.02 F6000.0
M5
G00 X45.6 Y15.93 F6000.0
M3 F6000.0
G01 X45.28 Y15.76 F6000.0
G01 X45.92 Y15.68 F6000.0
M5
G00 X46.09 Y16.35 F6000.0
M3 F6000.0
G01 X46.03 Y16.29 F6000.0
G01 X45.28 Y15.51 F6000.0
M5
G00 X45.44 Y16.18 F6000.0
M3 F6000.0
G01 X45.68 F6000.0
M5
G00 X45.36 Y16.43 F6000.0
M3 F6000.0
G01 X44.8 Y15.76 F6000.0
M5
G00 X44.72 Y16.01 F6000.0
M3 F6000.0
G01 X44.88 Y15.85 F6000.0
M5
G00 X44.8 Y16.1 F6000.0
M3 F6000.0
G01 X44.44 Y15.56 F6000.0
G01 Y15.12 F6000.0
G01 X44.47 Y15.08 F6000.0
G01 X45.12 Y14.27 F6000.0
G01 X45.76 Y14.93 F6000.0
M5
G00 X44.8 Y16.1 F6000.0
M3 F6000.0
G01 X45.28 Y16.85 F6000.0
G01 X45.43 Y16.69 F6000.0
G01 X46.13 Y15.97 F6000.0
G01 X46.97 Y15.1 F6000.0
M5
G00 X46.41 Y16.43 F6000.0
M3 F6000.0
G01 X46.57 F6000.0
M5
G00 X46.65 Y16.6 F6000.0
M3 F6000.0
G01 X46.57 Y16.1 F6000.0
G01 X45.68 Y16.18 F6000.0
G01 X46.17 Y16.51 F6000.0
M5
G00 X46.33 Y16.6 F6000.0
M3 F6000.0
G01 X46.57 Y16.35 F6000.0
G01 X46.17 Y15.85 F6000.0
M5
G00 X45.92 Y17.01 F6000.0
M3 F6000.0
G01 X46.09 Y16.6 F6000.0
M5
G00 X45.68 Y17.01 F6000.0
M3 F6000.0
G01 X45.92 Y16.76 F6000.0
G01 X46.17 Y17.01 F6000.0
M5
G00 X46.17 Y17.26 F6000.0
M3 F6000.0
G01 X46.09 Y17.18 F6000.0
M5
G00 X46.09 Y17.43 F6000.0
M3 F6000.0
G01 X46.33 F6000.0
M5
G00 X46.25 Y17.59 F6000.0
M3 F6000.0
G01 X46.41 F6000.0
M5
G00 X46.57 Y17.68 F6000.0
M3 F6000.0
G01 X46.64 Y17.59 F6000.0
G01 X47.35 Y16.74 F6000.0
G01 X48.1 Y16.1 F6000.0
G01 X48.09 Y16.09 F6000.0
G01 X47.39 Y15.35 F6000.0
G01 X46.97 Y15.03 F6000.0
G01 X46.49 Y14.85 F6000.0
G01 X46.73 Y14.52 F6000.0
G01 X46.81 Y14.77 F6000.0
M5
G00 X47.62 Y16.6 F6000.0
M3 F6000.0
G01 X47.38 Y16.35 F6000.0
M5
G00 X48.02 Y16.43 F6000.0
M3 F6000.0
G01 X47.94 Y16.01 F6000.0
M5
G00 X48.18 Y16.6 F6000.0
M3 F6000.0
G01 X48.26 Y16.48 F6000.0
G01 X48.42 Y16.51 F6000.0
M5
G00 X48.26 Y16.85 F6000.0
M3 F6000.0
G01 Y16.76 F6000.0
M5
G00 X48.34 Y17.01 F6000.0
M3 F6000.0
G01 X48.42 Y17.1 F6000.0
G01 X48.58 Y16.93 F6000.0
M5
G00 X48.5 Y17.26 F6000.0
M3 F6000.0
G01 X48.66 F6000.0
M5
G00 X48.42 Y17.68 F6000.0
M3 F6000.0
G01 X48.74 Y17.34 F6000.0
M5
G00 X48.5 Y17.76 F6000.0
M3 F6000.0
G01 X48.42 Y17.43 F6000.0
G01 X48.66 Y17.68 F6000.0
M5
G00 X48.58 Y17.84 F6000.0
M3 F6000.0
G01 X48.66 Y17.68 F6000.0
M5
G00 X48.58 Y18.09 F6000.0
M3 F6000.0
G01 X48.66 Y18.01 F6000.0
M5
G00 X49.15 Y18.26 F6000.0
M3 F6000.0
G01 X49.07 Y18.18 F6000.0
M5
G00 X49.23 Y18.51 F6000.0
M3 F6000.0
G01 X49.58 Y18.69 F6000.0
G01 X49.71 Y19.01 F6000.0
G01 X49.79 Y19.09 F6000.0
G01 X49.87 Y19.01 F6000.0
G01 X49.95 Y18.93 F6000.0
M5
G00 X49.55 Y18.68 F6000.0
M3 F6000.0
G01 X49.47 Y18.34 F6000.0
M5
G00 X49.47 Y18.26 F6000.0
M3 F6000.0
G01 X49.15 Y18.09 F6000.0
M5
G00 X49.71 Y17.84 F6000.0
M3 F6000.0
G01 X49.79 Y17.76 F6000.0
M5
G00 X49.95 Y17.1 F6000.0
M3 F6000.0
G01 X50.03 F6000.0
M5
G00 X49.79 Y16.93 F6000.0
M3 F6000.0
G01 X49.87 F6000.0
M5
G00 X50.03 Y16.76 F6000.0
M3 F6000.0
G01 X49.87 Y16.6 F6000.0
M5
G00 X49.71 Y16.51 F6000.0
M3 F6000.0
G01 X49.63 Y16.43 F6000.0
M5
G00 X49.31 Y16.93 F6000.0
M3 F6000.0
G01 X49.63 Y17.18 F6000.0
M5
G00 X50.36 Y16.76 F6000.0
M3 F6000.0
G01 X50.2 Y16.68 F6000.0
M5
G00 X50.6 Y17.51 F6000.0
M3 F6000.0
G01 X50.44 Y17.34 F6000.0
M5
G00 X50.84 Y17.51 F6000.0
M3 F6000.0
G01 Y17.43 F6000.0
M5
G00 X51.08 Y17.76 F6000.0
M3 F6000.0
G01 X51.0 Y17.68 F6000.0
M5
G00 X51.24 Y17.59 F6000.0
M3 F6000.0
G01 X51.48 Y17.76 F6000.0
M5
G00 X51.24 Y17.93 F6000.0
M3 F6000.0
G01 Y17.84 F6000.0
M5
G00 X50.92 Y17.93 F6000.0
M3 F6000.0
G01 X50.84 Y17.76 F6000.0
M5
G00 X50.6 Y17.76 F6000.0
M3 F6000.0
G01 X50.52 Y17.68 F6000.0
M5
G00 X50.52 Y18.18 F6000.0
M3 F6000.0
G01 X50.36 Y17.93 F6000.0
M5
G00 X49.47 Y19.09 F6000.0
M3 F6000.0
G01 X49.39 Y18.93 F6000.0
M5
G00 X49.15 Y19.18 F6000.0
M3 F6000.0
G01 X48.99 Y18.93 F6000.0
M5
G00 X48.91 Y18.84 F6000.0
M3 F6000.0
G01 X49.07 Y18.68 F6000.0
G01 X49.39 Y18.93 F6000.0
M5
G00 X49.47 Y19.34 F6000.0
M3 F6000.0
G01 X49.87 Y19.18 F6000.0
M5
G00 X49.79 Y19.76 F6000.0
M3 F6000.0
G01 X49.71 Y19.68 F6000.0
M5
