; Generated by Pen Plotter App
; 2025-05-23 10:27:28
G28 ; Home all axes
G90 ; Absolute positioning
G21 ; Units in millimeters
F6000 ; Set feed rate
M5 ; Pen up

G1 X2.000 Y2.000 F6000 ; Move to start
M3 ; Pen down
G1 X40.000 Y2.000 F6000
G1 X40.000 Y40.000 F6000
G1 X-40.000 Y40.000 F6000
G1 X-40.000 Y-40.000 F6000
M5 ; Pen up

G1 X2.000 Y2.000 F6000 ; Move to start
M3 ; Pen down
G1 X40.000 Y2.000 F6000
G1 X40.000 Y40.000 F6000
G1 X-40.000 Y40.000 F6000
G1 X-40.000 Y-40.000 F6000
M5 ; Pen up

G1 X2.000 Y2.000 F6000 ; Move to start
M3 ; Pen down
G1 X40.000 Y2.000 F6000
G1 X40.000 Y40.000 F6000
G1 X-40.000 Y40.000 F6000
G1 X-40.000 Y-40.000 F6000
M5 ; Pen up

G1 X2.000 Y2.000 F6000 ; Move to start
M3 ; Pen down
G1 X40.000 Y2.000 F6000
G1 X40.000 Y40.000 F6000
G1 X-40.000 Y40.000 F6000
G1 X-40.000 Y-40.000 F6000
M5 ; Pen up

G1 X2.000 Y2.000 F6000 ; Move to start
M3 ; Pen down
G1 X40.000 Y2.000 F6000
G1 X40.000 Y40.000 F6000
G1 X-40.000 Y40.000 F6000
G1 X-40.000 Y-40.000 F6000
M5 ; Pen up

G1 X2.000 Y2.000 F6000 ; Move to start
M3 ; Pen down
G1 X40.000 Y2.000 F6000
G1 X40.000 Y40.000 F6000
G1 X-40.000 Y40.000 F6000
G1 X-40.000 Y-40.000 F6000
M5 ; Pen up

G1 X0 Y0 F6000 ; Return to origin
M5 ; Pen up
M02 ; End of program
; End of program