; Generated by Pen Plotter App
; 2025-05-23 10:03:00
G28 ; Home all axes
G90 ; Absolute positioning
G21 ; Units in millimeters
G1 Z2.0 F6000 ; Pen up
M5 ; Pen up

G1 X25.000 Y120.250 F6000 ; Move to start
G1 Z0.0 F6000 ; Pen down
M3 ; Pen down
G1 X25.750 Y120.000 F6000
G1 X27.000 Y119.250 F6000
G1 X27.750 Y119.000 F6000
G1 X29.250 Y118.500 F6000
G1 X30.000 Y118.250 F6000
G1 X32.000 Y118.250 F6000
G1 X33.750 Y117.750 F6000
G1 X34.750 Y117.500 F6000
G1 X36.500 Y117.000 F6000
G1 X38.000 Y116.750 F6000
G1 X40.000 Y116.500 F6000
G1 X42.000 Y116.000 F6000
G1 X43.500 Y115.750 F6000
G1 X45.750 Y115.250 F6000
G1 X48.000 Y114.750 F6000
G1 X49.250 Y114.500 F6000
G1 X51.750 Y114.000 F6000
G1 X53.000 Y113.750 F6000
G1 X55.500 Y113.500 F6000
G1 X57.750 Y113.250 F6000
G1 X59.000 Y113.000 F6000
G1 X61.000 Y112.750 F6000
G1 X62.250 Y112.750 F6000
G1 X64.750 Y112.750 F6000
G1 X67.000 Y112.500 F6000
G1 X68.250 Y112.500 F6000
G1 X70.750 Y112.500 F6000
G1 X73.000 Y112.500 F6000
G1 X74.000 Y112.500 F6000
G1 X75.750 Y112.500 F6000
G1 X76.500 Y112.500 F6000
G1 X77.500 Y112.500 F6000
G1 X78.250 Y112.500 F6000
G1 X78.500 Y112.500 F6000
G1 X78.750 Y112.500 F6000
G1 X79.250 Y112.500 F6000
G1 X79.500 Y112.500 F6000
G1 X79.750 Y112.500 F6000
G1 X80.000 Y112.500 F6000
G1 X80.250 Y112.500 F6000
G1 X80.500 Y112.500 F6000
G1 X80.500 Y112.750 F6000
G1 Z2.0 F6000 ; Pen up
M5 ; Pen up

G1 X56.750 Y123.250 F6000 ; Move to start
G1 Z0.0 F6000 ; Pen down
M3 ; Pen down
G1 X56.250 Y122.500 F6000
G1 X55.500 Y121.750 F6000
G1 X55.000 Y121.250 F6000
G1 X54.250 Y120.500 F6000
G1 X53.750 Y120.000 F6000
G1 X53.000 Y118.750 F6000
G1 X52.500 Y118.250 F6000
G1 X51.500 Y117.250 F6000
G1 X50.750 Y116.000 F6000
G1 X50.000 Y115.250 F6000
G1 X49.000 Y113.750 F6000
G1 X48.500 Y112.750 F6000
G1 X47.500 Y111.250 F6000
G1 X47.000 Y110.500 F6000
G1 X46.250 Y109.000 F6000
G1 X45.500 Y107.500 F6000
G1 X45.250 Y106.750 F6000
G1 X44.250 Y105.250 F6000
G1 X43.750 Y104.250 F6000
G1 X43.250 Y103.000 F6000
G1 X42.750 Y102.000 F6000
G1 X42.250 Y101.000 F6000
G1 X41.750 Y99.500 F6000
G1 X41.250 Y98.750 F6000
G1 X40.750 Y97.250 F6000
G1 X40.250 Y96.500 F6000
G1 X40.250 Y95.250 F6000
G1 X40.000 Y94.000 F6000
G1 X39.750 Y93.250 F6000
G1 X39.500 Y92.250 F6000
G1 X39.500 Y91.750 F6000
G1 X39.250 Y90.750 F6000
G1 X39.250 Y90.250 F6000
G1 X39.250 Y89.500 F6000
G1 X39.000 Y88.500 F6000
G1 X39.000 Y88.000 F6000
G1 X39.000 Y87.000 F6000
G1 X39.000 Y86.500 F6000
G1 X39.000 Y85.500 F6000
G1 X39.000 Y84.750 F6000
G1 X39.000 Y83.750 F6000
G1 X39.000 Y82.750 F6000
G1 X39.000 Y82.250 F6000
G1 X39.000 Y81.250 F6000
G1 X39.000 Y80.750 F6000
G1 X39.000 Y79.750 F6000
G1 X39.000 Y79.250 F6000
G1 X39.000 Y78.500 F6000
G1 X39.250 Y77.250 F6000
G1 X39.250 Y76.750 F6000
G1 X39.500 Y76.000 F6000
G1 X39.750 Y75.500 F6000
G1 X39.750 Y74.750 F6000
G1 X39.750 Y74.500 F6000
G1 X40.000 Y73.750 F6000
G1 X40.500 Y73.000 F6000
G1 X40.500 Y72.750 F6000
G1 X40.750 Y72.250 F6000
G1 X41.000 Y72.000 F6000
G1 X41.250 Y71.250 F6000
G1 X41.750 Y70.750 F6000
G1 X41.750 Y70.500 F6000
G1 X42.250 Y70.000 F6000
G1 X42.500 Y70.000 F6000
G1 X42.500 Y69.750 F6000
G1 X42.750 Y69.750 F6000
G1 X43.000 Y69.750 F6000
G1 X43.250 Y69.750 F6000
G1 X44.500 Y69.750 F6000
G1 X45.250 Y69.750 F6000
G1 X46.750 Y69.750 F6000
G1 X48.000 Y70.000 F6000
G1 Z2.0 F6000 ; Pen up
M5 ; Pen up

G1 X60.500 Y91.000 F6000 ; Move to start
G1 Z0.0 F6000 ; Pen down
M3 ; Pen down
G1 X59.500 Y90.250 F6000
G1 X58.750 Y90.000 F6000
G1 X57.750 Y89.500 F6000
G1 X56.500 Y88.750 F6000
G1 X55.750 Y88.250 F6000
G1 X54.250 Y87.500 F6000
G1 X53.750 Y87.250 F6000
G1 X52.500 Y86.750 F6000
G1 X51.250 Y86.000 F6000
G1 X50.750 Y85.750 F6000
G1 X49.250 Y84.750 F6000
G1 X48.250 Y84.000 F6000
G1 X47.500 Y83.750 F6000
G1 X46.750 Y83.000 F6000
G1 X46.250 Y82.750 F6000
G1 X45.500 Y82.000 F6000
G1 X44.500 Y81.500 F6000
G1 X44.250 Y81.250 F6000
G1 X43.750 Y81.000 F6000
G1 X43.000 Y80.500 F6000
G1 X42.500 Y80.250 F6000
G1 X41.750 Y80.000 F6000
G1 X41.500 Y79.750 F6000
G1 X40.750 Y79.250 F6000
G1 X40.500 Y79.000 F6000
G1 X40.000 Y78.750 F6000
G1 X39.500 Y78.500 F6000
G1 X39.000 Y78.250 F6000
G1 X38.500 Y78.000 F6000
G1 X38.250 Y77.750 F6000
G1 X37.750 Y77.500 F6000
G1 X37.500 Y77.250 F6000
G1 X37.250 Y77.250 F6000
G1 X37.000 Y77.250 F6000
G1 X36.500 Y77.500 F6000
G1 X35.750 Y77.750 F6000
G1 X35.250 Y78.000 F6000
G1 X34.750 Y78.500 F6000
G1 X34.750 Y78.750 F6000
G1 X34.250 Y79.250 F6000
G1 X34.000 Y79.750 F6000
G1 X34.000 Y80.000 F6000
G1 X33.500 Y80.750 F6000
G1 X33.500 Y81.000 F6000
G1 X33.500 Y81.250 F6000
G1 X33.250 Y82.000 F6000
G1 X33.000 Y82.250 F6000
G1 X33.000 Y82.750 F6000
G1 X33.000 Y83.000 F6000
G1 X32.750 Y83.750 F6000
G1 X32.750 Y84.500 F6000
G1 X32.750 Y84.750 F6000
G1 X32.500 Y85.500 F6000
G1 X32.250 Y85.750 F6000
G1 X32.250 Y86.250 F6000
G1 X32.250 Y86.750 F6000
G1 X32.000 Y87.500 F6000
G1 X32.000 Y88.000 F6000
G1 X31.750 Y88.250 F6000
G1 X31.250 Y89.250 F6000
G1 X31.250 Y89.500 F6000
G1 X31.000 Y90.250 F6000
G1 X30.750 Y90.750 F6000
G1 X30.500 Y91.500 F6000
G1 X30.000 Y92.500 F6000
G1 X29.750 Y92.750 F6000
G1 X29.250 Y93.500 F6000
G1 X29.000 Y94.250 F6000
G1 X28.750 Y95.000 F6000
G1 X28.500 Y95.250 F6000
G1 X28.000 Y96.000 F6000
G1 X28.000 Y96.500 F6000
G1 X27.750 Y97.000 F6000
G1 X27.250 Y97.500 F6000
G1 X27.250 Y97.750 F6000
G1 X27.000 Y98.250 F6000
G1 X26.750 Y98.750 F6000
G1 X26.750 Y99.000 F6000
G1 X26.500 Y99.250 F6000
G1 X26.500 Y99.500 F6000
G1 X26.500 Y100.000 F6000
G1 X26.500 Y100.250 F6000
G1 X26.500 Y100.500 F6000
G1 X26.500 Y100.750 F6000
G1 X26.500 Y101.000 F6000
G1 X26.750 Y101.000 F6000
G1 X27.000 Y101.500 F6000
G1 X27.250 Y101.500 F6000
G1 X27.500 Y101.750 F6000
G1 X27.750 Y102.000 F6000
G1 X28.000 Y102.000 F6000
G1 X28.250 Y102.000 F6000
G1 X29.000 Y102.250 F6000
G1 X29.250 Y102.250 F6000
G1 X30.250 Y102.500 F6000
G1 X30.750 Y102.500 F6000
G1 X31.750 Y102.500 F6000
G1 X32.500 Y102.500 F6000
G1 X33.500 Y102.500 F6000
G1 X34.250 Y102.500 F6000
G1 X35.250 Y102.500 F6000
G1 X36.500 Y102.250 F6000
G1 X37.000 Y102.000 F6000
G1 X38.250 Y102.000 F6000
G1 X38.750 Y102.000 F6000
G1 X39.750 Y101.750 F6000
G1 X41.250 Y101.500 F6000
G1 X41.750 Y101.250 F6000
G1 X43.000 Y101.000 F6000
G1 X43.500 Y101.000 F6000
G1 X44.750 Y101.000 F6000
G1 X45.500 Y100.750 F6000
G1 X46.750 Y100.500 F6000
G1 X47.750 Y100.250 F6000
G1 X48.250 Y100.000 F6000
G1 X49.500 Y100.000 F6000
G1 X50.500 Y99.750 F6000
G1 X51.500 Y99.250 F6000
G1 X52.250 Y99.000 F6000
G1 X54.000 Y98.250 F6000
G1 X55.500 Y97.750 F6000
G1 X56.750 Y97.250 F6000
G1 X58.500 Y96.750 F6000
G1 X59.500 Y96.500 F6000
G1 X61.250 Y96.000 F6000
G1 X62.500 Y95.750 F6000
G1 X64.500 Y95.000 F6000
G1 X66.250 Y94.500 F6000
G1 X67.250 Y94.250 F6000
G1 X69.750 Y93.750 F6000
G1 X70.750 Y93.500 F6000
G1 X73.750 Y92.250 F6000
G1 X75.750 Y91.750 F6000
G1 X78.250 Y91.000 F6000
G1 X80.750 Y90.500 F6000
G1 X81.750 Y90.250 F6000
G1 X83.250 Y89.750 F6000
G1 X84.250 Y89.500 F6000
G1 X85.000 Y89.250 F6000
G1 X85.750 Y89.250 F6000
G1 X86.000 Y89.000 F6000
G1 X86.250 Y88.750 F6000
G1 X86.500 Y88.750 F6000
G1 X86.750 Y88.750 F6000
G1 X87.250 Y88.500 F6000
G1 X88.000 Y88.000 F6000
G1 X88.500 Y87.500 F6000
G1 X89.250 Y87.000 F6000
G1 X89.750 Y86.750 F6000
G1 X90.000 Y86.250 F6000
G1 X90.500 Y86.000 F6000
G1 X90.500 Y85.750 F6000
G1 X90.750 Y85.750 F6000
G1 X90.750 Y85.500 F6000
G1 X91.250 Y85.000 F6000
G1 X91.250 Y84.500 F6000
G1 X91.250 Y84.250 F6000
G1 X91.250 Y84.000 F6000
G1 X91.250 Y83.750 F6000
G1 X91.250 Y83.250 F6000
G1 X91.250 Y82.500 F6000
G1 X91.250 Y81.750 F6000
G1 X91.250 Y81.250 F6000
G1 X91.250 Y80.500 F6000
G1 X91.250 Y80.000 F6000
G1 X91.250 Y79.500 F6000
G1 X91.250 Y79.000 F6000
G1 X91.250 Y78.000 F6000
G1 X91.250 Y77.000 F6000
G1 X91.250 Y76.500 F6000
G1 X91.250 Y75.500 F6000
G1 X91.250 Y74.750 F6000
G1 X91.250 Y73.750 F6000
G1 X91.250 Y73.250 F6000
G1 X91.000 Y72.250 F6000
G1 X90.500 Y71.500 F6000
G1 X90.500 Y71.000 F6000
G1 X89.750 Y70.000 F6000
G1 X89.500 Y69.750 F6000
G1 X89.000 Y69.000 F6000
G1 X88.750 Y68.750 F6000
G1 X88.000 Y68.250 F6000
G1 X87.500 Y67.500 F6000
G1 X87.000 Y67.000 F6000
G1 X86.500 Y66.500 F6000
G1 X86.250 Y66.250 F6000
G1 X85.750 Y65.750 F6000
G1 X85.250 Y65.500 F6000
G1 X85.000 Y65.250 F6000
G1 X84.500 Y64.750 F6000
G1 X84.000 Y64.500 F6000
G1 X83.500 Y64.000 F6000
G1 X83.000 Y63.750 F6000
G1 X82.750 Y63.500 F6000
G1 X82.000 Y63.000 F6000
G1 X81.250 Y62.750 F6000
G1 X81.000 Y62.500 F6000
G1 X80.250 Y62.000 F6000
G1 X79.750 Y61.750 F6000
G1 X79.000 Y61.500 F6000
G1 X78.000 Y61.000 F6000
G1 X77.750 Y60.750 F6000
G1 X77.000 Y60.500 F6000
G1 X76.500 Y60.250 F6000
G1 X75.750 Y59.750 F6000
G1 X75.500 Y59.750 F6000
G1 X74.750 Y59.500 F6000
G1 X74.000 Y59.250 F6000
G1 X73.750 Y59.000 F6000
G1 X73.000 Y59.000 F6000
G1 X72.750 Y58.750 F6000
G1 X71.750 Y58.250 F6000
G1 X71.250 Y58.250 F6000
G1 X70.500 Y58.000 F6000
G1 X69.500 Y57.500 F6000
G1 X68.750 Y57.250 F6000
G1 X68.000 Y57.250 F6000
G1 X67.750 Y57.250 F6000
G1 X66.750 Y56.750 F6000
G1 X66.250 Y56.500 F6000
G1 X65.500 Y56.250 F6000
G1 X65.000 Y56.250 F6000
G1 X64.750 Y56.250 F6000
G1 X64.500 Y56.000 F6000
G1 X64.250 Y56.000 F6000
G1 X64.000 Y56.000 F6000
G1 Z2.0 F6000 ; Pen up
M5 ; Pen up

G1 X0 Y0 F6000 ; Return to origin
M5 ; Pen up
M02 ; End of program
; End of program