; Generated by Pen Plotter App
; 2025-05-23 18:59:15
G28 ; Home all axes
G90 ; Absolute positioning
G21 ; Units in millimeters
F6000 ; Set feed rate
M5 ; Pen up

G1 X49.750 Y114.500 F6000 ; Move to start
M3 ; Pen down
G1 X49.500 Y114.500 F6000
G1 X48.750 Y115.000 F6000
G1 X48.000 Y115.250 F6000
G1 X46.750 Y115.250 F6000
G1 X46.000 Y115.250 F6000
G1 X45.000 Y115.250 F6000
G1 X44.250 Y115.250 F6000
G1 X43.750 Y115.250 F6000
G1 X43.250 Y115.250 F6000
G1 X43.000 Y115.500 F6000
G1 X42.750 Y115.500 F6000
G1 X42.500 Y115.500 F6000
G1 X42.250 Y115.750 F6000
G1 X42.000 Y115.750 F6000
G1 X41.750 Y116.000 F6000
G1 X41.500 Y116.000 F6000
G1 X41.250 Y116.000 F6000
G1 X41.000 Y116.000 F6000
G1 X40.500 Y116.250 F6000
M5 ; Pen up

G1 X32.000 Y119.250 F6000 ; Move to start
M3 ; Pen down
G1 X32.000 Y119.500 F6000
G1 X32.750 Y119.750 F6000
G1 X34.750 Y120.750 F6000
G1 X36.000 Y120.750 F6000
G1 X38.750 Y121.250 F6000
G1 X41.500 Y121.250 F6000
G1 X43.000 Y121.250 F6000
G1 X45.750 Y121.500 F6000
G1 X46.750 Y121.500 F6000
G1 X48.750 Y121.500 F6000
G1 X50.500 Y121.500 F6000
G1 X51.250 Y121.500 F6000
G1 X52.250 Y121.500 F6000
G1 X53.000 Y121.500 F6000
G1 X54.000 Y121.500 F6000
G1 X55.000 Y121.500 F6000
G1 X55.750 Y121.500 F6000
G1 X57.250 Y121.500 F6000
G1 X58.000 Y121.250 F6000
G1 X59.750 Y120.750 F6000
G1 X61.500 Y120.250 F6000
G1 X62.250 Y120.000 F6000
G1 X64.250 Y119.500 F6000
G1 X66.500 Y118.750 F6000
G1 X67.500 Y118.500 F6000
G1 X69.250 Y117.750 F6000
G1 X70.000 Y117.500 F6000
G1 X71.500 Y117.000 F6000
G1 X72.250 Y116.750 F6000
G1 X73.000 Y116.500 F6000
G1 X73.750 Y116.000 F6000
G1 X74.000 Y116.000 F6000
G1 X74.500 Y115.500 F6000
G1 X75.000 Y115.250 F6000
G1 X75.000 Y115.000 F6000
G1 X75.500 Y114.500 F6000
G1 X76.000 Y114.000 F6000
G1 X76.250 Y113.500 F6000
G1 X76.500 Y113.250 F6000
G1 X76.500 Y113.000 F6000
G1 X76.750 Y112.500 F6000
G1 X77.000 Y111.750 F6000
G1 X77.000 Y111.000 F6000
G1 X77.000 Y110.500 F6000
G1 X77.000 Y109.750 F6000
G1 X77.000 Y109.500 F6000
G1 X77.000 Y108.500 F6000
G1 X77.000 Y107.750 F6000
G1 X77.000 Y107.250 F6000
G1 X77.000 Y106.250 F6000
G1 X77.000 Y105.500 F6000
G1 X76.750 Y104.500 F6000
G1 X76.250 Y103.500 F6000
G1 X76.000 Y103.000 F6000
G1 X75.750 Y101.750 F6000
G1 X75.500 Y101.250 F6000
G1 X75.000 Y100.250 F6000
G1 X74.750 Y99.750 F6000
G1 X74.250 Y99.000 F6000
G1 X73.750 Y98.250 F6000
G1 X73.250 Y97.750 F6000
G1 X72.750 Y97.250 F6000
G1 X72.250 Y96.750 F6000
G1 X71.500 Y96.250 F6000
G1 X70.750 Y95.750 F6000
G1 X70.000 Y95.500 F6000
G1 X68.500 Y94.750 F6000
G1 X67.750 Y94.250 F6000
G1 X66.000 Y94.000 F6000
G1 X65.000 Y93.750 F6000
G1 X62.750 Y93.250 F6000
G1 X61.750 Y93.000 F6000
G1 X60.500 Y93.000 F6000
G1 X58.750 Y93.000 F6000
G1 X58.000 Y93.000 F6000
G1 X56.750 Y93.000 F6000
G1 X56.000 Y93.000 F6000
G1 X54.750 Y93.000 F6000
G1 X54.000 Y93.000 F6000
G1 X52.750 Y93.000 F6000
G1 X51.250 Y93.000 F6000
G1 X50.500 Y93.000 F6000
G1 X49.250 Y93.000 F6000
G1 X48.750 Y93.250 F6000
G1 X47.500 Y93.500 F6000
G1 X47.000 Y93.750 F6000
G1 X46.500 Y94.000 F6000
G1 X45.750 Y94.250 F6000
G1 X45.250 Y94.750 F6000
G1 X44.500 Y95.000 F6000
G1 X44.000 Y95.000 F6000
G1 X43.000 Y95.750 F6000
G1 X42.500 Y96.000 F6000
G1 X41.250 Y96.250 F6000
G1 X40.250 Y96.750 F6000
G1 X39.500 Y97.000 F6000
G1 X38.250 Y97.500 F6000
G1 X37.500 Y97.750 F6000
G1 X36.750 Y98.250 F6000
G1 X36.000 Y98.500 F6000
G1 X35.500 Y99.000 F6000
G1 X35.000 Y100.000 F6000
G1 X34.500 Y100.500 F6000
G1 X34.250 Y101.000 F6000
G1 X33.750 Y101.500 F6000
G1 X33.250 Y102.250 F6000
G1 X33.000 Y103.000 F6000
G1 X32.750 Y103.250 F6000
G1 X32.750 Y103.750 F6000
G1 X32.500 Y104.000 F6000
G1 X32.500 Y104.250 F6000
G1 X32.500 Y104.500 F6000
G1 X32.500 Y104.750 F6000
G1 X33.500 Y104.750 F6000
G1 X34.250 Y104.750 F6000
G1 X35.750 Y104.750 F6000
G1 X36.750 Y104.750 F6000
G1 X39.000 Y104.750 F6000
G1 X40.750 Y104.250 F6000
G1 X42.000 Y104.000 F6000
G1 X44.500 Y103.250 F6000
G1 X45.750 Y103.000 F6000
G1 X48.000 Y102.500 F6000
G1 X50.000 Y101.500 F6000
G1 X52.500 Y101.000 F6000
G1 X55.250 Y100.250 F6000
G1 X57.500 Y99.500 F6000
G1 X60.000 Y98.750 F6000
G1 X61.750 Y97.750 F6000
G1 X63.250 Y97.500 F6000
G1 X64.750 Y96.750 F6000
G1 X65.750 Y96.000 F6000
G1 X66.750 Y95.250 F6000
G1 X67.250 Y95.000 F6000
G1 X67.750 Y94.250 F6000
G1 X68.250 Y93.500 F6000
G1 X68.500 Y93.000 F6000
G1 X68.750 Y92.250 F6000
G1 X68.750 Y91.750 F6000
G1 X69.000 Y91.250 F6000
G1 X69.000 Y90.250 F6000
G1 X69.000 Y89.750 F6000
G1 X69.000 Y88.750 F6000
G1 X69.000 Y88.250 F6000
G1 X69.000 Y87.250 F6000
G1 X69.000 Y86.500 F6000
G1 X69.000 Y86.000 F6000
G1 X69.000 Y85.000 F6000
G1 X69.000 Y84.500 F6000
G1 X68.500 Y83.500 F6000
G1 X68.250 Y83.000 F6000
G1 X67.750 Y82.000 F6000
G1 X67.000 Y81.000 F6000
G1 X66.500 Y80.500 F6000
G1 X65.750 Y79.500 F6000
G1 X65.250 Y79.000 F6000
G1 X64.250 Y78.000 F6000
G1 X63.750 Y77.500 F6000
G1 X62.500 Y76.500 F6000
G1 X61.500 Y75.500 F6000
G1 X60.750 Y75.000 F6000
G1 X59.500 Y74.250 F6000
G1 X59.000 Y73.750 F6000
G1 X58.250 Y73.250 F6000
G1 X57.750 Y73.000 F6000
G1 X56.750 Y72.250 F6000
G1 X56.250 Y72.000 F6000
G1 X55.750 Y71.750 F6000
G1 X55.000 Y71.500 F6000
G1 X54.750 Y71.250 F6000
G1 X54.250 Y71.000 F6000
G1 X53.750 Y71.000 F6000
G1 X53.000 Y70.750 F6000
G1 X52.500 Y70.750 F6000
G1 X52.000 Y70.750 F6000
G1 X51.000 Y71.000 F6000
G1 X50.500 Y71.250 F6000
G1 X49.500 Y71.500 F6000
G1 X48.750 Y71.750 F6000
G1 X47.750 Y72.500 F6000
G1 X46.250 Y73.250 F6000
G1 X44.750 Y74.000 F6000
G1 X43.000 Y74.750 F6000
G1 X42.250 Y75.000 F6000
G1 X40.750 Y75.500 F6000
G1 X39.750 Y76.000 F6000
G1 X39.000 Y76.500 F6000
G1 X38.000 Y76.750 F6000
G1 X36.750 Y77.500 F6000
G1 X36.500 Y77.750 F6000
G1 X36.000 Y78.000 F6000
G1 X35.500 Y78.500 F6000
G1 X35.000 Y78.750 F6000
G1 X34.750 Y79.250 F6000
G1 X34.500 Y79.500 F6000
G1 X34.250 Y80.000 F6000
G1 X34.000 Y80.000 F6000
G1 X33.750 Y80.250 F6000
G1 X33.750 Y81.000 F6000
G1 X33.500 Y81.000 F6000
G1 X33.500 Y81.250 F6000
G1 X33.250 Y81.750 F6000
G1 X33.250 Y82.000 F6000
G1 X33.500 Y82.000 F6000
G1 X35.750 Y82.000 F6000
G1 X38.000 Y82.000 F6000
G1 X41.000 Y81.000 F6000
G1 X44.250 Y80.500 F6000
G1 X48.000 Y79.750 F6000
G1 X53.250 Y78.500 F6000
G1 X56.750 Y77.500 F6000
G1 X61.500 Y76.000 F6000
G1 X65.750 Y74.750 F6000
G1 X69.250 Y73.500 F6000
G1 X72.000 Y72.750 F6000
G1 X74.750 Y72.000 F6000
G1 X76.250 Y71.500 F6000
G1 X77.250 Y70.750 F6000
G1 X78.000 Y70.500 F6000
G1 X78.000 Y70.250 F6000
G1 X78.000 Y70.000 F6000
G1 X78.000 Y69.500 F6000
G1 X78.000 Y69.000 F6000
G1 X78.000 Y68.750 F6000
G1 X78.000 Y68.500 F6000
G1 X78.000 Y67.750 F6000
G1 X78.000 Y67.250 F6000
G1 X78.000 Y66.500 F6000
G1 X78.000 Y65.500 F6000
G1 X77.750 Y65.250 F6000
G1 X77.250 Y64.500 F6000
G1 X77.250 Y64.250 F6000
G1 X76.750 Y63.250 F6000
G1 X76.500 Y63.000 F6000
G1 X76.000 Y62.500 F6000
G1 X75.750 Y61.750 F6000
G1 X75.250 Y61.250 F6000
G1 X74.750 Y60.750 F6000
G1 X74.250 Y60.250 F6000
G1 X73.250 Y59.750 F6000
G1 X72.750 Y59.250 F6000
G1 X72.000 Y58.750 F6000
G1 X70.750 Y58.000 F6000
G1 X70.250 Y57.750 F6000
G1 X69.250 Y56.750 F6000
G1 X68.250 Y56.500 F6000
G1 X66.000 Y55.500 F6000
G1 X64.500 Y54.750 F6000
G1 X63.250 Y54.250 F6000
G1 X61.250 Y53.750 F6000
G1 X60.000 Y53.250 F6000
G1 X58.000 Y52.750 F6000
G1 X56.500 Y52.250 F6000
G1 X55.750 Y52.250 F6000
G1 X54.500 Y52.000 F6000
G1 X54.000 Y51.750 F6000
G1 X53.000 Y51.500 F6000
G1 X52.250 Y51.500 F6000
G1 X52.000 Y51.500 F6000
G1 X51.500 Y51.500 F6000
G1 X51.000 Y51.500 F6000
G1 X50.250 Y51.500 F6000
G1 X50.000 Y51.750 F6000
G1 X49.250 Y52.250 F6000
G1 X48.500 Y52.500 F6000
G1 X47.750 Y52.750 F6000
G1 X47.250 Y53.250 F6000
G1 X47.000 Y53.250 F6000
G1 X46.250 Y54.000 F6000
G1 X45.250 Y54.500 F6000
G1 X44.750 Y55.000 F6000
G1 X44.250 Y55.250 F6000
G1 X43.750 Y55.750 F6000
G1 X43.500 Y56.000 F6000
G1 X43.250 Y56.250 F6000
G1 X43.000 Y56.250 F6000
G1 X43.000 Y56.500 F6000
G1 X42.750 Y56.500 F6000
G1 X43.250 Y56.500 F6000
G1 X45.000 Y55.750 F6000
G1 X47.250 Y54.750 F6000
G1 X50.000 Y53.250 F6000
G1 X52.750 Y52.250 F6000
G1 X56.750 Y50.750 F6000
G1 X61.750 Y48.500 F6000
G1 X67.000 Y46.250 F6000
G1 X70.500 Y44.750 F6000
G1 X75.000 Y43.000 F6000
G1 X79.750 Y41.250 F6000
G1 X82.500 Y40.500 F6000
G1 X85.250 Y39.500 F6000
G1 X87.000 Y38.500 F6000
G1 X88.000 Y38.000 F6000
G1 X88.500 Y37.500 F6000
G1 X88.750 Y37.500 F6000
G1 X88.750 Y37.250 F6000
G1 X88.750 Y37.000 F6000
G1 X88.750 Y36.750 F6000
G1 X88.750 Y36.500 F6000
G1 X88.750 Y36.250 F6000
G1 X88.750 Y35.750 F6000
G1 X88.250 Y35.500 F6000
G1 X88.250 Y35.250 F6000
G1 X87.750 Y34.750 F6000
G1 X87.500 Y34.750 F6000
G1 X86.750 Y34.250 F6000
G1 X86.250 Y34.250 F6000
G1 X85.250 Y33.500 F6000
G1 X83.750 Y33.000 F6000
G1 X83.250 Y32.750 F6000
G1 X81.500 Y32.250 F6000
G1 X80.500 Y32.000 F6000
G1 X79.500 Y31.750 F6000
G1 X77.750 Y31.250 F6000
G1 X77.000 Y31.250 F6000
G1 X75.250 Y30.750 F6000
G1 X73.750 Y30.750 F6000
G1 X73.000 Y30.750 F6000
G1 X71.750 Y30.750 F6000
G1 X70.500 Y30.750 F6000
G1 X69.250 Y30.750 F6000
G1 X68.000 Y30.750 F6000
G1 X67.250 Y30.750 F6000
G1 X65.500 Y30.500 F6000
G1 X64.750 Y30.500 F6000
G1 X63.500 Y30.500 F6000
G1 X62.500 Y30.500 F6000
G1 X61.750 Y30.500 F6000
G1 X60.500 Y30.500 F6000
G1 X59.250 Y30.500 F6000
G1 X58.500 Y30.500 F6000
G1 X57.250 Y30.500 F6000
G1 X56.500 Y30.500 F6000
G1 X55.750 Y30.500 F6000
G1 X55.000 Y30.500 F6000
G1 X54.750 Y30.500 F6000
G1 X54.250 Y30.500 F6000
G1 X54.000 Y30.500 F6000
G1 X54.000 Y31.000 F6000
G1 X53.750 Y31.250 F6000
G1 X53.500 Y31.500 F6000
G1 X52.750 Y32.250 F6000
G1 X52.500 Y32.500 F6000
M5 ; Pen up

G1 X0 Y0 F6000 ; Return to origin
M5 ; Pen up
M02 ; End of program
; End of program