; Generated by Pen Plotter App
; 2025-05-23 21:01:56
G28 ; Home all axes
G90 ; Absolute positioning
G21 ; Units in millimeters
M5 ; Pen up

G1 X11.000 Y139.000 F12000 ; Move to start
M3 ; Pen down
G1 X11.000 Y138.600 F12000
G1 X11.000 Y138.200 F12000
G1 X11.000 Y137.800 F12000
G1 X11.000 Y137.600 F12000
G1 X11.000 Y137.400 F12000
G1 X11.000 Y137.000 F12000
G1 X11.000 Y136.800 F12000
G1 X11.000 Y136.600 F12000
G1 X11.000 Y136.400 F12000
G1 X11.000 Y136.200 F12000
G1 X11.000 Y136.000 F12000
G1 X11.000 Y135.800 F12000
G1 X11.000 Y135.600 F12000
G1 X11.200 Y135.400 F12000
G1 X11.400 Y135.400 F12000
G1 X12.200 Y135.000 F12000
G1 X12.400 Y134.800 F12000
G1 X12.800 Y134.800 F12000
G1 X13.200 Y134.800 F12000
G1 X13.400 Y134.800 F12000
G1 X13.600 Y134.800 F12000
G1 X13.800 Y134.800 F12000
G1 X14.200 Y134.800 F12000
G1 X14.400 Y134.800 F12000
G1 X14.600 Y134.800 F12000
G1 X15.000 Y134.800 F12000
G1 X15.400 Y134.800 F12000
G1 X15.800 Y134.800 F12000
G1 X16.200 Y134.600 F12000
G1 X16.400 Y134.600 F12000
G1 X16.800 Y134.600 F12000
G1 X17.200 Y134.400 F12000
G1 X17.400 Y134.400 F12000
G1 X17.400 Y134.600 F12000
G1 X17.400 Y134.800 F12000
G1 X17.400 Y135.000 F12000
G1 X17.400 Y135.200 F12000
G1 X17.400 Y135.400 F12000
G1 X17.400 Y135.600 F12000
G1 X17.400 Y136.000 F12000
G1 X17.200 Y136.200 F12000
G1 X17.200 Y136.400 F12000
G1 X17.200 Y136.600 F12000
G1 X17.000 Y136.800 F12000
G1 X17.000 Y137.000 F12000
G1 X16.800 Y137.200 F12000
G1 X16.800 Y137.600 F12000
G1 X16.800 Y137.800 F12000
G1 X16.600 Y138.200 F12000
G1 X16.400 Y138.200 F12000
G1 X16.400 Y138.600 F12000
G1 X16.400 Y139.000 F12000
G1 X16.400 Y139.600 F12000
G1 X16.400 Y140.000 F12000
G1 X16.400 Y140.200 F12000
G1 X16.400 Y140.400 F12000
G1 X16.400 Y140.600 F12000
G1 X16.200 Y140.600 F12000
G1 X15.800 Y140.600 F12000
G1 X14.600 Y140.600 F12000
G1 X12.600 Y140.600 F12000
G1 X11.000 Y140.600 F12000
G1 X9.800 Y140.600 F12000
G1 X9.600 Y140.600 F12000
M5 ; Pen up

G1 X0 Y0 F12000 ; Return to origin
M5 ; Pen up
M02 ; End of program
; End of program