; Generated by Pen Plotter App
; 2025-05-23 10:29:35
G28 ; Home all axes
G90 ; Absolute positioning
G21 ; Units in millimeters
F6000 ; Set feed rate
M5 ; Pen up

G1 X3.500 Y142.750 F6000 ; Move to start
M3 ; Pen down
G1 X3.500 Y142.500 F6000
G1 X3.500 Y141.750 F6000
G1 X3.500 Y141.250 F6000
G1 X3.500 Y140.500 F6000
G1 X3.500 Y140.000 F6000
G1 X3.500 Y139.250 F6000
G1 X3.500 Y138.250 F6000
G1 X3.500 Y137.500 F6000
G1 X3.500 Y136.750 F6000
G1 X3.500 Y136.000 F6000
G1 X3.500 Y135.250 F6000
G1 X3.500 Y134.500 F6000
G1 X3.500 Y133.750 F6000
G1 X3.500 Y133.000 F6000
G1 X3.500 Y132.000 F6000
G1 X3.500 Y131.000 F6000
G1 X3.500 Y129.750 F6000
G1 X3.500 Y128.750 F6000
G1 X3.250 Y127.750 F6000
G1 X2.750 Y126.250 F6000
G1 X2.500 Y125.250 F6000
G1 X2.000 Y124.000 F6000
G1 X1.500 Y122.500 F6000
G1 X1.250 Y121.750 F6000
G1 X0.500 Y120.000 F6000
G1 X0.250 Y119.000 F6000
G1 X-0.250 Y117.750 F6000
G1 X-0.750 Y116.250 F6000
G1 X-1.250 Y115.250 F6000
G1 X-1.750 Y114.000 F6000
G1 X-2.250 Y113.000 F6000
G1 X-2.500 Y111.500 F6000
G1 X-3.000 Y110.500 F6000
G1 X-3.250 Y109.000 F6000
G1 X-3.500 Y107.500 F6000
G1 X-3.500 Y106.250 F6000
G1 X-3.750 Y104.750 F6000
G1 X-3.750 Y103.500 F6000
G1 X-3.750 Y102.500 F6000
G1 X-3.750 Y101.000 F6000
G1 X-3.750 Y99.750 F6000
G1 X-3.750 Y98.250 F6000
G1 X-3.750 Y96.750 F6000
G1 X-3.750 Y95.000 F6000
G1 X-3.750 Y93.750 F6000
G1 X-3.750 Y92.000 F6000
G1 X-3.750 Y90.250 F6000
G1 X-3.500 Y88.750 F6000
G1 X-3.250 Y87.500 F6000
G1 X-3.000 Y85.750 F6000
G1 X-2.500 Y84.500 F6000
G1 X-2.250 Y83.250 F6000
G1 X-1.750 Y81.750 F6000
G1 X-1.250 Y80.250 F6000
G1 X-1.000 Y79.500 F6000
G1 X-0.750 Y78.500 F6000
G1 X-0.500 Y77.750 F6000
G1 X-0.250 Y76.500 F6000
G1 X-0.250 Y75.500 F6000
G1 X-0.250 Y74.750 F6000
G1 X-0.250 Y74.500 F6000
G1 X-0.250 Y73.500 F6000
G1 X-0.250 Y72.750 F6000
G1 X-0.250 Y71.500 F6000
G1 X-0.250 Y70.000 F6000
G1 X-0.250 Y69.500 F6000
G1 X-0.250 Y68.500 F6000
G1 X-0.250 Y67.500 F6000
G1 X-0.250 Y67.000 F6000
G1 X-0.250 Y66.000 F6000
G1 X-0.250 Y65.250 F6000
G1 X-0.250 Y64.000 F6000
G1 X-0.250 Y63.000 F6000
G1 X-0.250 Y62.250 F6000
G1 X-0.250 Y61.000 F6000
G1 X0.250 Y59.500 F6000
G1 X0.500 Y58.750 F6000
G1 X1.000 Y57.500 F6000
G1 X1.500 Y56.750 F6000
G1 X2.000 Y55.500 F6000
G1 X2.750 Y54.750 F6000
G1 X3.250 Y54.250 F6000
G1 X4.000 Y53.500 F6000
G1 X4.250 Y53.250 F6000
G1 X4.500 Y53.000 F6000
G1 X5.000 Y52.500 F6000
G1 X5.250 Y52.250 F6000
G1 X5.750 Y52.000 F6000
G1 X6.250 Y52.000 F6000
G1 X6.750 Y52.000 F6000
G1 X7.000 Y52.000 F6000
G1 X7.000 Y51.750 F6000
G1 X7.000 Y51.250 F6000
G1 X7.000 Y50.500 F6000
G1 X7.000 Y49.750 F6000
G1 X7.000 Y48.500 F6000
G1 X7.000 Y47.250 F6000
G1 X7.000 Y46.250 F6000
G1 X7.000 Y44.750 F6000
G1 X7.250 Y43.000 F6000
G1 X7.250 Y42.000 F6000
G1 X7.250 Y40.000 F6000
G1 X7.250 Y39.000 F6000
G1 X7.250 Y37.000 F6000
G1 X7.250 Y35.000 F6000
G1 X7.250 Y34.000 F6000
G1 X7.250 Y32.250 F6000
G1 X7.000 Y31.250 F6000
G1 X6.750 Y29.250 F6000
G1 X6.250 Y27.250 F6000
G1 X6.000 Y26.250 F6000
G1 X5.500 Y24.500 F6000
G1 X5.000 Y22.500 F6000
G1 X4.750 Y21.500 F6000
G1 X4.250 Y19.500 F6000
G1 X4.000 Y18.500 F6000
G1 X3.750 Y17.250 F6000
G1 X3.250 Y16.000 F6000
G1 X3.250 Y15.500 F6000
G1 X3.000 Y14.500 F6000
G1 X3.000 Y13.750 F6000
G1 X3.000 Y13.250 F6000
G1 X3.000 Y12.750 F6000
G1 X3.000 Y12.500 F6000
G1 X2.750 Y12.500 F6000
G1 X2.750 Y12.000 F6000
G1 X3.500 Y11.750 F6000
G1 X3.750 Y11.500 F6000
G1 X4.250 Y11.250 F6000
G1 X4.500 Y11.250 F6000
G1 X4.750 Y11.250 F6000
G1 X4.750 Y11.000 F6000
G1 X5.000 Y11.000 F6000
G1 X5.250 Y11.000 F6000
G1 X5.250 Y10.750 F6000
G1 X5.500 Y10.500 F6000
G1 X5.500 Y10.250 F6000
G1 X5.750 Y10.000 F6000
G1 X6.000 Y9.750 F6000
G1 X6.000 Y9.500 F6000
G1 X6.000 Y9.250 F6000
G1 X6.000 Y9.000 F6000
G1 X6.000 Y8.500 F6000
G1 X6.250 Y8.500 F6000
G1 X6.250 Y8.250 F6000
G1 X6.250 Y8.000 F6000
G1 X6.250 Y7.750 F6000
G1 X6.250 Y7.500 F6000
G1 X6.250 Y7.250 F6000
G1 X6.250 Y7.000 F6000
G1 X6.250 Y6.750 F6000
G1 X6.250 Y6.500 F6000
G1 X6.500 Y6.500 F6000
G1 X6.500 Y6.250 F6000
G1 X6.500 Y6.000 F6000
G1 X6.500 Y5.750 F6000
G1 X6.750 Y5.750 F6000
G1 X7.000 Y5.500 F6000
G1 X7.000 Y5.250 F6000
G1 X7.250 Y5.000 F6000
G1 X7.750 Y4.750 F6000
G1 X9.000 Y4.500 F6000
G1 X9.750 Y4.250 F6000
G1 X11.500 Y4.000 F6000
G1 X12.500 Y3.750 F6000
G1 X15.000 Y3.500 F6000
G1 X17.000 Y3.500 F6000
G1 X18.000 Y3.250 F6000
G1 X20.000 Y3.250 F6000
G1 X21.750 Y3.250 F6000
G1 X22.250 Y3.250 F6000
G1 X23.250 Y3.250 F6000
G1 X23.500 Y3.250 F6000
G1 X24.250 Y3.000 F6000
G1 X24.500 Y3.000 F6000
G1 X24.750 Y3.000 F6000
G1 X25.000 Y3.000 F6000
G1 X25.000 Y2.750 F6000
G1 X25.250 Y2.750 F6000
G1 X25.500 Y2.750 F6000
G1 X25.500 Y2.500 F6000
G1 X25.750 Y2.500 F6000
G1 X26.250 Y2.250 F6000
G1 X27.000 Y2.000 F6000
G1 X27.250 Y1.750 F6000
G1 X28.750 Y1.750 F6000
G1 X29.500 Y2.000 F6000
G1 X30.750 Y2.250 F6000
G1 X32.500 Y2.500 F6000
G1 X33.500 Y2.500 F6000
G1 X35.250 Y2.750 F6000
G1 X37.500 Y3.250 F6000
G1 X38.500 Y3.250 F6000
G1 X40.500 Y3.500 F6000
G1 X41.500 Y3.750 F6000
G1 X43.250 Y4.000 F6000
G1 X44.750 Y4.250 F6000
G1 X45.500 Y4.250 F6000
G1 X46.500 Y4.500 F6000
G1 X47.000 Y4.750 F6000
G1 X48.000 Y4.750 F6000
G1 X48.750 Y5.000 F6000
G1 X49.500 Y5.000 F6000
G1 X50.000 Y5.000 F6000
G1 X50.500 Y5.000 F6000
G1 X50.750 Y5.250 F6000
G1 X51.250 Y5.250 F6000
G1 X51.750 Y5.250 F6000
G1 X52.000 Y5.500 F6000
G1 X52.250 Y5.500 F6000
G1 X52.750 Y5.500 F6000
G1 X53.250 Y5.500 F6000
G1 X53.500 Y5.500 F6000
G1 X54.000 Y5.750 F6000
G1 X54.250 Y5.750 F6000
G1 X55.000 Y5.750 F6000
G1 X55.750 Y6.000 F6000
G1 X56.000 Y6.000 F6000
G1 X56.500 Y6.250 F6000
G1 X57.000 Y6.250 F6000
G1 X58.000 Y6.500 F6000
G1 X58.750 Y6.500 F6000
G1 X59.500 Y6.500 F6000
G1 X60.250 Y7.000 F6000
G1 X60.750 Y7.000 F6000
G1 X61.750 Y7.250 F6000
G1 X63.500 Y7.500 F6000
G1 X64.750 Y7.500 F6000
G1 X66.500 Y7.500 F6000
G1 X67.500 Y7.750 F6000
G1 X69.250 Y7.750 F6000
G1 X71.250 Y7.750 F6000
G1 X72.750 Y8.000 F6000
G1 X74.250 Y8.000 F6000
G1 X75.500 Y8.000 F6000
G1 X77.500 Y8.250 F6000
G1 X78.750 Y8.250 F6000
G1 X79.500 Y8.250 F6000
G1 X81.000 Y8.500 F6000
G1 X81.500 Y8.750 F6000
G1 X82.250 Y9.000 F6000
G1 X82.750 Y9.000 F6000
G1 X83.000 Y9.250 F6000
G1 X83.500 Y9.250 F6000
G1 X83.750 Y9.250 F6000
G1 X84.000 Y9.500 F6000
G1 X84.250 Y9.500 F6000
G1 X84.500 Y9.500 F6000
G1 X84.500 Y9.750 F6000
G1 X84.750 Y9.750 F6000
G1 X85.000 Y9.750 F6000
G1 X85.000 Y10.000 F6000
G1 X85.250 Y10.000 F6000
G1 X85.500 Y10.000 F6000
G1 X85.750 Y10.000 F6000
G1 X86.250 Y10.000 F6000
G1 X86.750 Y10.000 F6000
G1 X87.000 Y10.000 F6000
G1 X87.500 Y10.000 F6000
G1 X87.750 Y10.000 F6000
G1 X89.000 Y10.000 F6000
G1 X89.750 Y10.000 F6000
G1 X90.000 Y10.000 F6000
G1 X90.250 Y10.000 F6000
G1 X90.500 Y10.000 F6000
G1 X90.750 Y10.000 F6000
G1 X91.000 Y10.000 F6000
G1 X91.250 Y10.000 F6000
G1 X91.500 Y10.000 F6000
G1 X91.750 Y9.750 F6000
G1 X92.000 Y9.750 F6000
G1 X92.250 Y9.750 F6000
G1 X92.500 Y9.750 F6000
G1 X92.750 Y9.500 F6000
G1 X92.750 Y9.250 F6000
G1 X92.750 Y9.000 F6000
G1 X92.750 Y8.750 F6000
G1 X92.750 Y8.500 F6000
G1 X92.750 Y8.250 F6000
G1 X92.750 Y8.000 F6000
G1 X92.750 Y7.750 F6000
G1 X92.750 Y7.250 F6000
G1 X92.750 Y7.000 F6000
G1 X92.750 Y6.750 F6000
G1 X92.750 Y6.500 F6000
G1 X92.750 Y6.250 F6000
G1 X92.750 Y6.000 F6000
G1 X92.750 Y5.750 F6000
G1 X92.750 Y5.500 F6000
G1 X92.750 Y6.250 F6000
G1 X93.250 Y7.000 F6000
G1 X93.750 Y8.500 F6000
G1 X94.250 Y10.250 F6000
G1 X94.500 Y11.250 F6000
G1 X94.750 Y13.000 F6000
G1 X95.000 Y14.250 F6000
G1 X95.250 Y16.500 F6000
G1 X95.500 Y19.250 F6000
G1 X95.750 Y20.500 F6000
G1 X96.000 Y23.250 F6000
G1 X96.250 Y25.000 F6000
G1 X96.750 Y27.750 F6000
G1 X97.000 Y30.500 F6000
G1 X97.000 Y32.000 F6000
G1 X97.250 Y34.500 F6000
G1 X97.500 Y37.250 F6000
G1 X97.750 Y38.750 F6000
G1 X98.000 Y41.250 F6000
G1 X98.000 Y42.250 F6000
G1 X98.000 Y44.500 F6000
G1 X98.250 Y47.000 F6000
G1 X98.250 Y48.000 F6000
G1 X98.500 Y50.750 F6000
G1 X98.500 Y52.000 F6000
G1 X98.500 Y54.250 F6000
G1 X98.500 Y57.000 F6000
G1 X98.500 Y58.250 F6000
G1 X98.500 Y61.000 F6000
G1 X98.500 Y63.250 F6000
G1 X98.500 Y65.000 F6000
G1 X98.500 Y67.500 F6000
G1 X98.500 Y68.750 F6000
G1 X98.250 Y71.000 F6000
G1 X98.250 Y73.500 F6000
G1 X98.250 Y74.750 F6000
G1 X98.250 Y76.750 F6000
G1 X98.250 Y77.500 F6000
G1 X98.250 Y79.250 F6000
G1 X98.250 Y81.000 F6000
G1 X98.250 Y81.750 F6000
G1 X98.250 Y83.000 F6000
G1 X98.250 Y84.250 F6000
G1 X98.250 Y85.000 F6000
G1 X98.250 Y86.000 F6000
G1 X98.250 Y86.500 F6000
G1 X98.250 Y87.250 F6000
G1 X98.250 Y88.250 F6000
G1 X98.250 Y88.750 F6000
G1 X98.250 Y89.500 F6000
G1 X98.250 Y90.000 F6000
G1 X98.250 Y90.750 F6000
G1 X98.250 Y91.750 F6000
G1 X98.250 Y92.250 F6000
G1 X98.250 Y92.750 F6000
G1 X98.250 Y93.250 F6000
G1 X98.250 Y94.000 F6000
G1 X98.250 Y94.750 F6000
G1 X98.250 Y95.000 F6000
G1 X98.250 Y96.000 F6000
G1 X98.000 Y96.750 F6000
G1 X97.750 Y97.250 F6000
G1 X97.750 Y97.750 F6000
G1 X97.250 Y98.500 F6000
G1 X97.250 Y99.250 F6000
G1 X96.750 Y99.750 F6000
G1 X96.500 Y100.500 F6000
G1 X96.000 Y100.750 F6000
G1 X95.750 Y101.250 F6000
G1 X95.250 Y102.000 F6000
G1 X94.750 Y102.500 F6000
G1 X94.250 Y103.000 F6000
G1 X94.000 Y103.500 F6000
G1 X93.750 Y103.750 F6000
G1 X93.500 Y104.000 F6000
G1 X93.250 Y104.500 F6000
G1 X93.000 Y104.500 F6000
G1 X93.000 Y104.750 F6000
G1 X93.000 Y105.500 F6000
G1 X93.000 Y106.000 F6000
G1 X93.250 Y106.750 F6000
G1 X93.750 Y108.000 F6000
G1 X94.250 Y108.750 F6000
G1 X94.500 Y110.000 F6000
G1 X94.500 Y110.750 F6000
G1 X94.750 Y112.000 F6000
G1 X95.000 Y113.500 F6000
G1 X95.000 Y114.250 F6000
G1 X95.000 Y115.500 F6000
G1 X95.250 Y117.000 F6000
G1 X95.250 Y117.750 F6000
G1 X95.250 Y118.750 F6000
G1 X95.250 Y119.250 F6000
G1 X95.250 Y120.250 F6000
G1 X95.250 Y121.250 F6000
G1 X95.250 Y121.750 F6000
G1 X95.250 Y122.500 F6000
G1 X95.250 Y122.750 F6000
G1 X95.250 Y123.500 F6000
G1 X95.250 Y124.000 F6000
G1 X95.250 Y124.250 F6000
G1 X95.250 Y124.500 F6000
G1 X95.250 Y124.750 F6000
G1 X95.250 Y125.500 F6000
G1 X95.250 Y125.750 F6000
G1 X95.250 Y126.250 F6000
G1 X95.250 Y126.500 F6000
G1 X95.250 Y126.750 F6000
G1 X95.250 Y127.000 F6000
G1 X95.250 Y127.250 F6000
G1 X95.250 Y127.500 F6000
G1 X95.250 Y127.750 F6000
G1 X95.250 Y128.000 F6000
G1 X95.250 Y128.250 F6000
G1 X95.250 Y128.500 F6000
G1 X95.250 Y128.750 F6000
G1 X95.250 Y129.000 F6000
G1 X95.250 Y129.250 F6000
G1 X95.250 Y129.750 F6000
G1 X95.250 Y130.000 F6000
G1 X95.250 Y130.250 F6000
G1 X95.250 Y130.500 F6000
G1 X95.250 Y130.750 F6000
G1 X95.250 Y131.000 F6000
G1 X95.250 Y131.500 F6000
G1 X95.250 Y131.750 F6000
G1 X95.250 Y132.000 F6000
G1 X95.250 Y132.250 F6000
G1 X95.250 Y132.500 F6000
G1 X95.250 Y132.750 F6000
G1 X95.250 Y133.000 F6000
G1 X95.250 Y133.250 F6000
G1 X95.250 Y133.500 F6000
G1 X95.250 Y134.000 F6000
G1 X95.250 Y134.250 F6000
G1 X95.250 Y134.500 F6000
G1 X95.250 Y134.750 F6000
G1 X95.250 Y135.000 F6000
G1 X95.250 Y135.250 F6000
G1 X95.250 Y135.500 F6000
G1 X95.250 Y135.750 F6000
G1 X95.250 Y136.000 F6000
G1 X95.250 Y136.250 F6000
G1 X95.250 Y136.750 F6000
G1 X95.250 Y137.000 F6000
G1 X95.250 Y137.250 F6000
G1 X95.250 Y137.500 F6000
G1 X95.250 Y137.750 F6000
G1 X95.250 Y138.000 F6000
G1 X95.250 Y138.250 F6000
G1 X95.250 Y138.500 F6000
G1 X95.250 Y138.750 F6000
G1 X95.250 Y139.000 F6000
G1 X95.250 Y139.250 F6000
G1 X95.250 Y139.500 F6000
G1 X95.250 Y139.750 F6000
G1 X95.250 Y140.000 F6000
G1 X95.250 Y140.250 F6000
G1 X95.000 Y140.250 F6000
G1 X94.500 Y140.250 F6000
G1 X93.250 Y140.250 F6000
G1 X91.000 Y140.250 F6000
G1 X89.500 Y140.250 F6000
G1 X87.500 Y140.250 F6000
G1 X85.750 Y140.250 F6000
G1 X83.750 Y140.250 F6000
G1 X82.250 Y140.250 F6000
G1 X81.000 Y140.250 F6000
G1 X79.750 Y140.250 F6000
G1 X78.250 Y140.250 F6000
G1 X77.750 Y140.250 F6000
G1 X76.750 Y140.250 F6000
G1 X75.750 Y140.250 F6000
G1 X75.000 Y140.250 F6000
G1 X73.750 Y140.250 F6000
G1 X73.000 Y140.250 F6000
G1 X71.750 Y140.250 F6000
G1 X70.250 Y140.250 F6000
G1 X69.500 Y140.250 F6000
G1 X68.250 Y140.250 F6000
G1 X67.750 Y140.250 F6000
G1 X66.500 Y140.000 F6000
G1 X65.500 Y139.750 F6000
G1 X64.750 Y139.750 F6000
G1 X64.000 Y139.500 F6000
G1 X63.250 Y139.500 F6000
G1 X63.000 Y139.500 F6000
G1 X62.250 Y139.500 F6000
G1 X62.000 Y139.250 F6000
G1 X61.250 Y139.250 F6000
G1 X60.750 Y139.000 F6000
G1 X60.250 Y139.000 F6000
G1 X59.750 Y139.000 F6000
G1 X59.500 Y139.000 F6000
G1 X58.750 Y138.750 F6000
G1 X58.250 Y138.750 F6000
G1 X57.500 Y138.750 F6000
G1 X56.750 Y138.750 F6000
G1 X56.500 Y138.750 F6000
G1 X56.000 Y138.750 F6000
G1 X55.750 Y138.750 F6000
G1 X55.250 Y138.750 F6000
G1 X55.000 Y138.750 F6000
G1 X54.500 Y138.750 F6000
G1 X53.750 Y138.750 F6000
G1 X53.500 Y138.750 F6000
G1 X53.000 Y138.750 F6000
G1 X52.250 Y138.750 F6000
G1 X51.750 Y138.750 F6000
G1 X51.250 Y138.750 F6000
G1 X50.750 Y138.750 F6000
G1 X50.000 Y138.750 F6000
G1 X49.750 Y138.750 F6000
G1 X49.000 Y138.750 F6000
G1 X48.500 Y138.750 F6000
G1 X47.500 Y138.750 F6000
G1 X47.000 Y138.750 F6000
G1 X46.750 Y138.750 F6000
G1 X46.250 Y138.750 F6000
G1 X46.000 Y138.750 F6000
G1 X45.250 Y138.750 F6000
G1 X45.000 Y138.750 F6000
G1 X44.500 Y138.750 F6000
G1 X44.000 Y138.750 F6000
G1 X43.750 Y138.750 F6000
G1 X43.250 Y138.750 F6000
G1 X42.750 Y138.750 F6000
G1 X42.250 Y138.750 F6000
G1 X42.000 Y138.750 F6000
G1 X41.500 Y138.750 F6000
G1 X41.250 Y138.750 F6000
G1 X40.750 Y138.750 F6000
G1 X40.500 Y138.750 F6000
G1 X40.250 Y138.750 F6000
G1 X39.750 Y139.000 F6000
G1 X39.500 Y139.250 F6000
G1 X39.000 Y139.250 F6000
G1 X38.750 Y139.500 F6000
G1 X38.500 Y139.500 F6000
G1 X38.250 Y139.750 F6000
G1 X38.000 Y139.750 F6000
G1 X37.500 Y140.000 F6000
G1 X37.250 Y140.250 F6000
G1 X37.000 Y140.250 F6000
G1 X36.500 Y140.500 F6000
G1 X36.000 Y140.750 F6000
G1 X35.750 Y141.000 F6000
G1 X35.250 Y141.000 F6000
G1 X34.750 Y141.250 F6000
G1 X34.500 Y141.250 F6000
G1 X34.250 Y141.500 F6000
G1 X34.000 Y141.750 F6000
G1 X33.500 Y141.750 F6000
G1 X33.250 Y141.750 F6000
G1 X33.000 Y142.000 F6000
G1 X32.750 Y142.000 F6000
G1 X32.250 Y142.250 F6000
G1 X31.750 Y142.250 F6000
G1 X31.500 Y142.500 F6000
G1 X31.250 Y142.750 F6000
G1 X31.000 Y142.750 F6000
G1 X30.750 Y142.750 F6000
G1 X30.500 Y143.000 F6000
G1 X30.250 Y143.000 F6000
G1 X29.750 Y142.750 F6000
G1 X29.500 Y142.750 F6000
G1 X28.750 Y142.500 F6000
G1 X28.500 Y142.250 F6000
G1 X27.750 Y141.750 F6000
G1 X27.250 Y141.500 F6000
G1 X26.500 Y141.250 F6000
G1 X23.750 Y140.750 F6000
G1 X22.750 Y140.750 F6000
G1 X20.250 Y140.750 F6000
G1 X18.250 Y140.750 F6000
G1 X17.000 Y140.750 F6000
G1 X15.250 Y140.750 F6000
G1 X14.500 Y140.750 F6000
G1 X13.500 Y140.750 F6000
G1 X13.000 Y140.750 F6000
G1 X12.750 Y140.750 F6000
G1 X12.250 Y140.750 F6000
G1 X11.500 Y140.750 F6000
G1 X11.000 Y140.750 F6000
G1 X10.500 Y140.750 F6000
G1 X10.000 Y140.750 F6000
G1 X9.750 Y140.750 F6000
G1 X9.250 Y141.000 F6000
G1 X8.750 Y141.000 F6000
G1 X8.250 Y141.250 F6000
G1 X8.000 Y141.250 F6000
G1 X7.750 Y141.250 F6000
G1 X7.750 Y141.500 F6000
G1 X7.250 Y141.500 F6000
G1 X7.000 Y141.500 F6000
G1 X7.000 Y141.750 F6000
G1 X6.750 Y141.750 F6000
G1 X6.500 Y141.750 F6000
G1 X6.250 Y141.750 F6000
G1 X6.000 Y142.000 F6000
M5 ; Pen up

G1 X0 Y0 F6000 ; Return to origin
M5 ; Pen up
M02 ; End of program
; End of program