; Generated by Pen Plotter App
; 2025-05-23 21:08:12
; Bed Size: X100.0mm Y148.0mm
G28 ; Home all axes
G90 ; Absolute positioning
G21 ; Units in millimeters
M5 ; Pen up

G1 X46.000 Y126.800 F6000 ; Move to start
M3 ; Pen down
G1 X46.000 Y126.400 F6000
G1 X46.000 Y126.000 F6000
G1 X46.000 Y125.400 F6000
G1 X46.000 Y124.800 F6000
G1 X46.000 Y123.800 F6000
G1 X46.000 Y123.200 F6000
G1 X46.000 Y122.400 F6000
G1 X46.000 Y121.600 F6000
G1 X46.000 Y121.000 F6000
G1 X45.600 Y120.400 F6000
G1 X45.200 Y119.600 F6000
G1 X44.200 Y118.600 F6000
G1 X43.200 Y117.800 F6000
G1 X42.600 Y117.200 F6000
G1 X41.600 Y116.400 F6000
G1 X40.800 Y115.600 F6000
G1 X40.600 Y115.400 F6000
G1 X40.200 Y115.200 F6000
G1 X40.200 Y114.800 F6000
G1 X39.800 Y114.800 F6000
G1 X39.600 Y114.200 F6000
G1 X39.400 Y114.000 F6000
G1 X39.200 Y113.800 F6000
G1 X39.200 Y113.400 F6000
G1 X39.000 Y113.000 F6000
G1 X39.000 Y112.600 F6000
G1 X39.000 Y112.200 F6000
G1 X38.800 Y111.600 F6000
G1 X38.800 Y111.200 F6000
G1 X38.800 Y110.600 F6000
G1 X38.800 Y110.200 F6000
G1 X38.600 Y109.600 F6000
G1 X38.600 Y109.000 F6000
G1 X38.400 Y108.800 F6000
G1 X38.200 Y108.000 F6000
G1 X38.200 Y107.600 F6000
G1 X38.000 Y107.000 F6000
G1 X38.000 Y106.600 F6000
G1 X37.600 Y106.000 F6000
G1 X37.400 Y105.600 F6000
G1 X37.200 Y105.200 F6000
G1 X37.000 Y104.800 F6000
G1 X36.600 Y104.400 F6000
G1 X36.200 Y104.000 F6000
G1 X35.800 Y103.800 F6000
G1 X35.600 Y103.400 F6000
G1 X35.200 Y103.000 F6000
G1 X35.000 Y103.000 F6000
G1 X34.800 Y102.600 F6000
G1 X34.600 Y102.600 F6000
G1 X34.600 Y102.400 F6000
G1 X34.400 Y102.200 F6000
G1 X34.200 Y102.000 F6000
G1 X34.200 Y101.800 F6000
G1 X34.000 Y101.200 F6000
G1 X34.000 Y100.800 F6000
G1 X33.800 Y100.600 F6000
G1 X33.800 Y100.200 F6000
G1 X33.800 Y100.000 F6000
G1 X33.600 Y99.800 F6000
G1 X33.600 Y99.600 F6000
G1 X33.600 Y99.200 F6000
G1 X33.400 Y99.200 F6000
G1 X33.400 Y99.000 F6000
G1 X33.400 Y98.800 F6000
G1 X33.400 Y98.600 F6000
G1 X34.000 Y98.600 F6000
G1 X35.400 Y98.600 F6000
G1 X37.200 Y98.600 F6000
G1 X39.200 Y98.600 F6000
G1 X41.000 Y98.600 F6000
G1 X42.400 Y98.800 F6000
G1 X43.600 Y99.000 F6000
G1 X44.400 Y99.400 F6000
G1 X45.400 Y99.800 F6000
G1 X45.600 Y100.000 F6000
G1 X46.400 Y100.400 F6000
G1 X47.200 Y100.800 F6000
G1 X47.600 Y101.200 F6000
G1 X48.800 Y102.000 F6000
G1 X49.400 Y102.400 F6000
G1 X51.000 Y103.400 F6000
G1 X52.400 Y104.400 F6000
G1 X53.600 Y105.000 F6000
G1 X55.000 Y106.000 F6000
G1 X56.000 Y106.400 F6000
G1 X56.800 Y106.600 F6000
G1 X57.400 Y106.800 F6000
G1 X57.800 Y106.800 F6000
G1 X58.200 Y106.800 F6000
G1 X58.600 Y106.800 F6000
G1 X59.000 Y106.800 F6000
G1 X59.400 Y106.600 F6000
G1 X60.400 Y106.200 F6000
G1 X61.000 Y106.000 F6000
G1 X62.200 Y105.400 F6000
G1 X63.800 Y104.400 F6000
G1 X64.600 Y104.000 F6000
G1 X66.000 Y103.000 F6000
G1 X68.000 Y102.200 F6000
G1 X69.000 Y101.600 F6000
G1 X70.800 Y100.600 F6000
G1 X71.800 Y100.000 F6000
G1 X73.400 Y99.200 F6000
G1 X74.600 Y98.600 F6000
G1 X74.800 Y98.400 F6000
G1 X75.400 Y98.200 F6000
G1 X75.800 Y97.800 F6000
G1 X75.800 Y97.600 F6000
G1 X76.000 Y97.400 F6000
G1 X76.000 Y97.200 F6000
G1 X76.800 Y96.600 F6000
G1 X78.200 Y96.000 F6000
G1 X79.600 Y95.200 F6000
G1 X82.200 Y94.400 F6000
G1 X86.000 Y93.800 F6000
G1 X92.000 Y93.800 F6000
G1 X97.400 Y93.600 F6000
G1 X100.000 Y93.200 F6000
G1 X100.000 Y92.800 F6000
G1 X100.000 Y92.400 F6000
G1 X100.000 Y92.400 F6000
G1 X100.000 Y92.400 F6000
G1 X100.000 Y92.400 F6000
G1 X100.000 Y92.400 F6000
G1 X100.000 Y92.400 F6000
G1 X100.000 Y92.400 F6000
G1 X100.000 Y92.400 F6000
G1 X100.000 Y92.400 F6000
G1 X100.000 Y92.400 F6000
G1 X100.000 Y92.600 F6000
G1 X100.000 Y92.800 F6000
G1 X100.000 Y93.000 F6000
G1 X100.000 Y93.400 F6000
G1 X100.000 Y94.200 F6000
G1 X100.000 Y94.800 F6000
G1 X100.000 Y96.000 F6000
G1 X100.000 Y96.600 F6000
G1 X100.000 Y97.400 F6000
G1 X100.000 Y97.800 F6000
G1 X100.000 Y98.000 F6000
G1 X100.000 Y98.200 F6000
G1 X100.000 Y98.600 F6000
G1 X100.000 Y98.800 F6000
G1 X100.000 Y99.200 F6000
G1 X100.000 Y99.800 F6000
G1 X100.000 Y99.800 F6000
G1 X93.000 Y99.800 F6000
G1 X85.400 Y99.800 F6000
G1 X76.600 Y99.800 F6000
G1 X68.600 Y99.800 F6000
G1 X55.000 Y99.800 F6000
G1 X45.200 Y99.800 F6000
G1 X32.800 Y99.800 F6000
G1 X22.600 Y99.800 F6000
G1 X11.800 Y99.800 F6000
G1 X2.000 Y99.800 F6000
G1 X0.000 Y99.800 F6000
G1 X0.000 Y99.800 F6000
G1 X0.000 Y99.800 F6000
G1 X0.000 Y99.800 F6000
G1 X0.000 Y99.800 F6000
G1 X0.000 Y99.800 F6000
G1 X0.000 Y99.800 F6000
G1 X0.000 Y99.800 F6000
G1 X0.000 Y99.800 F6000
G1 X0.000 Y99.800 F6000
G1 X0.000 Y99.800 F6000
G1 X0.000 Y100.200 F6000
G1 X0.000 Y100.200 F6000
G1 X0.000 Y100.200 F6000
G1 X0.000 Y100.400 F6000
G1 X0.000 Y100.400 F6000
G1 X0.000 Y100.400 F6000
G1 X0.000 Y100.400 F6000
G1 X0.000 Y100.200 F6000
G1 X0.000 Y99.000 F6000
G1 X0.000 Y98.000 F6000
G1 X0.000 Y96.800 F6000
G1 X0.000 Y95.400 F6000
G1 X0.000 Y94.400 F6000
G1 X0.000 Y93.400 F6000
G1 X0.000 Y92.000 F6000
G1 X0.000 Y89.800 F6000
G1 X0.000 Y88.000 F6000
G1 X5.000 Y86.600 F6000
G1 X14.000 Y85.200 F6000
G1 X23.000 Y83.600 F6000
G1 X31.600 Y82.200 F6000
G1 X37.200 Y81.600 F6000
G1 X43.800 Y81.200 F6000
G1 X48.400 Y81.000 F6000
G1 X52.200 Y81.000 F6000
G1 X54.600 Y81.000 F6000
G1 X57.800 Y81.000 F6000
G1 X61.200 Y81.000 F6000
G1 X65.000 Y80.600 F6000
G1 X67.800 Y80.600 F6000
G1 X71.000 Y80.600 F6000
G1 X73.800 Y80.600 F6000
G1 X75.800 Y80.600 F6000
G1 X77.800 Y80.400 F6000
G1 X79.400 Y80.400 F6000
G1 X81.200 Y80.200 F6000
G1 X82.400 Y80.200 F6000
G1 X83.400 Y80.000 F6000
G1 X83.600 Y80.000 F6000
G1 X83.800 Y80.000 F6000
G1 X83.600 Y79.400 F6000
G1 X82.800 Y79.400 F6000
G1 X81.000 Y78.600 F6000
G1 X78.600 Y78.000 F6000
G1 X74.400 Y77.400 F6000
G1 X67.200 Y77.200 F6000
G1 X58.000 Y77.200 F6000
G1 X49.400 Y77.200 F6000
G1 X37.800 Y76.000 F6000
G1 X28.000 Y76.000 F6000
G1 X21.000 Y75.600 F6000
G1 X15.200 Y75.000 F6000
G1 X12.200 Y74.600 F6000
G1 X10.000 Y74.000 F6000
G1 X9.400 Y73.800 F6000
G1 X9.000 Y73.400 F6000
G1 X9.200 Y73.400 F6000
G1 X10.600 Y72.800 F6000
G1 X14.000 Y72.000 F6000
G1 X18.800 Y71.200 F6000
G1 X26.200 Y70.000 F6000
G1 X34.000 Y69.000 F6000
G1 X42.600 Y67.600 F6000
G1 X49.400 Y66.200 F6000
G1 X57.400 Y64.400 F6000
G1 X65.800 Y63.200 F6000
G1 X72.000 Y63.000 F6000
G1 X78.000 Y63.000 F6000
G1 X81.200 Y63.000 F6000
G1 X83.600 Y63.000 F6000
G1 X84.800 Y63.000 F6000
G1 X85.600 Y63.000 F6000
G1 X85.600 Y62.800 F6000
G1 X85.200 Y62.600 F6000
G1 X84.200 Y62.000 F6000
G1 X81.600 Y60.800 F6000
G1 X79.200 Y60.200 F6000
G1 X75.200 Y59.200 F6000
G1 X69.600 Y58.400 F6000
G1 X64.400 Y57.600 F6000
G1 X57.200 Y56.800 F6000
G1 X49.800 Y55.800 F6000
G1 X44.800 Y55.600 F6000
G1 X42.000 Y55.000 F6000
G1 X40.600 Y54.800 F6000
G1 X40.200 Y54.800 F6000
G1 X41.000 Y54.800 F6000
G1 X43.000 Y54.800 F6000
G1 X46.200 Y54.800 F6000
G1 X49.600 Y54.800 F6000
G1 X53.600 Y54.400 F6000
G1 X56.400 Y54.400 F6000
G1 X58.800 Y54.400 F6000
G1 X61.000 Y54.400 F6000
G1 X62.400 Y54.400 F6000
G1 X62.800 Y54.400 F6000
G1 X63.000 Y54.400 F6000
G1 X61.600 Y54.200 F6000
G1 X58.000 Y54.000 F6000
G1 X52.600 Y54.000 F6000
G1 X45.400 Y54.000 F6000
G1 X38.800 Y53.400 F6000
G1 X30.600 Y53.000 F6000
G1 X22.800 Y52.200 F6000
G1 X17.600 Y52.000 F6000
G1 X12.200 Y51.600 F6000
G1 X7.600 Y51.400 F6000
G1 X4.800 Y51.400 F6000
G1 X2.600 Y51.200 F6000
G1 X1.200 Y51.200 F6000
G1 X0.600 Y51.200 F6000
G1 X0.400 Y51.200 F6000
G1 X0.800 Y51.400 F6000
G1 X2.800 Y52.200 F6000
G1 X6.800 Y53.600 F6000
G1 X12.600 Y54.400 F6000
G1 X18.200 Y55.000 F6000
G1 X26.400 Y55.800 F6000
G1 X35.200 Y56.200 F6000
G1 X44.400 Y56.200 F6000
G1 X52.600 Y56.600 F6000
G1 X62.600 Y57.000 F6000
G1 X71.800 Y57.000 F6000
G1 X79.400 Y57.200 F6000
G1 X88.200 Y57.600 F6000
G1 X95.800 Y58.000 F6000
G1 X100.000 Y58.600 F6000
G1 X100.000 Y59.000 F6000
G1 X100.000 Y59.600 F6000
G1 X100.000 Y59.600 F6000
G1 X100.000 Y60.000 F6000
G1 X100.000 Y60.200 F6000
G1 X100.000 Y60.800 F6000
G1 X95.800 Y61.600 F6000
G1 X88.600 Y61.800 F6000
G1 X77.800 Y62.200 F6000
G1 X64.200 Y62.200 F6000
G1 X48.600 Y62.200 F6000
G1 X34.600 Y62.200 F6000
G1 X17.400 Y62.200 F6000
G1 X1.600 Y62.200 F6000
G1 X0.000 Y62.800 F6000
G1 X0.000 Y62.800 F6000
G1 X0.000 Y62.800 F6000
G1 X0.000 Y62.800 F6000
G1 X0.000 Y62.800 F6000
G1 X0.000 Y62.800 F6000
G1 X0.000 Y63.000 F6000
G1 X0.000 Y63.200 F6000
G1 X0.000 Y63.800 F6000
G1 X0.000 Y64.200 F6000
G1 X0.000 Y64.200 F6000
G1 X0.000 Y64.200 F6000
G1 X0.000 Y64.200 F6000
G1 X0.000 Y64.200 F6000
G1 X0.000 Y64.200 F6000
G1 X5.400 Y64.200 F6000
G1 X11.400 Y64.200 F6000
G1 X19.000 Y64.200 F6000
G1 X26.600 Y64.200 F6000
G1 X32.200 Y64.200 F6000
G1 X39.200 Y64.200 F6000
G1 X45.200 Y64.200 F6000
G1 X50.000 Y64.200 F6000
G1 X53.400 Y64.200 F6000
G1 X56.200 Y64.200 F6000
G1 X58.600 Y64.400 F6000
G1 X59.800 Y64.600 F6000
G1 X60.000 Y64.600 F6000
G1 X59.800 Y64.600 F6000
G1 X58.600 Y64.600 F6000
G1 X56.200 Y64.600 F6000
G1 X53.600 Y64.600 F6000
G1 X50.600 Y65.000 F6000
G1 X47.400 Y65.800 F6000
G1 X45.200 Y66.200 F6000
G1 X43.400 Y66.600 F6000
G1 X42.200 Y67.200 F6000
G1 X41.400 Y67.800 F6000
G1 X41.200 Y68.000 F6000
G1 X40.800 Y68.200 F6000
G1 X40.000 Y68.600 F6000
G1 X39.800 Y69.000 F6000
G1 X39.400 Y69.800 F6000
G1 X39.200 Y70.800 F6000
G1 X39.000 Y72.000 F6000
G1 X39.000 Y73.600 F6000
G1 X39.000 Y74.800 F6000
G1 X39.000 Y76.600 F6000
G1 X39.000 Y78.000 F6000
G1 X39.000 Y79.800 F6000
G1 X39.000 Y81.800 F6000
G1 X39.000 Y83.800 F6000
G1 X39.000 Y86.200 F6000
G1 X39.000 Y88.600 F6000
G1 X38.600 Y90.600 F6000
G1 X38.000 Y93.000 F6000
G1 X36.800 Y95.400 F6000
G1 X35.800 Y98.000 F6000
G1 X34.600 Y99.800 F6000
G1 X33.600 Y101.400 F6000
G1 X32.200 Y103.000 F6000
G1 X31.200 Y104.800 F6000
G1 X30.000 Y106.000 F6000
G1 X28.800 Y107.800 F6000
G1 X27.600 Y109.200 F6000
G1 X26.600 Y110.400 F6000
G1 X25.600 Y111.800 F6000
G1 X24.400 Y113.000 F6000
G1 X23.200 Y114.400 F6000
G1 X22.600 Y115.400 F6000
G1 X22.200 Y116.200 F6000
G1 X22.000 Y117.200 F6000
G1 X22.000 Y118.000 F6000
G1 X22.000 Y118.400 F6000
G1 X22.000 Y119.000 F6000
G1 X22.000 Y119.200 F6000
G1 X22.000 Y119.600 F6000
G1 X22.600 Y120.200 F6000
G1 X23.200 Y120.600 F6000
G1 X24.600 Y121.400 F6000
G1 X25.800 Y122.000 F6000
G1 X27.800 Y122.800 F6000
G1 X29.600 Y123.400 F6000
G1 X31.200 Y124.200 F6000
G1 X33.400 Y125.000 F6000
G1 X35.800 Y125.600 F6000
G1 X38.200 Y126.200 F6000
G1 X40.400 Y127.000 F6000
G1 X42.400 Y127.400 F6000
G1 X44.000 Y128.000 F6000
G1 X45.000 Y128.400 F6000
G1 X45.800 Y128.800 F6000
G1 X46.600 Y129.000 F6000
G1 X47.000 Y129.400 F6000
G1 X47.200 Y129.400 F6000
G1 X47.400 Y129.400 F6000
G1 X47.400 Y129.600 F6000
G1 X47.400 Y129.400 F6000
G1 X47.400 Y128.400 F6000
G1 X47.400 Y127.800 F6000
G1 X47.400 Y126.600 F6000
G1 X47.400 Y125.000 F6000
G1 X47.400 Y123.800 F6000
G1 X47.400 Y122.600 F6000
G1 X47.400 Y121.000 F6000
G1 X47.400 Y118.600 F6000
G1 X47.400 Y116.000 F6000
G1 X47.400 Y113.600 F6000
G1 X47.400 Y110.600 F6000
G1 X47.400 Y107.800 F6000
G1 X47.400 Y105.000 F6000
G1 X47.400 Y102.200 F6000
G1 X47.400 Y99.200 F6000
G1 X47.400 Y96.400 F6000
G1 X47.400 Y93.400 F6000
G1 X47.800 Y90.000 F6000
G1 X48.000 Y86.600 F6000
G1 X48.600 Y82.600 F6000
G1 X48.600 Y79.800 F6000
G1 X48.800 Y77.200 F6000
G1 X49.000 Y74.200 F6000
G1 X49.000 Y71.000 F6000
G1 X49.000 Y68.200 F6000
G1 X49.400 Y64.000 F6000
G1 X49.400 Y59.600 F6000
G1 X49.400 Y55.800 F6000
G1 X49.400 Y53.000 F6000
G1 X48.800 Y49.200 F6000
G1 X48.200 Y45.600 F6000
G1 X47.600 Y42.800 F6000
G1 X46.800 Y39.000 F6000
G1 X45.400 Y34.600 F6000
G1 X43.400 Y31.000 F6000
G1 X41.200 Y27.600 F6000
G1 X38.000 Y24.000 F6000
G1 X35.000 Y20.600 F6000
G1 X32.400 Y17.600 F6000
G1 X28.800 Y14.800 F6000
G1 X26.400 Y12.200 F6000
G1 X23.200 Y9.000 F6000
G1 X20.200 Y6.000 F6000
G1 X17.800 Y3.000 F6000
G1 X15.200 Y0.000 F6000
G1 X13.800 Y0.000 F6000
G1 X13.000 Y0.000 F6000
G1 X12.400 Y0.000 F6000
G1 X11.600 Y0.000 F6000
G1 X11.200 Y0.000 F6000
G1 X11.000 Y0.000 F6000
G1 X11.000 Y0.000 F6000
G1 X11.000 Y0.000 F6000
G1 X11.000 Y0.000 F6000
G1 X11.000 Y0.000 F6000
G1 X11.000 Y0.000 F6000
G1 X11.000 Y0.000 F6000
G1 X11.000 Y0.000 F6000
G1 X11.000 Y0.000 F6000
G1 X11.000 Y0.000 F6000
G1 X10.800 Y0.000 F6000
G1 X10.800 Y0.000 F6000
G1 X10.800 Y0.000 F6000
G1 X10.800 Y0.000 F6000
G1 X11.200 Y0.000 F6000
G1 X12.200 Y0.000 F6000
G1 X13.400 Y0.000 F6000
G1 X14.400 Y0.000 F6000
G1 X15.800 Y0.000 F6000
G1 X17.600 Y0.000 F6000
G1 X19.000 Y0.000 F6000
G1 X19.800 Y0.000 F6000
G1 X20.800 Y3.800 F6000
G1 X21.800 Y8.000 F6000
G1 X22.400 Y13.800 F6000
G1 X23.000 Y18.400 F6000
G1 X23.600 Y25.000 F6000
G1 X24.000 Y31.800 F6000
G1 X24.200 Y37.800 F6000
G1 X25.000 Y45.000 F6000
G1 X25.400 Y52.800 F6000
G1 X25.600 Y60.400 F6000
G1 X26.000 Y65.400 F6000
G1 X26.200 Y71.000 F6000
G1 X26.600 Y76.000 F6000
G1 X27.200 Y80.800 F6000
G1 X27.400 Y84.200 F6000
G1 X28.200 Y88.800 F6000
G1 X29.600 Y92.800 F6000
G1 X31.000 Y96.800 F6000
G1 X32.200 Y99.000 F6000
G1 X33.400 Y101.400 F6000
G1 X34.800 Y103.800 F6000
G1 X36.000 Y105.400 F6000
G1 X37.200 Y107.200 F6000
G1 X38.600 Y109.000 F6000
G1 X39.800 Y110.600 F6000
G1 X41.600 Y112.200 F6000
G1 X43.200 Y113.600 F6000
G1 X45.200 Y115.400 F6000
G1 X47.800 Y117.200 F6000
G1 X51.000 Y119.400 F6000
G1 X53.600 Y120.800 F6000
G1 X56.600 Y122.200 F6000
G1 X60.200 Y123.800 F6000
G1 X62.600 Y124.600 F6000
G1 X65.600 Y125.000 F6000
G1 X68.800 Y125.800 F6000
G1 X71.600 Y126.200 F6000
G1 X73.800 Y126.400 F6000
G1 X76.200 Y126.800 F6000
G1 X78.600 Y127.000 F6000
G1 X80.000 Y127.400 F6000
G1 X81.800 Y127.600 F6000
G1 X83.200 Y128.000 F6000
G1 X84.600 Y128.800 F6000
G1 X85.200 Y128.800 F6000
G1 X85.800 Y129.200 F6000
G1 X86.000 Y129.400 F6000
G1 X86.200 Y129.400 F6000
G1 X86.200 Y129.200 F6000
G1 X86.200 Y128.000 F6000
G1 X86.200 Y126.600 F6000
G1 X86.200 Y125.600 F6000
G1 X86.400 Y123.600 F6000
G1 X87.000 Y121.200 F6000
G1 X87.800 Y119.200 F6000
G1 X89.000 Y116.800 F6000
G1 X90.200 Y114.400 F6000
G1 X91.600 Y111.400 F6000
G1 X92.600 Y109.200 F6000
G1 X93.800 Y106.800 F6000
G1 X95.000 Y104.200 F6000
G1 X95.800 Y102.400 F6000
G1 X96.400 Y101.000 F6000
G1 X97.000 Y99.000 F6000
G1 X97.400 Y97.800 F6000
G1 X97.800 Y97.000 F6000
G1 X98.000 Y96.200 F6000
G1 X98.200 Y95.400 F6000
G1 X98.200 Y94.600 F6000
G1 X97.600 Y93.000 F6000
G1 X96.800 Y91.200 F6000
G1 X96.000 Y90.200 F6000
G1 X94.400 Y88.400 F6000
G1 X93.400 Y87.800 F6000
G1 X90.800 Y86.400 F6000
G1 X87.000 Y84.000 F6000
G1 X83.800 Y82.200 F6000
G1 X79.200 Y79.600 F6000
G1 X74.400 Y76.800 F6000
G1 X70.200 Y74.400 F6000
G1 X66.000 Y72.600 F6000
G1 X60.600 Y70.600 F6000
G1 X55.000 Y69.000 F6000
G1 X50.400 Y68.200 F6000
G1 X47.200 Y67.400 F6000
G1 X43.400 Y66.600 F6000
G1 X41.400 Y66.200 F6000
G1 X39.800 Y65.800 F6000
G1 X39.200 Y65.400 F6000
G1 X38.800 Y65.200 F6000
G1 X38.800 Y65.000 F6000
M5 ; Pen up

G1 X0 Y0 F6000 ; Return to origin
M5 ; Pen up
M02 ; End of program
; End of program