; Generated by Pen Plotter App
; 2025-05-23 09:59:34
G28 ; Home all axes
G90 ; Absolute positioning
G21 ; Units in millimeters
G1 Z2.0 F6000 ; Pen up
M3 ; Pen up

G1 X40.000 Y73.250 F6000 ; Move to start
G1 Z0.0 F6000 ; Pen down
M5 ; Pen down
G1 X40.250 Y73.250 F6000
G1 X41.000 Y73.250 F6000
G1 X42.250 Y73.250 F6000
G1 X43.000 Y73.250 F6000
G1 X44.500 Y73.000 F6000
G1 X46.250 Y72.750 F6000
G1 X47.000 Y72.500 F6000
G1 X49.000 Y72.250 F6000
G1 X50.000 Y72.000 F6000
G1 X51.750 Y71.750 F6000
G1 X54.250 Y71.500 F6000
G1 X56.000 Y71.500 F6000
G1 X57.500 Y71.500 F6000
G1 X60.250 Y71.500 F6000
G1 X63.000 Y71.250 F6000
G1 X65.500 Y71.250 F6000
G1 X68.500 Y71.000 F6000
G1 X71.000 Y70.750 F6000
G1 X73.250 Y70.500 F6000
G1 X75.000 Y70.500 F6000
G1 X76.500 Y70.250 F6000
G1 X77.500 Y70.000 F6000
G1 X78.250 Y70.000 F6000
G1 X78.250 Y69.750 F6000
G1 X78.500 Y69.750 F6000
G1 X78.750 Y69.750 F6000
G1 X78.500 Y69.750 F6000
G1 Z2.0 F6000 ; Pen up
M3 ; Pen up

G1 X76.750 Y88.250 F6000 ; Move to start
G1 Z0.0 F6000 ; Pen down
M5 ; Pen down
G1 X76.000 Y88.000 F6000
G1 X74.750 Y87.500 F6000
G1 X73.750 Y87.250 F6000
G1 X72.250 Y86.500 F6000
G1 X71.000 Y86.250 F6000
G1 X70.000 Y86.250 F6000
G1 X68.750 Y85.500 F6000
G1 X67.750 Y85.250 F6000
G1 X66.750 Y84.750 F6000
G1 X66.250 Y84.500 F6000
G1 X65.500 Y84.250 F6000
G1 X64.750 Y84.000 F6000
G1 X64.750 Y83.750 F6000
G1 X64.250 Y83.500 F6000
G1 X64.000 Y83.500 F6000
G1 X63.500 Y83.250 F6000
G1 X63.500 Y83.000 F6000
G1 X62.750 Y82.500 F6000
G1 X62.500 Y82.000 F6000
G1 X62.000 Y81.500 F6000
G1 X61.500 Y80.750 F6000
G1 X61.250 Y80.500 F6000
G1 X60.750 Y79.750 F6000
G1 X60.500 Y79.500 F6000
G1 X60.000 Y78.500 F6000
G1 X59.500 Y77.750 F6000
G1 X59.000 Y77.000 F6000
G1 X58.250 Y75.750 F6000
G1 X58.000 Y75.250 F6000
G1 X57.250 Y74.500 F6000
G1 X57.000 Y74.000 F6000
G1 X56.250 Y72.750 F6000
G1 X55.750 Y72.000 F6000
G1 X55.500 Y71.500 F6000
G1 X54.750 Y70.500 F6000
G1 X54.500 Y69.750 F6000
G1 X53.750 Y68.750 F6000
G1 X53.500 Y68.250 F6000
G1 X53.000 Y67.250 F6000
G1 X52.250 Y66.250 F6000
G1 X52.000 Y65.750 F6000
G1 X51.250 Y64.750 F6000
G1 X51.250 Y64.000 F6000
G1 X50.500 Y62.750 F6000
G1 X49.750 Y61.500 F6000
G1 X49.250 Y60.500 F6000
G1 X48.750 Y59.000 F6000
G1 X48.500 Y58.250 F6000
G1 X47.750 Y56.500 F6000
G1 X47.500 Y55.500 F6000
G1 X47.000 Y53.750 F6000
G1 X46.250 Y52.000 F6000
G1 X46.000 Y51.000 F6000
G1 X45.750 Y49.250 F6000
G1 X45.500 Y47.750 F6000
G1 X45.000 Y45.750 F6000
G1 X44.750 Y44.750 F6000
G1 X44.750 Y42.750 F6000
G1 X44.750 Y40.750 F6000
G1 X44.500 Y39.500 F6000
G1 X44.500 Y37.500 F6000
G1 X44.500 Y36.500 F6000
G1 X44.500 Y35.000 F6000
G1 X44.500 Y34.250 F6000
G1 X44.500 Y33.000 F6000
G1 X44.500 Y31.500 F6000
G1 X44.500 Y31.000 F6000
G1 X44.500 Y30.250 F6000
G1 X44.500 Y29.750 F6000
G1 X44.500 Y28.750 F6000
G1 X44.500 Y28.500 F6000
G1 X44.500 Y27.750 F6000
G1 X44.500 Y27.000 F6000
G1 X44.500 Y26.500 F6000
G1 X44.500 Y26.000 F6000
G1 X44.500 Y25.500 F6000
G1 X44.500 Y25.250 F6000
G1 X44.500 Y24.500 F6000
G1 X44.500 Y23.750 F6000
G1 X44.500 Y23.500 F6000
G1 X44.500 Y22.750 F6000
G1 X44.500 Y22.500 F6000
G1 X44.500 Y22.000 F6000
G1 X44.500 Y21.750 F6000
G1 X44.500 Y21.250 F6000
G1 X45.000 Y20.750 F6000
G1 X45.250 Y20.500 F6000
G1 X45.750 Y19.750 F6000
G1 X46.250 Y19.750 F6000
G1 X46.250 Y19.500 F6000
G1 X46.500 Y19.500 F6000
G1 X46.500 Y19.250 F6000
G1 X46.750 Y19.250 F6000
G1 Z2.0 F6000 ; Pen up
M3 ; Pen up

G1 X65.750 Y45.500 F6000 ; Move to start
G1 Z0.0 F6000 ; Pen down
M5 ; Pen down
G1 X65.250 Y45.250 F6000
G1 X64.500 Y44.500 F6000
G1 X63.500 Y44.000 F6000
G1 X63.250 Y43.500 F6000
G1 X62.750 Y43.250 F6000
G1 X62.250 Y42.750 F6000
G1 X61.500 Y42.250 F6000
G1 X61.250 Y42.000 F6000
G1 X60.250 Y41.250 F6000
G1 X59.750 Y40.750 F6000
G1 X59.500 Y40.250 F6000
G1 X58.500 Y40.000 F6000
G1 X58.000 Y39.500 F6000
G1 X57.250 Y39.000 F6000
G1 X56.750 Y38.750 F6000
G1 X55.500 Y38.000 F6000
G1 X54.750 Y37.750 F6000
G1 X54.500 Y37.500 F6000
G1 X53.500 Y37.000 F6000
G1 X52.750 Y37.000 F6000
G1 X51.750 Y36.750 F6000
G1 X51.250 Y36.500 F6000
G1 X50.000 Y36.250 F6000
G1 X49.250 Y36.250 F6000
G1 X48.750 Y36.250 F6000
G1 X48.000 Y36.250 F6000
G1 X47.500 Y36.250 F6000
G1 X46.750 Y36.250 F6000
G1 X46.250 Y36.250 F6000
G1 X46.000 Y36.250 F6000
G1 X45.500 Y36.250 F6000
G1 X45.250 Y36.250 F6000
G1 X44.750 Y36.500 F6000
G1 X44.500 Y36.500 F6000
G1 X44.250 Y36.750 F6000
G1 X43.500 Y37.000 F6000
G1 X43.250 Y37.250 F6000
G1 X43.000 Y37.500 F6000
G1 X42.500 Y37.750 F6000
G1 X41.750 Y38.000 F6000
G1 X41.500 Y38.250 F6000
G1 X41.000 Y38.500 F6000
G1 X39.750 Y39.000 F6000
G1 X39.250 Y39.250 F6000
G1 X38.750 Y39.750 F6000
G1 X38.250 Y40.000 F6000
G1 X37.250 Y40.500 F6000
G1 X37.000 Y40.750 F6000
G1 X36.500 Y41.500 F6000
G1 X35.750 Y42.000 F6000
G1 X35.500 Y42.500 F6000
G1 X35.000 Y43.000 F6000
G1 X34.750 Y43.250 F6000
G1 X34.250 Y44.000 F6000
G1 X34.250 Y44.500 F6000
G1 X33.750 Y45.250 F6000
G1 X33.250 Y46.000 F6000
G1 X33.250 Y46.500 F6000
G1 X33.000 Y47.250 F6000
G1 X32.750 Y47.750 F6000
G1 X32.500 Y49.250 F6000
G1 X32.500 Y50.000 F6000
G1 X32.500 Y50.500 F6000
G1 X32.250 Y51.250 F6000
G1 X32.250 Y51.750 F6000
G1 X32.250 Y52.000 F6000
G1 X32.250 Y52.500 F6000
G1 X32.250 Y52.750 F6000
G1 X32.000 Y53.500 F6000
G1 X32.000 Y54.000 F6000
G1 X31.750 Y54.250 F6000
G1 X31.750 Y54.750 F6000
G1 X31.750 Y55.000 F6000
G1 X31.750 Y55.250 F6000
G1 X31.750 Y55.500 F6000
G1 X31.750 Y55.750 F6000
G1 X31.750 Y56.000 F6000
G1 X31.500 Y56.250 F6000
G1 X31.500 Y56.750 F6000
G1 X31.500 Y57.000 F6000
G1 X31.500 Y57.750 F6000
G1 X31.500 Y58.000 F6000
G1 X31.500 Y58.250 F6000
G1 X31.500 Y58.500 F6000
G1 X31.750 Y59.500 F6000
G1 X32.000 Y59.750 F6000
G1 X32.500 Y60.250 F6000
G1 X33.000 Y61.000 F6000
G1 X33.500 Y61.250 F6000
G1 X34.500 Y62.000 F6000
G1 X35.500 Y62.000 F6000
G1 X36.250 Y62.250 F6000
G1 X37.750 Y62.500 F6000
G1 X38.500 Y62.750 F6000
G1 X40.250 Y62.750 F6000
G1 X42.250 Y62.750 F6000
G1 X43.250 Y62.750 F6000
G1 X45.250 Y62.750 F6000
G1 X46.250 Y62.750 F6000
G1 X48.500 Y62.750 F6000
G1 X50.500 Y62.750 F6000
G1 X52.000 Y62.750 F6000
G1 X54.000 Y62.750 F6000
G1 X55.000 Y62.500 F6000
G1 X57.250 Y62.000 F6000
G1 X59.250 Y61.500 F6000
G1 X60.000 Y61.250 F6000
G1 X62.000 Y60.750 F6000
G1 X64.250 Y60.000 F6000
G1 X65.250 Y59.500 F6000
G1 X67.500 Y58.500 F6000
G1 X69.000 Y57.750 F6000
G1 X71.000 Y56.250 F6000
G1 X73.500 Y55.250 F6000
G1 X75.000 Y54.500 F6000
G1 X77.000 Y53.500 F6000
G1 X78.250 Y52.750 F6000
G1 X80.000 Y52.000 F6000
G1 X81.500 Y51.250 F6000
G1 X82.250 Y50.750 F6000
G1 X83.250 Y50.250 F6000
G1 X84.000 Y49.500 F6000
G1 X84.750 Y49.500 F6000
G1 X85.250 Y49.000 F6000
G1 X85.500 Y48.750 F6000
G1 X86.000 Y48.500 F6000
G1 X86.500 Y48.250 F6000
G1 X87.000 Y48.000 F6000
G1 X87.250 Y47.750 F6000
G1 X87.500 Y47.500 F6000
G1 X88.000 Y46.750 F6000
G1 X88.000 Y46.500 F6000
G1 X88.000 Y46.000 F6000
G1 X88.000 Y45.500 F6000
G1 X88.000 Y44.750 F6000
G1 X88.000 Y44.500 F6000
G1 X88.000 Y43.500 F6000
G1 X88.000 Y43.000 F6000
G1 X88.000 Y42.500 F6000
G1 X88.000 Y41.750 F6000
G1 X88.000 Y41.250 F6000
G1 X88.000 Y40.750 F6000
G1 X88.000 Y40.250 F6000
G1 X88.000 Y39.750 F6000
G1 X88.000 Y39.250 F6000
G1 X88.000 Y38.750 F6000
G1 X88.000 Y38.250 F6000
G1 X88.000 Y37.750 F6000
G1 X88.000 Y37.250 F6000
G1 X88.000 Y37.000 F6000
G1 X88.000 Y36.250 F6000
G1 X88.000 Y35.750 F6000
G1 X88.000 Y35.500 F6000
G1 X88.000 Y34.750 F6000
G1 X88.000 Y34.250 F6000
G1 X88.000 Y33.750 F6000
G1 X88.000 Y33.500 F6000
G1 X88.000 Y32.750 F6000
G1 X87.750 Y32.000 F6000
G1 X87.500 Y31.500 F6000
G1 X87.000 Y31.000 F6000
G1 X86.750 Y30.750 F6000
G1 X86.250 Y30.000 F6000
G1 X85.750 Y29.750 F6000
G1 X85.250 Y29.250 F6000
G1 X84.500 Y28.500 F6000
G1 X84.250 Y28.250 F6000
G1 X83.750 Y27.750 F6000
G1 X83.500 Y27.500 F6000
G1 X83.250 Y27.250 F6000
G1 X82.500 Y27.000 F6000
G1 X82.500 Y26.750 F6000
G1 X82.250 Y26.750 F6000
G1 X82.000 Y26.750 F6000
G1 X81.750 Y26.750 F6000
G1 X81.750 Y26.500 F6000
G1 X81.500 Y26.500 F6000
G1 X81.250 Y26.500 F6000
G1 X81.000 Y26.500 F6000
G1 X80.750 Y26.250 F6000
G1 X80.500 Y26.250 F6000
G1 X80.000 Y26.250 F6000
G1 X79.500 Y26.000 F6000
G1 X79.250 Y26.000 F6000
G1 X79.000 Y26.000 F6000
G1 X78.750 Y26.000 F6000
G1 X78.500 Y26.000 F6000
G1 Z2.0 F6000 ; Pen up
M3 ; Pen up

G1 X0 Y0 F6000 ; Return to origin
M5 ; Pen up
M02 ; End of program
M84 ; Disable motors
; End of program